; generated by Slic3r Prusa Edition 1.41.0+ on 2018-11-17 at 20:20:23

; 

; external perimeters extrusion width = 0.45mm
; perimeters extrusion width = 0.45mm
; infill extrusion width = 0.45mm
; solid infill extrusion width = 0.45mm
; top infill extrusion width = 0.40mm
; first layer extrusion width = 0.42mm

M201 X1000 Y1000 Z1000 E5000 ; sets maximum accelerations, mm/sec^2
M203 X200 Y200 Z12 E120 ; sets maximum feedrates, mm/sec
M204 P1250 R1250 T1250 ; sets acceleration (P, T) and retract acceleration (R), mm/sec^2
M205 X8.00 Y8.00 Z0.40 E1.50 ; sets the jerk limits, mm/sec
M205 S0 T0 ; sets the minimum extruding and travel feed rate, mm/sec
M107
M115 U3.4.1 ; tell printer latest fw version
M83  ; extruder relative mode
M104 S220 ; set extruder temp
M140 S60 ; set bed temp
M190 S60 ; wait for bed temp
M109 S220 ; wait for extruder temp
G28 W ; home all without mesh bed level
G80 ; mesh bed leveling
G1 Y-3.0 F1000.0 ; go outside print area
G92 E0.0
G1 X60.0 E9.0  F1000.0 ; intro line
M73 Q0 S172
M73 P0 R171
G1 X100.0 E12.5  F1000.0 ; intro line
G92 E0.0
M221 S95
M900 K30; Filament gcode
G21 ; set units to millimeters
G90 ; use absolute coordinates
M83 ; use relative distances for extrusion
;BEFORE_LAYER_CHANGE
G92 E0.0
;0.2


G1 E-0.80000 F2100.00000
G1 Z0.600 F10800.000
;AFTER_LAYER_CHANGE
;0.2
G1 X80.392 Y77.579
G1 Z0.200
G1 E0.80000 F2100.00000
M204 S1000
G1 F1200
G1 X80.777 Y76.923 E0.02383
G1 X81.234 Y76.517 E0.01917
G1 X123.038 Y48.804 E1.57259
G1 X123.556 Y48.553 E0.01805
G1 X124.239 Y48.442 E0.02168
G1 X166.848 Y48.442 E1.33599
G1 X167.675 Y48.606 E0.02642
G1 X168.381 Y49.072 E0.02653
G1 X168.857 Y49.771 E0.02653
G1 X169.033 Y50.599 E0.02653
G1 X169.033 Y169.241 E3.71995
G1 X168.896 Y169.993 E0.02394
G1 X168.509 Y170.651 E0.02394
G1 X167.777 Y171.210 E0.02889
G1 X166.879 Y171.419 E0.02889
G1 X124.241 Y171.419 E1.33691
G1 X123.727 Y171.357 E0.01623
G1 X123.242 Y171.176 E0.01623
G1 X81.342 Y149.526 E1.47876
G1 X80.930 Y149.249 E0.01555
G1 X80.607 Y148.907 E0.01475
G1 X80.364 Y148.504 E0.01475
G1 X80.213 Y148.058 E0.01475
G1 X80.161 Y147.587 E0.01487
G1 X80.255 Y78.322 E2.17174
G1 X80.381 Y77.638 E0.02183
; PURGING FINISHED
G1 F8640
G1 X80.777 Y76.923 E-0.18857
G1 X81.234 Y76.517 E-0.14119
G1 X82.787 Y75.488 E-0.43025
G1 E-0.04000 F2100.00000
G1 Z0.800 F10800.000
G1 X83.029 Y79.329
G1 Z0.200
G1 E0.80000 F2100.00000
G1 F1200
G1 X116.855 Y79.375 E1.06059
G1 X116.764 Y146.643 E2.10913
G1 X82.938 Y146.597 E1.06059
G1 X83.029 Y79.389 E2.10725
G1 X82.652 Y78.952 F10800.000
G1 F1200
G1 X117.232 Y78.999 E1.08423
G1 X117.140 Y147.020 E2.13277
G1 X82.560 Y146.973 E1.08423
G1 X82.652 Y79.012 E2.13089
G1 X83.026 Y79.096 F10800.000
G1 F8640
G1 X85.944 Y79.011 E-0.76000
G1 E-0.04000 F2100.00000
G1 Z0.800 F10800.000
G1 X116.741 Y80.253
G1 Z0.200
G1 E0.80000 F2100.00000
G1 F1200
G1 X116.144 Y79.657 E0.02658
G1 X115.607 Y79.656 E0.01691
G1 X116.570 Y80.619 E0.04291
G1 X116.570 Y81.154 E0.01687
G1 X115.071 Y79.656 E0.06680
G1 X114.534 Y79.655 E0.01691
G1 X116.569 Y81.690 E0.09068
G1 X116.568 Y82.225 E0.01687
G1 X113.997 Y79.654 E0.11457
G1 X113.461 Y79.653 E0.01691
G1 X116.567 Y82.760 E0.13846
G1 X116.567 Y83.295 E0.01687
G1 X112.924 Y79.653 E0.16234
G1 X112.387 Y79.652 E0.01691
G1 X116.566 Y83.831 E0.18623
G1 X116.565 Y84.366 E0.01687
G1 X111.851 Y79.651 E0.21011
G1 X111.314 Y79.651 E0.01691
G1 X116.565 Y84.901 E0.23400
G1 X116.564 Y85.436 E0.01687
G1 X110.777 Y79.650 E0.25789
G1 X110.241 Y79.649 E0.01691
G1 X116.563 Y85.972 E0.28177
G1 X116.562 Y86.507 E0.01687
G1 X109.704 Y79.648 E0.30566
G1 X109.167 Y79.648 E0.01691
G1 X116.562 Y87.042 E0.32954
G1 X116.561 Y87.577 E0.01687
G1 X108.630 Y79.647 E0.35343
G1 X108.094 Y79.646 E0.01691
G1 X116.560 Y88.113 E0.37731
G1 X116.560 Y88.648 E0.01687
G1 X107.557 Y79.645 E0.40120
G1 X107.020 Y79.645 E0.01691
G1 X116.559 Y89.183 E0.42509
G1 X116.558 Y89.718 E0.01687
G1 X106.484 Y79.644 E0.44897
G1 X105.947 Y79.643 E0.01691
G1 X116.557 Y90.254 E0.47286
G1 X116.557 Y90.789 E0.01687
G1 X105.410 Y79.642 E0.49674
G1 X104.874 Y79.642 E0.01691
G1 X116.556 Y91.324 E0.52063
G1 X116.555 Y91.859 E0.01687
G1 X104.337 Y79.641 E0.54451
G1 X103.800 Y79.640 E0.01691
G1 X116.554 Y92.395 E0.56840
G1 X116.554 Y92.930 E0.01687
G1 X103.264 Y79.640 E0.59229
G1 X102.727 Y79.639 E0.01691
G1 X116.553 Y93.465 E0.61617
G1 X116.552 Y94.000 E0.01687
G1 X102.190 Y79.638 E0.64006
G1 X101.653 Y79.637 E0.01691
G1 X116.552 Y94.535 E0.66394
M73 Q0 S171
M73 P0 R170
G1 X116.551 Y95.071 E0.01687
G1 X101.117 Y79.637 E0.68783
G1 X100.580 Y79.636 E0.01691
G1 X116.550 Y95.606 E0.71172
G1 X116.549 Y96.141 E0.01687
G1 X100.043 Y79.635 E0.73560
G1 X99.507 Y79.634 E0.01691
G1 X116.549 Y96.676 E0.75949
G1 X116.548 Y97.212 E0.01687
G1 X98.970 Y79.634 E0.78337
G1 X98.433 Y79.633 E0.01691
G1 X116.547 Y97.747 E0.80726
G1 X116.546 Y98.282 E0.01687
G1 X97.897 Y79.632 E0.83114
G1 X97.360 Y79.632 E0.01691
G1 X116.546 Y98.817 E0.85503
G1 X116.545 Y99.353 E0.01687
G1 X96.823 Y79.631 E0.87892
G1 X96.287 Y79.630 E0.01691
G1 X116.544 Y99.888 E0.90280
G1 X116.544 Y100.423 E0.01687
G1 X95.750 Y79.629 E0.92669
G1 X95.213 Y79.629 E0.01691
G1 X116.543 Y100.958 E0.95057
G1 X116.542 Y101.494 E0.01687
G1 X94.676 Y79.628 E0.97446
G1 X94.140 Y79.627 E0.01691
G1 X116.541 Y102.029 E0.99834
G1 X116.541 Y102.564 E0.01687
G1 X93.603 Y79.626 E1.02223
G1 X93.066 Y79.626 E0.01691
G1 X116.540 Y103.099 E1.04612
G1 X116.539 Y103.635 E0.01687
G1 X92.530 Y79.625 E1.07000
G1 X91.993 Y79.624 E0.01691
G1 X116.538 Y104.170 E1.09389
G1 X116.538 Y104.705 E0.01687
G1 X91.456 Y79.624 E1.11777
G1 X90.920 Y79.623 E0.01691
G1 X116.537 Y105.240 E1.14166
G1 X116.536 Y105.776 E0.01687
G1 X90.383 Y79.622 E1.16555
G1 X89.846 Y79.621 E0.01691
G1 X116.536 Y106.311 E1.18943
G1 X116.535 Y106.846 E0.01687
G1 X89.309 Y79.621 E1.21332
G1 X88.773 Y79.620 E0.01691
G1 X116.534 Y107.381 E1.23720
G1 X116.533 Y107.916 E0.01687
G1 X88.236 Y79.619 E1.26109
G1 X87.699 Y79.618 E0.01691
G1 X116.533 Y108.452 E1.28497
G1 X116.532 Y108.987 E0.01687
G1 X87.163 Y79.618 E1.30886
G1 X86.626 Y79.617 E0.01691
G1 X116.531 Y109.522 E1.33275
G1 X116.530 Y110.057 E0.01687
G1 X86.089 Y79.616 E1.35663
G1 X85.553 Y79.616 E0.01691
G1 X116.530 Y110.593 E1.38052
G1 X116.529 Y111.128 E0.01687
G1 X85.016 Y79.615 E1.40440
G1 X84.479 Y79.614 E0.01691
G1 X116.528 Y111.663 E1.42829
G1 X116.528 Y112.198 E0.01687
G1 X83.943 Y79.613 E1.45217
G1 X83.406 Y79.613 E0.01691
G1 X116.527 Y112.734 E1.47606
G1 X116.526 Y113.269 E0.01687
G1 X83.311 Y80.054 E1.48026
M73 Q1 S170
M73 P1 R169
G1 X83.310 Y80.589 E0.01687
G1 X116.525 Y113.804 E1.48026
G1 X116.525 Y114.339 E0.01687
G1 X83.309 Y81.124 E1.48026
G1 X83.309 Y81.659 E0.01687
G1 X116.524 Y114.875 E1.48026
G1 X116.523 Y115.410 E0.01687
G1 X83.308 Y82.195 E1.48026
G1 X83.307 Y82.730 E0.01687
G1 X116.522 Y115.945 E1.48026
G1 X116.522 Y116.480 E0.01687
G1 X83.307 Y83.265 E1.48026
G1 X83.306 Y83.800 E0.01687
G1 X116.521 Y117.016 E1.48026
G1 X116.520 Y117.551 E0.01687
G1 X83.305 Y84.336 E1.48026
G1 X83.304 Y84.871 E0.01687
G1 X116.520 Y118.086 E1.48026
G1 X116.519 Y118.621 E0.01687
G1 X83.304 Y85.406 E1.48026
G1 X83.303 Y85.941 E0.01687
G1 X116.518 Y119.157 E1.48026
G1 X116.517 Y119.692 E0.01687
G1 X83.302 Y86.476 E1.48026
G1 X83.301 Y87.012 E0.01687
G1 X116.517 Y120.227 E1.48026
G1 X116.516 Y120.762 E0.01687
G1 X83.301 Y87.547 E1.48026
G1 X83.300 Y88.082 E0.01687
G1 X116.515 Y121.297 E1.48026
G1 X116.515 Y121.833 E0.01687
G1 X83.299 Y88.617 E1.48026
G1 X83.299 Y89.153 E0.01687
G1 X116.514 Y122.368 E1.48026
G1 X116.513 Y122.903 E0.01687
G1 X83.298 Y89.688 E1.48026
G1 X83.297 Y90.223 E0.01687
G1 X116.512 Y123.438 E1.48026
G1 X116.512 Y123.974 E0.01687
G1 X83.296 Y90.758 E1.48026
G1 X83.296 Y91.294 E0.01687
G1 X116.511 Y124.509 E1.48026
G1 X116.510 Y125.044 E0.01687
G1 X83.295 Y91.829 E1.48026
G1 X83.294 Y92.364 E0.01687
G1 X116.509 Y125.579 E1.48026
G1 X116.509 Y126.115 E0.01687
G1 X83.293 Y92.899 E1.48026
G1 X83.293 Y93.435 E0.01687
G1 X116.508 Y126.650 E1.48026
G1 X116.507 Y127.185 E0.01687
G1 X83.292 Y93.970 E1.48026
M73 Q1 S168
M73 P1 R168
G1 X83.291 Y94.505 E0.01687
G1 X116.507 Y127.720 E1.48026
G1 X116.506 Y128.256 E0.01687
G1 X83.291 Y95.040 E1.48026
G1 X83.290 Y95.576 E0.01687
G1 X116.505 Y128.791 E1.48026
G1 X116.504 Y129.326 E0.01687
G1 X83.289 Y96.111 E1.48026
G1 X83.288 Y96.646 E0.01687
G1 X116.504 Y129.861 E1.48026
G1 X116.503 Y130.397 E0.01687
G1 X83.288 Y97.181 E1.48026
G1 X83.287 Y97.717 E0.01687
G1 X116.502 Y130.932 E1.48026
G1 X116.501 Y131.467 E0.01687
G1 X83.286 Y98.252 E1.48026
G1 X83.285 Y98.787 E0.01687
G1 X116.501 Y132.002 E1.48026
G1 X116.500 Y132.538 E0.01687
G1 X83.285 Y99.322 E1.48026
G1 X83.284 Y99.857 E0.01687
G1 X116.499 Y133.073 E1.48026
G1 X116.499 Y133.608 E0.01687
G1 X83.283 Y100.393 E1.48026
G1 X83.283 Y100.928 E0.01687
G1 X116.498 Y134.143 E1.48026
G1 X116.497 Y134.678 E0.01687
G1 X83.282 Y101.463 E1.48026
G1 X83.281 Y101.998 E0.01687
G1 X116.496 Y135.214 E1.48026
G1 X116.496 Y135.749 E0.01687
G1 X83.280 Y102.534 E1.48026
G1 X83.280 Y103.069 E0.01687
G1 X116.495 Y136.284 E1.48026
G1 X116.494 Y136.819 E0.01687
G1 X83.279 Y103.604 E1.48026
G1 X83.278 Y104.139 E0.01687
G1 X116.493 Y137.355 E1.48026
G1 X116.493 Y137.890 E0.01687
G1 X83.277 Y104.675 E1.48026
G1 X83.277 Y105.210 E0.01687
G1 X116.492 Y138.425 E1.48026
G1 X116.491 Y138.960 E0.01687
G1 X83.276 Y105.745 E1.48026
G1 X83.275 Y106.280 E0.01687
G1 X116.491 Y139.496 E1.48026
G1 X116.490 Y140.031 E0.01687
G1 X83.275 Y106.816 E1.48026
G1 X83.274 Y107.351 E0.01687
G1 X116.489 Y140.566 E1.48026
G1 X116.488 Y141.101 E0.01687
G1 X83.273 Y107.886 E1.48026
M73 Q2 S167
M73 P2 R167
G1 X83.272 Y108.421 E0.01687
G1 X116.488 Y141.637 E1.48026
G1 X116.487 Y142.172 E0.01687
G1 X83.272 Y108.957 E1.48026
G1 X83.271 Y109.492 E0.01687
G1 X116.486 Y142.707 E1.48026
G1 X116.485 Y143.242 E0.01687
G1 X83.270 Y110.027 E1.48026
G1 X83.269 Y110.562 E0.01687
G1 X116.485 Y143.778 E1.48026
G1 X116.484 Y144.313 E0.01687
G1 X83.269 Y111.098 E1.48026
G1 X83.268 Y111.633 E0.01687
G1 X116.483 Y144.848 E1.48026
G1 X116.483 Y145.383 E0.01687
G1 X83.267 Y112.168 E1.48026
G1 X83.267 Y112.703 E0.01687
G1 X116.482 Y145.919 E1.48026
G1 X116.481 Y146.360 E0.01390
G1 X116.387 Y146.359 E0.00298
G1 X83.266 Y113.238 E1.47606
G1 X83.265 Y113.774 E0.01687
G1 X115.850 Y146.359 E1.45217
G1 X115.313 Y146.358 E0.01691
G1 X83.264 Y114.309 E1.42828
G1 X83.264 Y114.844 E0.01687
G1 X114.777 Y146.357 E1.40440
G1 X114.240 Y146.356 E0.01691
G1 X83.263 Y115.379 E1.38051
G1 X83.262 Y115.915 E0.01687
G1 X113.703 Y146.356 E1.35663
G1 X113.167 Y146.355 E0.01691
G1 X83.262 Y116.450 E1.33274
G1 X83.261 Y116.985 E0.01687
G1 X112.630 Y146.354 E1.30886
G1 X112.093 Y146.354 E0.01691
G1 X83.260 Y117.520 E1.28497
G1 X83.259 Y118.056 E0.01687
G1 X111.557 Y146.353 E1.26108
G1 X111.020 Y146.352 E0.01691
G1 X83.259 Y118.591 E1.23720
G1 X83.258 Y119.126 E0.01687
G1 X110.483 Y146.351 E1.21331
G1 X109.946 Y146.351 E0.01691
G1 X83.257 Y119.661 E1.18943
G1 X83.256 Y120.197 E0.01687
G1 X109.410 Y146.350 E1.16554
G1 X108.873 Y146.349 E0.01691
G1 X83.256 Y120.732 E1.14166
G1 X83.255 Y121.267 E0.01687
G1 X108.336 Y146.348 E1.11777
G1 X107.800 Y146.348 E0.01691
G1 X83.254 Y121.802 E1.09388
G1 X83.254 Y122.338 E0.01687
G1 X107.263 Y146.347 E1.07000
G1 X106.726 Y146.346 E0.01691
G1 X83.253 Y122.873 E1.04611
M73 Q3 S166
M73 P3 R166
G1 X83.252 Y123.408 E0.01687
G1 X106.190 Y146.346 E1.02223
G1 X105.653 Y146.345 E0.01691
G1 X83.251 Y123.943 E0.99834
G1 X83.251 Y124.479 E0.01687
G1 X105.116 Y146.344 E0.97446
G1 X104.580 Y146.343 E0.01691
G1 X83.250 Y125.014 E0.95057
G1 X83.249 Y125.549 E0.01687
G1 X104.043 Y146.343 E0.92668
G1 X103.506 Y146.342 E0.01691
G1 X83.248 Y126.084 E0.90280
G1 X83.248 Y126.619 E0.01687
G1 X102.969 Y146.341 E0.87891
G1 X102.433 Y146.340 E0.01691
G1 X83.247 Y127.155 E0.85503
G1 X83.246 Y127.690 E0.01687
G1 X101.896 Y146.340 E0.83114
G1 X101.359 Y146.339 E0.01691
G1 X83.246 Y128.225 E0.80725
G1 X83.245 Y128.760 E0.01687
G1 X100.823 Y146.338 E0.78337
G1 X100.286 Y146.338 E0.01691
G1 X83.244 Y129.296 E0.75948
G1 X83.243 Y129.831 E0.01687
G1 X99.749 Y146.337 E0.73560
G1 X99.213 Y146.336 E0.01691
G1 X83.243 Y130.366 E0.71171
G1 X83.242 Y130.901 E0.01687
G1 X98.676 Y146.335 E0.68783
G1 X98.139 Y146.335 E0.01691
G1 X83.241 Y131.437 E0.66394
G1 X83.240 Y131.972 E0.01687
G1 X97.602 Y146.334 E0.64005
G1 X97.066 Y146.333 E0.01691
G1 X83.240 Y132.507 E0.61617
G1 X83.239 Y133.042 E0.01687
G1 X96.529 Y146.332 E0.59228
G1 X95.992 Y146.332 E0.01691
G1 X83.238 Y133.578 E0.56840
G1 X83.238 Y134.113 E0.01687
G1 X95.456 Y146.331 E0.54451
G1 X94.919 Y146.330 E0.01691
G1 X83.237 Y134.648 E0.52063
G1 X83.236 Y135.183 E0.01687
G1 X94.382 Y146.330 E0.49674
G1 X93.846 Y146.329 E0.01691
G1 X83.235 Y135.719 E0.47285
G1 X83.235 Y136.254 E0.01687
G1 X93.309 Y146.328 E0.44897
G1 X92.772 Y146.327 E0.01691
G1 X83.234 Y136.789 E0.42508
G1 X83.233 Y137.324 E0.01687
G1 X92.236 Y146.327 E0.40120
G1 X91.699 Y146.326 E0.01691
G1 X83.232 Y137.860 E0.37731
G1 X83.232 Y138.395 E0.01687
G1 X91.162 Y146.325 E0.35342
G1 X90.625 Y146.324 E0.01691
G1 X83.231 Y138.930 E0.32954
G1 X83.230 Y139.465 E0.01687
G1 X90.089 Y146.324 E0.30565
G1 X89.552 Y146.323 E0.01691
G1 X83.230 Y140.001 E0.28177
G1 X83.229 Y140.536 E0.01687
G1 X89.015 Y146.322 E0.25788
G1 X88.479 Y146.322 E0.01691
G1 X83.228 Y141.071 E0.23400
G1 X83.227 Y141.606 E0.01687
G1 X87.942 Y146.321 E0.21011
G1 X87.405 Y146.320 E0.01691
G1 X83.227 Y142.141 E0.18622
G1 X83.226 Y142.677 E0.01687
G1 X86.869 Y146.319 E0.16234
G1 X86.332 Y146.319 E0.01691
G1 X83.225 Y143.212 E0.13845
G1 X83.225 Y143.747 E0.01687
G1 X85.795 Y146.318 E0.11457
G1 X85.259 Y146.317 E0.01691
G1 X83.224 Y144.282 E0.09068
G1 X83.223 Y144.818 E0.01687
G1 X84.722 Y146.316 E0.06680
G1 X84.185 Y146.316 E0.01691
G1 X83.222 Y145.353 E0.04291
G1 X83.222 Y145.888 E0.01687
G1 X83.818 Y146.485 E0.02660
G1 F8640
G1 X83.222 Y145.888 E-0.19488
G1 X83.222 Y145.353 E-0.12359
G1 X84.185 Y146.316 E-0.31441
G1 X84.722 Y146.316 E-0.12392
G1 X84.712 Y146.307 E-0.00320
G1 E-0.04000 F2100.00000
G1 Z0.800 F10800.000
G1 X124.831 Y168.643
G1 Z0.200
G1 E0.80000 F2100.00000
G1 F1200
G1 X124.831 Y114.718 E1.69081
G1 X166.257 Y114.718 E1.29888
G1 X166.257 Y168.643 E1.69081
G1 X124.891 Y168.643 E1.29700
G1 X124.454 Y169.020 F10800.000
G1 F1200
G1 X124.454 Y114.340 E1.71445
G1 X166.634 Y114.340 E1.32252
G1 X166.634 Y169.020 E1.71445
G1 X124.514 Y169.020 E1.32064
G1 X124.541 Y168.630 F10800.000
G1 F8640
G1 X124.511 Y165.729 E-0.76000
G1 E-0.04000 F2100.00000
G1 Z0.800 F10800.000
G1 X125.707 Y168.530
G1 Z0.200
G1 E0.80000 F2100.00000
G1 F1200
G1 X125.114 Y167.937 E0.02631
G1 X125.114 Y167.404 E0.01674
G1 X126.071 Y168.361 E0.04246
G1 X126.605 Y168.361 E0.01674
G1 X125.114 Y166.870 E0.06613
G1 X125.114 Y166.336 E0.01674
G1 X127.138 Y168.361 E0.08980
G1 X127.672 Y168.361 E0.01674
G1 X125.114 Y165.803 E0.11347
G1 X125.114 Y165.269 E0.01674
G1 X128.205 Y168.361 E0.13715
G1 X128.739 Y168.361 E0.01674
G1 X125.114 Y164.736 E0.16082
G1 X125.114 Y164.202 E0.01674
G1 X129.273 Y168.361 E0.18449
G1 X129.806 Y168.361 E0.01674
G1 X125.114 Y163.669 E0.20816
G1 X125.114 Y163.135 E0.01674
G1 X130.340 Y168.361 E0.23184
M73 Q3 S165
M73 P3 R165
G1 X130.873 Y168.361 E0.01674
G1 X125.114 Y162.602 E0.25551
G1 X125.114 Y162.068 E0.01674
G1 X131.407 Y168.361 E0.27918
G1 X131.940 Y168.361 E0.01674
G1 X125.114 Y161.534 E0.30285
G1 X125.114 Y161.001 E0.01674
G1 X132.474 Y168.361 E0.32652
G1 X133.007 Y168.361 E0.01674
G1 X125.114 Y160.467 E0.35020
G1 X125.114 Y159.934 E0.01674
G1 X133.541 Y168.361 E0.37387
G1 X134.075 Y168.361 E0.01674
G1 X125.114 Y159.400 E0.39754
G1 X125.114 Y158.867 E0.01674
G1 X134.608 Y168.361 E0.42121
G1 X135.142 Y168.361 E0.01674
G1 X125.114 Y158.333 E0.44488
G1 X125.114 Y157.799 E0.01674
G1 X135.675 Y168.361 E0.46856
G1 X136.209 Y168.361 E0.01674
G1 X125.114 Y157.266 E0.49223
G1 X125.114 Y156.732 E0.01674
G1 X136.742 Y168.361 E0.51590
G1 X137.276 Y168.361 E0.01674
G1 X125.114 Y156.199 E0.53957
G1 X125.114 Y155.665 E0.01674
G1 X137.810 Y168.361 E0.56325
G1 X138.343 Y168.361 E0.01674
