; generated by Slic3r Prusa Edition 1.41.0+ on 2018-11-24 at 14:56:32

; 

; external perimeters extrusion width = 0.45mm
; perimeters extrusion width = 0.45mm
; infill extrusion width = 0.45mm
; solid infill extrusion width = 0.45mm
; top infill extrusion width = 0.40mm
; first layer extrusion width = 0.42mm

M201 X1000 Y1000 Z1000 E5000 ; sets maximum accelerations, mm/sec^2
M203 X200 Y200 Z12 E120 ; sets maximum feedrates, mm/sec
M204 P1250 R1250 T1250 ; sets acceleration (P, T) and retract acceleration (R), mm/sec^2
M205 X8.00 Y8.00 Z0.40 E1.50 ; sets the jerk limits, mm/sec
M205 S0 T0 ; sets the minimum extruding and travel feed rate, mm/sec
M107
M115 U3.4.1 ; tell printer latest fw version
M83  ; extruder relative mode
M104 S220 ; set extruder temp
M140 S60 ; set bed temp
M190 S60 ; wait for bed temp
M109 S220 ; wait for extruder temp
G28 W ; home all without mesh bed level
G80 ; mesh bed leveling
G1 Y-3.0 F1000.0 ; go outside print area
G92 E0.0
G1 X60.0 E9.0  F1000.0 ; intro line
M73 Q0 S292
M73 P0 R290
G1 X100.0 E12.5  F1000.0 ; intro line
G92 E0.0
M221 S95
M900 K30; Filament gcode
G21 ; set units to millimeters
G90 ; use absolute coordinates
M83 ; use relative distances for extrusion
;BEFORE_LAYER_CHANGE
G92 E0.0
;0.2


G1 E-0.80000 F2100.00000
G1 Z0.600 F10800.000
;AFTER_LAYER_CHANGE
;0.2
G1 X9.413 Y53.892
G1 Z0.200
G1 E0.80000 F2100.00000
M204 S1000
G1 F1200
G1 X9.961 Y53.812 E0.01737
G1 X240.004 Y53.811 E7.21282
G1 X240.578 Y53.889 E0.01817
G1 X241.111 Y54.115 E0.01817
G1 X241.554 Y54.459 E0.01760
G1 X241.895 Y54.906 E0.01760
G1 X242.111 Y55.424 E0.01760
G1 X242.188 Y55.983 E0.01771
G1 X242.189 Y154.007 E3.07348
G1 X242.111 Y154.578 E0.01805
G1 X241.885 Y155.112 E0.01817
G1 X241.538 Y155.557 E0.01771
G1 X241.088 Y155.899 E0.01771
G1 X240.566 Y156.114 E0.01771
G1 X240.006 Y156.189 E0.01771
G1 X9.996 Y156.189 E7.21179
G1 X9.415 Y156.109 E0.01839
G1 X8.876 Y155.878 E0.01839
G1 X8.438 Y155.533 E0.01749
G1 X8.099 Y155.085 E0.01760
G1 X7.887 Y154.569 E0.01749
G1 X7.812 Y154.017 E0.01749
G1 X7.811 Y55.993 E3.07348
G1 X7.891 Y55.415 E0.01828
G1 X8.122 Y54.876 E0.01839
G1 X8.462 Y54.443 E0.01726
G1 X8.902 Y54.107 E0.01737
G1 X9.358 Y53.915 E0.01549
; PURGING FINISHED
G1 F8640
G1 X9.961 Y53.812 E-0.14138
G1 X12.640 Y53.812 E-0.61862
G1 E-0.04000 F2100.00000
G1 Z0.800 F10800.000
G1 X10.587 Y134.587
G1 Z0.200
G1 E0.80000 F2100.00000
G1 F1200
G1 X69.413 Y134.587 E1.84444
G1 X69.413 Y139.587 E0.15677
G1 X90.587 Y139.587 E0.66390
G1 X90.587 Y134.587 E0.15677
G1 X159.413 Y134.587 E2.15799
G1 X159.413 Y139.587 E0.15677
G1 X179.800 Y139.587 E0.63922
G1 X180.587 Y139.587 E0.02468
G1 X180.587 Y134.587 E0.15677
G1 X239.413 Y134.587 E1.84444
G1 X239.413 Y153.413 E0.59027
G1 X10.587 Y153.413 E7.17467
M73 Q0 S291
M73 P0 R289
G1 X10.587 Y134.647 E0.58839
G1 F8640
G1 X13.879 Y134.644 E-0.76000
G1 E-0.04000 F2100.00000
G1 Z0.800 F10800.000
G1 X69.790 Y139.210
G1 Z0.200
G1 E0.80000 F2100.00000
G1 F1200
G1 X90.210 Y139.210 E0.64025
G1 X90.210 Y134.210 E0.15677
G1 X159.790 Y134.210 E2.18163
G1 X159.790 Y139.210 E0.15677
G1 X179.800 Y139.210 E0.62740
G1 X180.210 Y139.210 E0.01286
G1 X180.210 Y134.210 E0.15677
G1 X239.790 Y134.210 E1.86809
G1 X239.790 Y153.790 E0.61392
G1 X10.210 Y153.790 E7.19832
G1 X10.210 Y134.210 E0.61392
G1 X69.790 Y134.210 E1.86809
G1 X69.790 Y139.150 E0.15489
G1 X69.980 Y139.562 F10800.000
G1 F8640
G1 X73.081 Y139.160 E-0.76000
G1 E-0.04000 F2100.00000
G1 Z0.800 F10800.000
G1 X69.300 Y135.298
G1 Z0.200
G1 E0.80000 F2100.00000
G1 F1200
G1 X68.872 Y134.870 E0.01900
G1 X68.338 Y134.870 E0.01677
G1 X69.130 Y135.662 E0.03518
G1 X69.130 Y136.196 E0.01677
G1 X67.804 Y134.870 E0.05890
G1 X67.270 Y134.870 E0.01677
G1 X69.130 Y136.730 E0.08261
G1 X69.130 Y137.264 E0.01677
G1 X66.736 Y134.870 E0.10633
G1 X66.202 Y134.870 E0.01677
G1 X69.130 Y137.798 E0.13005
G1 X69.130 Y138.332 E0.01677
G1 X65.668 Y134.870 E0.15377
G1 X65.134 Y134.870 E0.01677
G1 X69.130 Y138.866 E0.17748
G1 X69.130 Y139.401 E0.01677
G1 X64.599 Y134.870 E0.20120
G1 X64.065 Y134.870 E0.01677
G1 X82.326 Y153.130 E0.81090
G1 X82.860 Y153.130 E0.01677
G1 X69.599 Y139.870 E0.58886
G1 X70.134 Y139.870 E0.01677
G1 X83.394 Y153.130 E0.58886
G1 X83.928 Y153.130 E0.01677
G1 X70.668 Y139.870 E0.58886
G1 X71.202 Y139.870 E0.01677
G1 X84.462 Y153.130 E0.58886
G1 X84.996 Y153.130 E0.01677
G1 X71.736 Y139.870 E0.58886
G1 X72.270 Y139.870 E0.01677
G1 X85.530 Y153.130 E0.58886
G1 X86.064 Y153.130 E0.01677
G1 X72.804 Y139.870 E0.58886
G1 X73.338 Y139.870 E0.01677
G1 X86.598 Y153.130 E0.58886
G1 X87.132 Y153.130 E0.01677
G1 X73.872 Y139.870 E0.58886
G1 X74.406 Y139.870 E0.01677
G1 X87.666 Y153.130 E0.58886
G1 X88.200 Y153.130 E0.01677
G1 X74.940 Y139.870 E0.58886
G1 X75.474 Y139.870 E0.01677
G1 X88.734 Y153.130 E0.58886
G1 X89.269 Y153.130 E0.01677
G1 X76.008 Y139.870 E0.58886
G1 X76.542 Y139.870 E0.01677
G1 X89.803 Y153.130 E0.58886
G1 X90.337 Y153.130 E0.01677
G1 X77.076 Y139.870 E0.58886
G1 X77.610 Y139.870 E0.01677
G1 X90.871 Y153.130 E0.58886
G1 X91.405 Y153.130 E0.01677
G1 X78.145 Y139.870 E0.58886
G1 X78.679 Y139.870 E0.01677
G1 X91.939 Y153.130 E0.58886
G1 X92.473 Y153.130 E0.01677
G1 X79.213 Y139.870 E0.58886
G1 X79.747 Y139.870 E0.01677
G1 X93.007 Y153.130 E0.58886
G1 X93.541 Y153.130 E0.01677
G1 X80.281 Y139.870 E0.58886
G1 X80.815 Y139.870 E0.01677
G1 X94.075 Y153.130 E0.58886
G1 X94.609 Y153.130 E0.01677
G1 X81.349 Y139.870 E0.58886
G1 X81.883 Y139.870 E0.01677
G1 X95.143 Y153.130 E0.58886
G1 X95.677 Y153.130 E0.01677
G1 X82.417 Y139.870 E0.58886
G1 X82.951 Y139.870 E0.01677
G1 X96.211 Y153.130 E0.58886
G1 X96.746 Y153.130 E0.01677
G1 X83.485 Y139.870 E0.58886
G1 X84.019 Y139.870 E0.01677
G1 X97.280 Y153.130 E0.58886
G1 X97.814 Y153.130 E0.01677
G1 X84.553 Y139.870 E0.58886
G1 X85.087 Y139.870 E0.01677
G1 X98.348 Y153.130 E0.58886
M73 Q0 S290
M73 P0 R288
G1 X98.882 Y153.130 E0.01677
G1 X85.622 Y139.870 E0.58886
G1 X86.156 Y139.870 E0.01677
G1 X99.416 Y153.130 E0.58886
G1 X99.950 Y153.130 E0.01677
G1 X86.690 Y139.870 E0.58886
G1 X87.224 Y139.870 E0.01677
G1 X100.484 Y153.130 E0.58886
G1 X101.018 Y153.130 E0.01677
G1 X87.758 Y139.870 E0.58886
G1 X88.292 Y139.870 E0.01677
G1 X101.552 Y153.130 E0.58886
G1 X102.086 Y153.130 E0.01677
G1 X88.826 Y139.870 E0.58886
G1 X89.360 Y139.870 E0.01677
G1 X102.620 Y153.130 E0.58886
G1 X103.154 Y153.130 E0.01677
G1 X89.894 Y139.870 E0.58886
G1 X90.428 Y139.870 E0.01677
G1 X103.688 Y153.130 E0.58886
G1 X104.223 Y153.130 E0.01677
G1 X90.870 Y139.778 E0.59296
G1 X90.870 Y139.243 E0.01677
G1 X104.757 Y153.130 E0.61668
G1 X105.291 Y153.130 E0.01677
G1 X90.870 Y138.709 E0.64040
G1 X90.870 Y138.175 E0.01677
G1 X105.825 Y153.130 E0.66411
G1 X106.359 Y153.130 E0.01677
G1 X90.870 Y137.641 E0.68783
G1 X90.870 Y137.107 E0.01677
G1 X106.893 Y153.130 E0.71155
G1 X107.427 Y153.130 E0.01677
G1 X90.870 Y136.573 E0.73527
G1 X90.870 Y136.039 E0.01677
G1 X107.961 Y153.130 E0.75898
G1 X108.495 Y153.130 E0.01677
G1 X90.870 Y135.505 E0.78270
G1 X90.870 Y134.971 E0.01677
G1 X109.029 Y153.130 E0.80642
G1 X109.563 Y153.130 E0.01677
G1 X91.303 Y134.870 E0.81090
G1 X91.837 Y134.870 E0.01677
G1 X110.097 Y153.130 E0.81090
G1 X110.631 Y153.130 E0.01677
G1 X92.371 Y134.870 E0.81090
G1 X92.905 Y134.870 E0.01677
G1 X111.165 Y153.130 E0.81090
G1 X111.699 Y153.130 E0.01677
G1 X93.439 Y134.870 E0.81090
G1 X93.973 Y134.870 E0.01677
G1 X112.234 Y153.130 E0.81090
G1 X112.768 Y153.130 E0.01677
G1 X94.507 Y134.870 E0.81090
G1 X95.041 Y134.870 E0.01677
G1 X113.302 Y153.130 E0.81090
G1 X113.836 Y153.130 E0.01677
G1 X95.575 Y134.870 E0.81090
G1 X96.110 Y134.870 E0.01677
G1 X114.370 Y153.130 E0.81090
G1 X114.904 Y153.130 E0.01677
G1 X96.644 Y134.870 E0.81090
G1 X97.178 Y134.870 E0.01677
G1 X115.438 Y153.130 E0.81090
G1 X115.972 Y153.130 E0.01677
G1 X97.712 Y134.870 E0.81090
G1 X98.246 Y134.870 E0.01677
G1 X116.506 Y153.130 E0.81090
G1 X117.040 Y153.130 E0.01677
G1 X98.780 Y134.870 E0.81090
G1 X99.314 Y134.870 E0.01677
G1 X117.574 Y153.130 E0.81090
G1 X118.108 Y153.130 E0.01677
G1 X99.848 Y134.870 E0.81090
G1 X100.382 Y134.870 E0.01677
G1 X118.642 Y153.130 E0.81090
G1 X119.176 Y153.130 E0.01677
G1 X100.916 Y134.870 E0.81090
G1 X101.450 Y134.870 E0.01677
G1 X119.711 Y153.130 E0.81090
G1 X120.245 Y153.130 E0.01677
G1 X101.984 Y134.870 E0.81090
G1 X102.518 Y134.870 E0.01677
G1 X120.779 Y153.130 E0.81090
G1 X121.313 Y153.130 E0.01677
G1 X103.052 Y134.870 E0.81090
G1 X103.587 Y134.870 E0.01677
G1 X121.847 Y153.130 E0.81090
G1 X122.381 Y153.130 E0.01677
G1 X104.121 Y134.870 E0.81090
G1 X104.655 Y134.870 E0.01677
G1 X122.915 Y153.130 E0.81090
G1 X123.449 Y153.130 E0.01677
G1 X105.189 Y134.870 E0.81090
G1 X105.723 Y134.870 E0.01677
G1 X123.983 Y153.130 E0.81090
G1 X124.517 Y153.130 E0.01677
G1 X106.257 Y134.870 E0.81090
G1 X106.791 Y134.870 E0.01677
G1 X125.051 Y153.130 E0.81090
M73 Q1 S289
M73 P1 R286
G1 X125.585 Y153.130 E0.01677
G1 X107.325 Y134.870 E0.81090
G1 X107.859 Y134.870 E0.01677
G1 X126.119 Y153.130 E0.81090
G1 X126.653 Y153.130 E0.01677
G1 X108.393 Y134.870 E0.81090
G1 X108.927 Y134.870 E0.01677
G1 X127.187 Y153.130 E0.81090
G1 X127.722 Y153.130 E0.01677
G1 X109.461 Y134.870 E0.81090
G1 X109.995 Y134.870 E0.01677
G1 X128.256 Y153.130 E0.81090
G1 X128.790 Y153.130 E0.01677
G1 X110.529 Y134.870 E0.81090
G1 X111.063 Y134.870 E0.01677
G1 X129.324 Y153.130 E0.81090
G1 X129.858 Y153.130 E0.01677
G1 X111.598 Y134.870 E0.81090
G1 X112.132 Y134.870 E0.01677
G1 X130.392 Y153.130 E0.81090
G1 X130.926 Y153.130 E0.01677
G1 X112.666 Y134.870 E0.81090
G1 X113.200 Y134.870 E0.01677
G1 X131.460 Y153.130 E0.81090
G1 X131.994 Y153.130 E0.01677
G1 X113.734 Y134.870 E0.81090
G1 X114.268 Y134.870 E0.01677
G1 X132.528 Y153.130 E0.81090
G1 X133.062 Y153.130 E0.01677
G1 X114.802 Y134.870 E0.81090
G1 X115.336 Y134.870 E0.01677
G1 X133.596 Y153.130 E0.81090
G1 X134.130 Y153.130 E0.01677
G1 X115.870 Y134.870 E0.81090
G1 X116.404 Y134.870 E0.01677
G1 X134.664 Y153.130 E0.81090
G1 X135.199 Y153.130 E0.01677
G1 X116.938 Y134.870 E0.81090
G1 X117.472 Y134.870 E0.01677
G1 X135.733 Y153.130 E0.81090
G1 X136.267 Y153.130 E0.01677
G1 X118.006 Y134.870 E0.81090
G1 X118.540 Y134.870 E0.01677
G1 X136.801 Y153.130 E0.81090
G1 X137.335 Y153.130 E0.01677
G1 X119.075 Y134.870 E0.81090
G1 X119.609 Y134.870 E0.01677
G1 X137.869 Y153.130 E0.81090
G1 X138.403 Y153.130 E0.01677
G1 X120.143 Y134.870 E0.81090
G1 X120.677 Y134.870 E0.01677
G1 X138.937 Y153.130 E0.81090
G1 X139.471 Y153.130 E0.01677
G1 X121.211 Y134.870 E0.81090
G1 X121.745 Y134.870 E0.01677
G1 X140.005 Y153.130 E0.81090
G1 X140.539 Y153.130 E0.01677
G1 X122.279 Y134.870 E0.81090
G1 X122.813 Y134.870 E0.01677
G1 X141.073 Y153.130 E0.81090
G1 X141.607 Y153.130 E0.01677
G1 X123.347 Y134.870 E0.81090
G1 X123.881 Y134.870 E0.01677
G1 X142.141 Y153.130 E0.81090
G1 X142.675 Y153.130 E0.01677
G1 X124.415 Y134.870 E0.81090
G1 X124.949 Y134.870 E0.01677
G1 X143.210 Y153.130 E0.81090
G1 X143.744 Y153.130 E0.01677
G1 X125.483 Y134.870 E0.81090
G1 X126.017 Y134.870 E0.01677
G1 X144.278 Y153.130 E0.81090
G1 X144.812 Y153.130 E0.01677
G1 X126.551 Y134.870 E0.81090
G1 X127.086 Y134.870 E0.01677
G1 X145.346 Y153.130 E0.81090
G1 X145.880 Y153.130 E0.01677
G1 X127.620 Y134.870 E0.81090
G1 X128.154 Y134.870 E0.01677
G1 X146.414 Y153.130 E0.81090
G1 X146.948 Y153.130 E0.01677
G1 X128.688 Y134.870 E0.81090
G1 X129.222 Y134.870 E0.01677
G1 X147.482 Y153.130 E0.81090
G1 X148.016 Y153.130 E0.01677
G1 X129.756 Y134.870 E0.81090
G1 X130.290 Y134.870 E0.01677
G1 X148.550 Y153.130 E0.81090
G1 X149.084 Y153.130 E0.01677
G1 X130.824 Y134.870 E0.81090
G1 X131.358 Y134.870 E0.01677
G1 X149.618 Y153.130 E0.81090
M73 Q1 S288
M73 P1 R285
G1 X150.152 Y153.130 E0.01677
G1 X131.892 Y134.870 E0.81090
G1 X132.426 Y134.870 E0.01677
G1 X150.687 Y153.130 E0.81090
G1 X151.221 Y153.130 E0.01677
G1 X132.960 Y134.870 E0.81090
G1 X133.494 Y134.870 E0.01677
G1 X151.755 Y153.130 E0.81090
G1 X152.289 Y153.130 E0.01677
G1 X134.028 Y134.870 E0.81090
G1 X134.563 Y134.870 E0.01677
G1 X152.823 Y153.130 E0.81090
G1 X153.357 Y153.130 E0.01677
G1 X135.097 Y134.870 E0.81090
G1 X135.631 Y134.870 E0.01677
G1 X153.891 Y153.130 E0.81090
G1 X154.425 Y153.130 E0.01677
G1 X136.165 Y134.870 E0.81090
G1 X136.699 Y134.870 E0.01677
G1 X154.959 Y153.130 E0.81090
G1 X155.493 Y153.130 E0.01677
G1 X137.233 Y134.870 E0.81090
G1 X137.767 Y134.870 E0.01677
G1 X156.027 Y153.130 E0.81090
G1 X156.561 Y153.130 E0.01677
G1 X138.301 Y134.870 E0.81090
G1 X138.835 Y134.870 E0.01677
G1 X157.095 Y153.130 E0.81090
G1 X157.629 Y153.130 E0.01677
G1 X139.369 Y134.870 E0.81090
G1 X139.903 Y134.870 E0.01677
G1 X158.164 Y153.130 E0.81090
G1 X158.698 Y153.130 E0.01677
G1 X140.437 Y134.870 E0.81090
G1 X140.971 Y134.870 E0.01677
G1 X159.232 Y153.130 E0.81090
G1 X159.766 Y153.130 E0.01677
G1 X141.505 Y134.870 E0.81090
G1 X142.040 Y134.870 E0.01677
G1 X160.300 Y153.130 E0.81090
G1 X160.834 Y153.130 E0.01677
G1 X142.574 Y134.870 E0.81090
G1 X143.108 Y134.870 E0.01677
G1 X161.368 Y153.130 E0.81090
G1 X161.902 Y153.130 E0.01677
G1 X143.642 Y134.870 E0.81090
G1 X144.176 Y134.870 E0.01677
G1 X162.436 Y153.130 E0.81090
G1 X162.970 Y153.130 E0.01677
G1 X144.710 Y134.870 E0.81090
G1 X145.244 Y134.870 E0.01677
G1 X163.504 Y153.130 E0.81090
G1 X164.038 Y153.130 E0.01677
G1 X145.778 Y134.870 E0.81090
G1 X146.312 Y134.870 E0.01677
G1 X164.572 Y153.130 E0.81090
G1 X165.106 Y153.130 E0.01677
G1 X146.846 Y134.870 E0.81090
G1 X147.380 Y134.870 E0.01677
G1 X165.640 Y153.130 E0.81090
G1 X166.175 Y153.130 E0.01677
G1 X147.914 Y134.870 E0.81090
G1 X148.448 Y134.870 E0.01677
G1 X166.709 Y153.130 E0.81090
G1 X167.243 Y153.130 E0.01677
G1 X148.982 Y134.870 E0.81090
G1 X149.516 Y134.870 E0.01677
G1 X167.777 Y153.130 E0.81090
G1 X168.311 Y153.130 E0.01677
G1 X150.051 Y134.870 E0.81090
G1 X150.585 Y134.870 E0.01677
G1 X168.845 Y153.130 E0.81090
G1 X169.379 Y153.130 E0.01677
G1 X151.119 Y134.870 E0.81090
G1 X151.653 Y134.870 E0.01677
G1 X169.913 Y153.130 E0.81090
G1 X170.447 Y153.130 E0.01677
G1 X152.187 Y134.870 E0.81090
G1 X152.721 Y134.870 E0.01677
G1 X170.981 Y153.130 E0.81090
G1 X171.515 Y153.130 E0.01677
G1 X153.255 Y134.870 E0.81090
G1 X153.789 Y134.870 E0.01677
G1 X172.219 Y153.300 E0.81844
G1 F8640
G1 X169.892 Y150.972 E-0.76000
G1 E-0.04000 F2100.00000
G1 Z0.800 F10800.000
G1 X159.300 Y135.040
G1 Z0.200
G1 E0.80000 F2100.00000
G1 F1200
G1 X159.130 Y134.870 E0.00755
G1 X158.596 Y134.870 E0.01677
G1 X159.130 Y135.404 E0.02374
G1 X159.130 Y135.938 E0.01677
G1 X158.062 Y134.870 E0.04745
G1 X157.528 Y134.870 E0.01677
G1 X159.130 Y136.473 E0.07117
G1 X159.130 Y137.007 E0.01677
G1 X156.993 Y134.870 E0.09489
G1 X156.459 Y134.870 E0.01677
G1 X159.130 Y137.541 E0.11860
G1 X159.130 Y138.075 E0.01677
G1 X155.925 Y134.870 E0.14232
G1 X155.391 Y134.870 E0.01677
G1 X159.130 Y138.609 E0.16604
G1 X159.130 Y139.143 E0.01677
G1 X154.857 Y134.870 E0.18976
G1 X154.323 Y134.870 E0.01677
G1 X172.583 Y153.130 E0.81090
G1 X173.117 Y153.130 E0.01677
G1 X159.857 Y139.870 E0.58886
M73 Q1 S287
M73 P1 R284
G1 X160.391 Y139.870 E0.01677
G1 X173.652 Y153.130 E0.58886
G1 X174.186 Y153.130 E0.01677
G1 X160.925 Y139.870 E0.58886
G1 X161.459 Y139.870 E0.01677
G1 X174.720 Y153.130 E0.58886
G1 X175.254 Y153.130 E0.01677
G1 X161.993 Y139.870 E0.58886
G1 X162.528 Y139.870 E0.01677
G1 X175.788 Y153.130 E0.58886
G1 X176.322 Y153.130 E0.01677
G1 X163.062 Y139.870 E0.58886
G1 X163.596 Y139.870 E0.01677
G1 X176.856 Y153.130 E0.58886
G1 X177.390 Y153.130 E0.01677
G1 X164.130 Y139.870 E0.58886
G1 X164.664 Y139.870 E0.01677
G1 X177.924 Y153.130 E0.58886
G1 X178.458 Y153.130 E0.01677
G1 X165.198 Y139.870 E0.58886
G1 X165.732 Y139.870 E0.01677
G1 X178.992 Y153.130 E0.58886
G1 X179.526 Y153.130 E0.01677
G1 X166.266 Y139.870 E0.58886
G1 X166.800 Y139.870 E0.01677
G1 X180.060 Y153.130 E0.58886
G1 X180.594 Y153.130 E0.01677
G1 X167.334 Y139.870 E0.58886
G1 X167.868 Y139.870 E0.01677
G1 X181.128 Y153.130 E0.58886
G1 X181.663 Y153.130 E0.01677
G1 X168.402 Y139.870 E0.58886
G1 X168.936 Y139.870 E0.01677
G1 X182.197 Y153.130 E0.58886
G1 X182.731 Y153.130 E0.01677
G1 X169.470 Y139.870 E0.58886
