; generated by Slic3r Prusa Edition 1.41.0+ on 2018-11-23 at 18:17:26

; 

; external perimeters extrusion width = 0.45mm
; perimeters extrusion width = 0.45mm
; infill extrusion width = 0.45mm
; solid infill extrusion width = 0.45mm
; top infill extrusion width = 0.40mm
; first layer extrusion width = 0.42mm

M201 X1000 Y1000 Z1000 E5000 ; sets maximum accelerations, mm/sec^2
M203 X200 Y200 Z12 E120 ; sets maximum feedrates, mm/sec
M204 P1250 R1250 T1250 ; sets acceleration (P, T) and retract acceleration (R), mm/sec^2
M205 X8.00 Y8.00 Z0.40 E1.50 ; sets the jerk limits, mm/sec
M205 S0 T0 ; sets the minimum extruding and travel feed rate, mm/sec
M107
M115 U3.4.1 ; tell printer latest fw version
M83  ; extruder relative mode
M104 S220 ; set extruder temp
M140 S60 ; set bed temp
M190 S60 ; wait for bed temp
M109 S220 ; wait for extruder temp
G28 W ; home all without mesh bed level
G80 ; mesh bed leveling
G1 Y-3.0 F1000.0 ; go outside print area
G92 E0.0
G1 X60.0 E9.0  F1000.0 ; intro line
M73 Q0 S323
M73 P0 R323
G1 X100.0 E12.5  F1000.0 ; intro line
G92 E0.0
M221 S95
M900 K30; Filament gcode
G21 ; set units to millimeters
G90 ; use absolute coordinates
M83 ; use relative distances for extrusion
;BEFORE_LAYER_CHANGE
G92 E0.0
;0.2


G1 E-0.80000 F2100.00000
G1 Z0.600 F10800.000
;AFTER_LAYER_CHANGE
;0.2
G1 X35.578 Y46.602
G1 Z0.200
G1 E0.80000 F2100.00000
M204 S1000
G1 F1200
G1 X36.194 Y46.511 E0.01953
G1 X213.804 Y46.511 E5.56882
G1 X214.634 Y46.676 E0.02653
G1 X215.342 Y47.147 E0.02664
G1 X215.816 Y47.847 E0.02653
G1 X215.988 Y48.676 E0.02653
G1 X215.988 Y161.318 E3.53182
G1 X215.917 Y161.853 E0.01692
G1 X215.718 Y162.354 E0.01692
G1 X215.402 Y162.792 E0.01692
G1 X214.988 Y163.138 E0.01692
G1 X214.422 Y163.398 E0.01953
G1 X213.806 Y163.489 E0.01953
G1 X36.193 Y163.489 E5.56894
G1 X35.657 Y163.420 E0.01692
G1 X35.152 Y163.221 E0.01703
G1 X34.711 Y162.904 E0.01703
G1 X34.362 Y162.488 E0.01703
G1 X34.102 Y161.922 E0.01953
G1 X34.011 Y161.306 E0.01953
G1 X34.011 Y48.689 E3.53102
G1 X34.081 Y48.154 E0.01692
G1 X34.280 Y47.649 E0.01703
G1 X34.596 Y47.211 E0.01692
G1 X35.012 Y46.862 E0.01703
G1 X35.523 Y46.627 E0.01765
; PURGING FINISHED
G1 F8640
G1 X36.194 Y46.511 E-0.15716
G1 X38.805 Y46.511 E-0.60284
G1 E-0.04000 F2100.00000
G1 Z0.800 F10800.000
G1 X36.787 Y49.287
G1 Z0.200
G1 E0.80000 F2100.00000
G1 F1200
G1 X213.213 Y49.287 E5.53171
G1 X213.213 Y160.713 E3.49368
G1 X36.787 Y160.713 E5.53171
G1 X36.787 Y49.347 E3.49180
M73 Q0 S322
M73 P0 R322
G1 X36.410 Y48.910 F10800.000
G1 F1200
G1 X213.590 Y48.910 E5.55535
G1 X213.590 Y161.090 E3.51732
G1 X36.410 Y161.090 E5.55535
G1 X36.410 Y48.970 E3.51544
G1 X36.803 Y48.985 F10800.000
G1 F8640
G1 X39.701 Y48.969 E-0.76000
G1 E-0.04000 F2100.00000
G1 Z0.800 F10800.000
G1 X36.900 Y159.837
G1 Z0.200
G1 E0.80000 F2100.00000
G1 F1200
G1 X37.493 Y160.430 E0.02628
G1 X38.026 Y160.430 E0.01673
G1 X37.070 Y159.474 E0.04241
G1 X37.070 Y158.940 E0.01673
G1 X38.560 Y160.430 E0.06606
G1 X39.093 Y160.430 E0.01673
G1 X37.070 Y158.407 E0.08972
G1 X37.070 Y157.874 E0.01673
G1 X39.626 Y160.430 E0.11337
G1 X40.160 Y160.430 E0.01673
G1 X37.070 Y157.340 E0.13702
G1 X37.070 Y156.807 E0.01673
G1 X40.693 Y160.430 E0.16067
G1 X41.226 Y160.430 E0.01673
G1 X37.070 Y156.274 E0.18433
G1 X37.070 Y155.740 E0.01673
G1 X41.760 Y160.430 E0.20798
G1 X42.293 Y160.430 E0.01673
G1 X37.070 Y155.207 E0.23163
G1 X37.070 Y154.674 E0.01673
G1 X42.826 Y160.430 E0.25529
G1 X43.360 Y160.430 E0.01673
G1 X37.070 Y154.140 E0.27894
G1 X37.070 Y153.607 E0.01673
G1 X43.893 Y160.430 E0.30259
G1 X44.426 Y160.430 E0.01673
G1 X37.070 Y153.074 E0.32625
G1 X37.070 Y152.540 E0.01673
G1 X44.960 Y160.430 E0.34990
G1 X45.493 Y160.430 E0.01673
G1 X37.070 Y152.007 E0.37355
G1 X37.070 Y151.474 E0.01673
G1 X46.026 Y160.430 E0.39720
G1 X46.560 Y160.430 E0.01673
G1 X37.070 Y150.940 E0.42086
G1 X37.070 Y150.407 E0.01673
G1 X47.093 Y160.430 E0.44451
G1 X47.626 Y160.430 E0.01673
G1 X37.070 Y149.874 E0.46816
G1 X37.070 Y149.340 E0.01673
G1 X48.160 Y160.430 E0.49182
G1 X48.693 Y160.430 E0.01673
G1 X37.070 Y148.807 E0.51547
G1 X37.070 Y148.274 E0.01673
G1 X49.226 Y160.430 E0.53912
G1 X49.760 Y160.430 E0.01673
G1 X37.070 Y147.740 E0.56277
G1 X37.070 Y147.207 E0.01673
G1 X50.293 Y160.430 E0.58643
G1 X50.827 Y160.430 E0.01673
G1 X37.070 Y146.673 E0.61008
G1 X37.070 Y146.140 E0.01673
G1 X51.360 Y160.430 E0.63373
G1 X51.893 Y160.430 E0.01673
G1 X37.070 Y145.607 E0.65739
G1 X37.070 Y145.073 E0.01673
G1 X52.427 Y160.430 E0.68104
G1 X52.960 Y160.430 E0.01673
G1 X37.070 Y144.540 E0.70469
G1 X37.070 Y144.007 E0.01673
G1 X53.493 Y160.430 E0.72835
G1 X54.027 Y160.430 E0.01673
G1 X37.070 Y143.473 E0.75200
G1 X37.070 Y142.940 E0.01673
G1 X54.560 Y160.430 E0.77565
G1 X55.093 Y160.430 E0.01673
G1 X37.070 Y142.407 E0.79930
G1 X37.070 Y141.873 E0.01673
G1 X55.627 Y160.430 E0.82296
G1 X56.160 Y160.430 E0.01673
G1 X37.070 Y141.340 E0.84661
G1 X37.070 Y140.807 E0.01673
G1 X56.693 Y160.430 E0.87026
G1 X57.227 Y160.430 E0.01673
G1 X37.070 Y140.273 E0.89392
G1 X37.070 Y139.740 E0.01673
G1 X57.760 Y160.430 E0.91757
M73 Q0 S321
M73 P0 R321
G1 X58.293 Y160.430 E0.01673
G1 X37.070 Y139.207 E0.94122
G1 X37.070 Y138.673 E0.01673
G1 X58.827 Y160.430 E0.96487
G1 X59.360 Y160.430 E0.01673
G1 X37.070 Y138.140 E0.98853
G1 X37.070 Y137.607 E0.01673
G1 X59.893 Y160.430 E1.01218
G1 X60.427 Y160.430 E0.01673
G1 X37.070 Y137.073 E1.03583
G1 X37.070 Y136.540 E0.01673
G1 X60.960 Y160.430 E1.05949
G1 X61.493 Y160.430 E0.01673
G1 X37.070 Y136.007 E1.08314
G1 X37.070 Y135.473 E0.01673
G1 X62.027 Y160.430 E1.10679
G1 X62.560 Y160.430 E0.01673
G1 X37.070 Y134.940 E1.13045
G1 X37.070 Y134.406 E0.01673
G1 X63.094 Y160.430 E1.15410
G1 X63.627 Y160.430 E0.01673
G1 X37.070 Y133.873 E1.17775
G1 X37.070 Y133.340 E0.01673
G1 X64.160 Y160.430 E1.20140
G1 X64.694 Y160.430 E0.01673
G1 X37.070 Y132.806 E1.22506
G1 X37.070 Y132.273 E0.01673
G1 X65.227 Y160.430 E1.24871
G1 X65.760 Y160.430 E0.01673
G1 X37.070 Y131.740 E1.27236
G1 X37.070 Y131.206 E0.01673
G1 X66.294 Y160.430 E1.29602
G1 X66.827 Y160.430 E0.01673
G1 X37.070 Y130.673 E1.31967
G1 X37.070 Y130.140 E0.01673
G1 X67.360 Y160.430 E1.34332
G1 X67.894 Y160.430 E0.01673
G1 X37.070 Y129.606 E1.36698
G1 X37.070 Y129.073 E0.01673
G1 X68.427 Y160.430 E1.39063
G1 X68.960 Y160.430 E0.01673
G1 X37.070 Y128.540 E1.41428
G1 X37.070 Y128.006 E0.01673
G1 X69.494 Y160.430 E1.43793
G1 X70.027 Y160.430 E0.01673
G1 X37.070 Y127.473 E1.46159
G1 X37.070 Y126.940 E0.01673
G1 X70.560 Y160.430 E1.48524
G1 X71.094 Y160.430 E0.01673
G1 X37.070 Y126.406 E1.50889
G1 X37.070 Y125.873 E0.01673
G1 X71.627 Y160.430 E1.53255
G1 X72.160 Y160.430 E0.01673
G1 X37.070 Y125.340 E1.55620
G1 X37.070 Y124.806 E0.01673
G1 X72.694 Y160.430 E1.57985
G1 X73.227 Y160.430 E0.01673
G1 X37.070 Y124.273 E1.60350
G1 X37.070 Y123.740 E0.01673
G1 X73.760 Y160.430 E1.62716
M73 Q0 S320
M73 P0 R320
G1 X74.294 Y160.430 E0.01673
G1 X37.070 Y123.206 E1.65081
G1 X37.070 Y122.673 E0.01673
G1 X74.827 Y160.430 E1.67446
G1 X75.361 Y160.430 E0.01673
G1 X37.070 Y122.139 E1.69812
G1 X37.070 Y121.606 E0.01673
G1 X75.894 Y160.430 E1.72177
G1 X76.427 Y160.430 E0.01673
G1 X37.070 Y121.073 E1.74542
G1 X37.070 Y120.539 E0.01673
G1 X76.961 Y160.430 E1.76908
G1 X77.494 Y160.430 E0.01673
G1 X37.070 Y120.006 E1.79273
G1 X37.070 Y119.473 E0.01673
G1 X78.027 Y160.430 E1.81638
G1 X78.561 Y160.430 E0.01673
G1 X37.070 Y118.939 E1.84003
G1 X37.070 Y118.406 E0.01673
G1 X79.094 Y160.430 E1.86369
G1 X79.627 Y160.430 E0.01673
G1 X37.070 Y117.873 E1.88734
G1 X37.070 Y117.339 E0.01673
G1 X80.161 Y160.430 E1.91099
G1 X80.694 Y160.430 E0.01673
G1 X37.070 Y116.806 E1.93465
G1 X37.070 Y116.273 E0.01673
G1 X81.227 Y160.430 E1.95830
G1 X81.761 Y160.430 E0.01673
G1 X37.070 Y115.739 E1.98195
G1 X37.070 Y115.206 E0.01673
G1 X82.294 Y160.430 E2.00560
G1 X82.827 Y160.430 E0.01673
G1 X37.070 Y114.673 E2.02926
G1 X37.070 Y114.139 E0.01673
G1 X83.361 Y160.430 E2.05291
G1 X83.894 Y160.430 E0.01673
G1 X37.070 Y113.606 E2.07656
G1 X37.070 Y113.073 E0.01673
G1 X84.427 Y160.430 E2.10022
M73 Q1 S319
M73 P1 R319
G1 X84.961 Y160.430 E0.01673
G1 X37.070 Y112.539 E2.12387
G1 X37.070 Y112.006 E0.01673
G1 X85.494 Y160.430 E2.14752
G1 X86.027 Y160.430 E0.01673
G1 X37.070 Y111.473 E2.17118
G1 X37.070 Y110.939 E0.01673
G1 X86.561 Y160.430 E2.19483
G1 X87.094 Y160.430 E0.01673
G1 X37.070 Y110.406 E2.21848
G1 X37.070 Y109.872 E0.01673
G1 X87.628 Y160.430 E2.24213
G1 X88.161 Y160.430 E0.01673
G1 X37.070 Y109.339 E2.26579
G1 X37.070 Y108.806 E0.01673
G1 X88.694 Y160.430 E2.28944
G1 X89.228 Y160.430 E0.01673
G1 X37.070 Y108.272 E2.31309
G1 X37.070 Y107.739 E0.01673
G1 X89.761 Y160.430 E2.33675
G1 X90.294 Y160.430 E0.01673
G1 X37.070 Y107.206 E2.36040
G1 X37.070 Y106.672 E0.01673
G1 X90.828 Y160.430 E2.38405
G1 X91.361 Y160.430 E0.01673
G1 X37.070 Y106.139 E2.40771
G1 X37.070 Y105.606 E0.01673
G1 X91.894 Y160.430 E2.43136
G1 X92.428 Y160.430 E0.01673
G1 X37.070 Y105.072 E2.45501
G1 X37.070 Y104.539 E0.01673
G1 X92.961 Y160.430 E2.47866
G1 X93.494 Y160.430 E0.01673
G1 X37.070 Y104.006 E2.50232
M73 Q1 S318
M73 P1 R318
G1 X37.070 Y103.472 E0.01673
G1 X94.028 Y160.430 E2.52597
G1 X94.561 Y160.430 E0.01673
G1 X37.070 Y102.939 E2.54962
G1 X37.070 Y102.406 E0.01673
G1 X95.094 Y160.430 E2.57328
G1 X95.628 Y160.430 E0.01673
G1 X37.070 Y101.872 E2.59693
G1 X37.070 Y101.339 E0.01673
G1 X96.161 Y160.430 E2.62058
G1 X96.694 Y160.430 E0.01673
G1 X37.070 Y100.806 E2.64423
G1 X37.070 Y100.272 E0.01673
G1 X97.228 Y160.430 E2.66789
G1 X97.761 Y160.430 E0.01673
G1 X37.070 Y99.739 E2.69154
G1 X37.070 Y99.206 E0.01673
G1 X98.294 Y160.430 E2.71519
G1 X98.828 Y160.430 E0.01673
G1 X37.070 Y98.672 E2.73885
G1 X37.070 Y98.139 E0.01673
G1 X99.361 Y160.430 E2.76250
G1 X99.895 Y160.430 E0.01673
G1 X37.070 Y97.605 E2.78615
G1 X37.070 Y97.072 E0.01673
G1 X100.428 Y160.430 E2.80981
G1 X100.961 Y160.430 E0.01673
G1 X37.070 Y96.539 E2.83346
M73 Q1 S317
M73 P1 R317
G1 X37.070 Y96.005 E0.01673
G1 X101.495 Y160.430 E2.85711
G1 X102.028 Y160.430 E0.01673
G1 X37.070 Y95.472 E2.88076
G1 X37.070 Y94.939 E0.01673
G1 X102.561 Y160.430 E2.90442
G1 X103.095 Y160.430 E0.01673
G1 X37.070 Y94.405 E2.92807
G1 X37.070 Y93.872 E0.01673
G1 X103.628 Y160.430 E2.95172
G1 X104.161 Y160.430 E0.01673
G1 X37.070 Y93.339 E2.97538
G1 X37.070 Y92.805 E0.01673
G1 X104.695 Y160.430 E2.99903
G1 X105.228 Y160.430 E0.01673
G1 X37.070 Y92.272 E3.02268
G1 X37.070 Y91.739 E0.01673
G1 X105.761 Y160.430 E3.04634
G1 X106.295 Y160.430 E0.01673
G1 X37.070 Y91.205 E3.06999
G1 X37.070 Y90.672 E0.01673
G1 X106.828 Y160.430 E3.09364
G1 X107.361 Y160.430 E0.01673
G1 X37.070 Y90.139 E3.11729
G1 X37.070 Y89.605 E0.01673
G1 X107.895 Y160.430 E3.14095
M73 Q2 S316
M73 P2 R316
G1 X108.428 Y160.430 E0.01673
G1 X37.070 Y89.072 E3.16460
G1 X37.070 Y88.539 E0.01673
G1 X108.961 Y160.430 E3.18825
G1 X109.495 Y160.430 E0.01673
G1 X37.070 Y88.005 E3.21191
G1 X37.070 Y87.472 E0.01673
G1 X110.028 Y160.430 E3.23556
G1 X110.561 Y160.430 E0.01673
G1 X37.070 Y86.939 E3.25921
G1 X37.070 Y86.405 E0.01673
G1 X111.095 Y160.430 E3.28286
G1 X111.628 Y160.430 E0.01673
G1 X37.070 Y85.872 E3.30652
G1 X37.070 Y85.338 E0.01673
G1 X112.162 Y160.430 E3.33017
G1 X112.695 Y160.430 E0.01673
G1 X37.070 Y84.805 E3.35382
G1 X37.070 Y84.272 E0.01673
G1 X113.228 Y160.430 E3.37748
G1 X113.762 Y160.430 E0.01673
G1 X37.070 Y83.738 E3.40113
G1 X37.070 Y83.205 E0.01673
G1 X114.295 Y160.430 E3.42478
M73 Q2 S315
M73 P2 R315
G1 X114.828 Y160.430 E0.01673
G1 X37.070 Y82.672 E3.44844
G1 X37.070 Y82.138 E0.01673
G1 X115.362 Y160.430 E3.47209
G1 X115.895 Y160.430 E0.01673
G1 X37.070 Y81.605 E3.49574
G1 X37.070 Y81.072 E0.01673
G1 X116.428 Y160.430 E3.51939
G1 X116.962 Y160.430 E0.01673
G1 X37.070 Y80.538 E3.54305
G1 X37.070 Y80.005 E0.01673
G1 X117.495 Y160.430 E3.56670
G1 X118.028 Y160.430 E0.01673
G1 X37.070 Y79.472 E3.59035
G1 X37.070 Y78.938 E0.01673
G1 X118.562 Y160.430 E3.61401
G1 X119.095 Y160.430 E0.01673
G1 X37.070 Y78.405 E3.63766
G1 X37.070 Y77.872 E0.01673
G1 X119.628 Y160.430 E3.66131
G1 X120.162 Y160.430 E0.01673
G1 X37.070 Y77.338 E3.68496
M73 Q2 S314
M73 P2 R314
G1 X37.070 Y76.805 E0.01673
G1 X120.695 Y160.430 E3.70862
G1 X121.228 Y160.430 E0.01673
G1 X37.070 Y76.272 E3.73227
G1 X37.070 Y75.738 E0.01673
G1 X121.762 Y160.430 E3.75592
G1 X122.295 Y160.430 E0.01673
G1 X37.070 Y75.205 E3.77958
G1 X37.070 Y74.671 E0.01673
G1 X122.828 Y160.430 E3.80323
G1 X123.362 Y160.430 E0.01673
G1 X37.070 Y74.138 E3.82688
G1 X37.070 Y73.605 E0.01673
G1 X123.895 Y160.430 E3.85054
G1 X124.429 Y160.430 E0.01673
G1 X37.070 Y73.071 E3.87419
G1 X37.070 Y72.538 E0.01673
G1 X124.962 Y160.430 E3.89784
G1 X125.495 Y160.430 E0.01673
G1 X37.070 Y72.005 E3.92149
M73 Q3 S313
M73 P3 R313
G1 X37.070 Y71.471 E0.01673
G1 X126.029 Y160.430 E3.94515
G1 X126.562 Y160.430 E0.01673
G1 X37.070 Y70.938 E3.96880
G1 X37.070 Y70.405 E0.01673
G1 X127.095 Y160.430 E3.99245
G1 X127.629 Y160.430 E0.01673
G1 X37.070 Y69.871 E4.01611
G1 X37.070 Y69.338 E0.01673
G1 X128.162 Y160.430 E4.03976
G1 X128.695 Y160.430 E0.01673
G1 X37.070 Y68.805 E4.06341
G1 X37.070 Y68.271 E0.01673
G1 X129.229 Y160.430 E4.08707
G1 X129.762 Y160.430 E0.01673
G1 X37.070 Y67.738 E4.11072
G1 X37.070 Y67.205 E0.01673
G1 X130.295 Y160.430 E4.13437
G1 X130.829 Y160.430 E0.01673
G1 X37.070 Y66.671 E4.15802
M73 Q3 S312
M73 P3 R312
G1 X37.070 Y66.138 E0.01673
G1 X131.362 Y160.430 E4.18168
G1 X131.895 Y160.430 E0.01673
G1 X37.070 Y65.605 E4.20533
G1 X37.070 Y65.071 E0.01673
G1 X132.429 Y160.430 E4.22898
G1 X132.962 Y160.430 E0.01673
G1 X37.070 Y64.538 E4.25264
G1 X37.070 Y64.005 E0.01673
G1 X133.495 Y160.430 E4.27629
G1 X134.029 Y160.430 E0.01673
G1 X37.070 Y63.471 E4.29994
G1 X37.070 Y62.938 E0.01673
G1 X134.562 Y160.430 E4.32359
G1 X135.095 Y160.430 E0.01673
G1 X37.070 Y62.404 E4.34725
G1 X37.070 Y61.871 E0.01673
G1 X135.629 Y160.430 E4.37090
M73 Q3 S311
M73 P3 R311
G1 X136.162 Y160.430 E0.01673
G1 X37.070 Y61.338 E4.39455
G1 X37.070 Y60.804 E0.01673
G1 X136.696 Y160.430 E4.41821
G1 X137.229 Y160.430 E0.01673
G1 X37.070 Y60.271 E4.44186
G1 X37.070 Y59.738 E0.01673
G1 X137.762 Y160.430 E4.46551
G1 X138.296 Y160.430 E0.01673
G1 X37.070 Y59.204 E4.48917
G1 X37.070 Y58.671 E0.01673
G1 X138.829 Y160.430 E4.51282
G1 X139.362 Y160.430 E0.01673
G1 X37.070 Y58.138 E4.53647
G1 X37.070 Y57.604 E0.01673
G1 X139.896 Y160.430 E4.56012
G1 X140.429 Y160.430 E0.01673
G1 X37.070 Y57.071 E4.58378
M73 Q4 S310
M73 P4 R309
G1 X37.070 Y56.538 E0.01673
G1 X140.962 Y160.430 E4.60743
G1 X141.496 Y160.430 E0.01673
G1 X37.070 Y56.004 E4.63108
G1 X37.070 Y55.471 E0.01673
G1 X142.029 Y160.430 E4.65474
G1 X142.562 Y160.430 E0.01673
G1 X37.070 Y54.938 E4.67839
G1 X37.070 Y54.404 E0.01673
G1 X143.096 Y160.430 E4.70204
G1 X143.629 Y160.430 E0.01673
G1 X37.070 Y53.871 E4.72569
G1 X37.070 Y53.338 E0.01673
G1 X144.162 Y160.430 E4.74935
G1 X144.696 Y160.430 E0.01673
G1 X37.070 Y52.804 E4.77300
M73 Q4 S309
M73 P4 R308
G1 X37.070 Y52.271 E0.01673
G1 X145.229 Y160.430 E4.79665
G1 X145.762 Y160.430 E0.01673
G1 X37.070 Y51.738 E4.82031
G1 X37.070 Y51.204 E0.01673
G1 X146.296 Y160.430 E4.84396
G1 X146.829 Y160.430 E0.01673
G1 X37.070 Y50.671 E4.86761
G1 X37.070 Y50.137 E0.01673
G1 X147.362 Y160.430 E4.89127
G1 X147.896 Y160.430 E0.01673
G1 X37.070 Y49.604 E4.91492
G1 X37.070 Y49.570 E0.00107
G1 X37.569 Y49.570 E0.01565
G1 X148.429 Y160.430 E4.91644
G1 X148.963 Y160.430 E0.01673
G1 X38.102 Y49.570 E4.91644
M73 Q4 S308
M73 P4 R307
G1 X38.636 Y49.570 E0.01673
G1 X149.496 Y160.430 E4.91644
G1 X150.029 Y160.430 E0.01673
G1 X39.169 Y49.570 E4.91644
G1 X39.702 Y49.570 E0.01673
G1 X150.563 Y160.430 E4.91644
G1 X151.096 Y160.430 E0.01673
G1 X40.236 Y49.570 E4.91644
G1 X40.769 Y49.570 E0.01673
G1 X151.629 Y160.430 E4.91644
G1 X152.163 Y160.430 E0.01673
G1 X41.302 Y49.570 E4.91644
G1 X41.836 Y49.570 E0.01673
G1 X152.696 Y160.430 E4.91644
G1 X153.229 Y160.430 E0.01673
G1 X42.369 Y49.570 E4.91644
M73 Q5 S307
M73 P5 R306
G1 X42.902 Y49.570 E0.01673
G1 X153.763 Y160.430 E4.91644
G1 X154.296 Y160.430 E0.01673
G1 X43.436 Y49.570 E4.91644
G1 X43.969 Y49.570 E0.01673
G1 X154.829 Y160.430 E4.91644
