; generated by Slic3r Prusa Edition 1.41.0+ on 2018-11-22 at 11:20:14

; 

; external perimeters extrusion width = 0.45mm
; perimeters extrusion width = 0.45mm
; infill extrusion width = 0.45mm
; solid infill extrusion width = 0.45mm
; top infill extrusion width = 0.40mm
; first layer extrusion width = 0.42mm

M201 X9000 Y9000 Z500 E10000 ; sets maximum accelerations, mm/sec^2
M203 X500 Y500 Z12 E120 ; sets maximum feedrates, mm/sec
M204 P2000 R1500 T2000 ; sets acceleration (P, T) and retract acceleration (R), mm/sec^2
M205 X10.00 Y10.00 Z0.20 E2.50 ; sets the jerk limits, mm/sec
M205 S0 T0 ; sets the minimum extruding and travel feed rate, mm/sec
M107
M115 U3.1.0 ; tell printer latest fw version
M83  ; extruder relative mode
M204 S2000 T1500 ; MK2 firmware only supports the old M204 format
M104 S220 ; set extruder temp
M140 S60 ; set bed temp
M190 S60 ; wait for bed temp
M109 S220 ; wait for extruder temp
G28 W ; home all without mesh bed level
G80 ; mesh bed leveling
G1 Y-3.0 F1000.0 ; go outside print area
G92 E0.0
G1 X60.0 E9.0  F1000.0 ; intro line
G1 X100.0 E12.5  F1000.0 ; intro line
G92 E0.0
M900 K30; Filament gcode
G21 ; set units to millimeters
G90 ; use absolute coordinates
M83 ; use relative distances for extrusion
;BEFORE_LAYER_CHANGE
G92 E0.0
;0.2


G1 E-0.80000 F2100.00000
G1 Z0.600 F10800.000
;AFTER_LAYER_CHANGE
;0.2
G1 X79.128 Y47.996
G1 Z0.200
G1 E0.80000 F2100.00000
M204 S1000
G1 F1200
G1 X79.459 Y47.373 E0.02213
G1 X79.803 Y47.015 E0.01555
G1 X80.218 Y46.744 E0.01555
G1 X80.684 Y46.573 E0.01555
G1 X81.180 Y46.512 E0.01567
G1 X168.804 Y46.511 E2.74739
G1 X169.630 Y46.675 E0.02642
G1 X170.336 Y47.141 E0.02653
G1 X170.811 Y47.837 E0.02642
G1 X170.988 Y48.665 E0.02653
G1 X170.989 Y161.307 E3.53182
G1 X170.872 Y162.004 E0.02213
G1 X170.541 Y162.627 E0.02213
G1 X170.194 Y162.987 E0.01567
G1 X169.775 Y163.259 E0.01567
G1 X169.306 Y163.429 E0.01567
G1 X168.810 Y163.489 E0.01567
G1 X81.189 Y163.489 E2.74728
G1 X80.496 Y163.372 E0.02202
G1 X79.873 Y163.041 E0.02213
G1 X79.513 Y162.694 E0.01567
G1 X79.241 Y162.275 E0.01567
G1 X79.071 Y161.806 E0.01567
G1 X79.011 Y161.310 E0.01567
G1 X79.011 Y48.693 E3.53102
G1 X79.118 Y48.056 E0.02025
; PURGING FINISHED
G1 F8640
G1 X79.459 Y47.373 E-0.17619
G1 X79.803 Y47.015 E-0.11453
G1 X80.218 Y46.744 E-0.11453
G1 X80.684 Y46.573 E-0.11453
G1 X81.180 Y46.512 E-0.11536
G1 X81.720 Y46.512 E-0.12487
G1 E-0.04000 F2100.00000
G1 Z0.800 F10800.000
G1 X81.787 Y49.287
G1 Z0.200
G1 E0.80000 F2100.00000
G1 F1200
G1 X168.213 Y49.287 E2.70982
G1 X168.213 Y160.713 E3.49368
G1 X81.787 Y160.713 E2.70982
G1 X81.787 Y49.347 E3.49180
G1 X81.410 Y48.910 F10800.000
G1 F1200
G1 X168.590 Y48.910 E2.73347
G1 X168.590 Y161.090 E3.51732
G1 X81.410 Y161.090 E2.73347
G1 X81.410 Y48.970 E3.51544
G1 X81.792 Y49.030 F10800.000
G1 F8640
G1 X84.701 Y48.968 E-0.76000
G1 E-0.04000 F2100.00000
G1 Z0.800 F10800.000
G1 X168.100 Y50.163
G1 Z0.200
G1 E0.80000 F2100.00000
G1 F1200
G1 X167.507 Y49.570 E0.02633
G1 X166.973 Y49.570 E0.01675
G1 X167.930 Y50.527 E0.04248
G1 X167.930 Y51.061 E0.01675
G1 X166.439 Y49.570 E0.06617
G1 X165.905 Y49.570 E0.01675
G1 X167.930 Y51.595 E0.08985
G1 X167.930 Y52.128 E0.01675
G1 X165.372 Y49.570 E0.11354
G1 X164.838 Y49.570 E0.01675
G1 X167.930 Y52.662 E0.13722
G1 X167.930 Y53.196 E0.01675
G1 X164.304 Y49.570 E0.16091
G1 X163.771 Y49.570 E0.01675
G1 X167.930 Y53.729 E0.18460
G1 X167.930 Y54.263 E0.01675
G1 X163.237 Y49.570 E0.20828
G1 X162.703 Y49.570 E0.01675
G1 X167.930 Y54.797 E0.23197
G1 X167.930 Y55.331 E0.01675
G1 X162.169 Y49.570 E0.25565
G1 X161.636 Y49.570 E0.01675
G1 X167.930 Y55.864 E0.27934
G1 X167.930 Y56.398 E0.01675
G1 X161.102 Y49.570 E0.30302
G1 X160.568 Y49.570 E0.01675
G1 X167.930 Y56.932 E0.32671
G1 X167.930 Y57.465 E0.01675
G1 X160.035 Y49.570 E0.35039
G1 X159.501 Y49.570 E0.01675
G1 X167.930 Y57.999 E0.37408
G1 X167.930 Y58.533 E0.01675
G1 X158.967 Y49.570 E0.39776
G1 X158.433 Y49.570 E0.01675
G1 X167.930 Y59.067 E0.42145
G1 X167.930 Y59.600 E0.01675
G1 X157.900 Y49.570 E0.44514
G1 X157.366 Y49.570 E0.01675
G1 X167.930 Y60.134 E0.46882
G1 X167.930 Y60.668 E0.01675
G1 X156.832 Y49.570 E0.49251
G1 X156.299 Y49.570 E0.01675
G1 X167.930 Y61.201 E0.51619
G1 X167.930 Y61.735 E0.01675
G1 X155.765 Y49.570 E0.53988
G1 X155.231 Y49.570 E0.01675
G1 X167.930 Y62.269 E0.56356
G1 X167.930 Y62.803 E0.01675
G1 X154.697 Y49.570 E0.58725
G1 X154.164 Y49.570 E0.01675
G1 X167.930 Y63.336 E0.61093
G1 X167.930 Y63.870 E0.01675
G1 X153.630 Y49.570 E0.63462
G1 X153.096 Y49.570 E0.01675
G1 X167.930 Y64.404 E0.65830
G1 X167.930 Y64.937 E0.01675
G1 X152.563 Y49.570 E0.68199
G1 X152.029 Y49.570 E0.01675
G1 X167.930 Y65.471 E0.70568
G1 X167.930 Y66.005 E0.01675
G1 X151.495 Y49.570 E0.72936
G1 X150.961 Y49.570 E0.01675
G1 X167.930 Y66.539 E0.75305
G1 X167.930 Y67.072 E0.01675
G1 X150.428 Y49.570 E0.77673
G1 X149.894 Y49.570 E0.01675
G1 X167.930 Y67.606 E0.80042
G1 X167.930 Y68.140 E0.01675
G1 X149.360 Y49.570 E0.82410
G1 X148.827 Y49.570 E0.01675
G1 X167.930 Y68.673 E0.84779
G1 X167.930 Y69.207 E0.01675
G1 X148.293 Y49.570 E0.87147
G1 X147.759 Y49.570 E0.01675
G1 X167.930 Y69.741 E0.89516
G1 X167.930 Y70.275 E0.01675
G1 X147.225 Y49.570 E0.91884
G1 X146.692 Y49.570 E0.01675
G1 X167.930 Y70.808 E0.94253
G1 X167.930 Y71.342 E0.01675
G1 X146.158 Y49.570 E0.96622
G1 X145.624 Y49.570 E0.01675
G1 X167.930 Y71.876 E0.98990
G1 X167.930 Y72.409 E0.01675
G1 X145.091 Y49.570 E1.01359
G1 X144.557 Y49.570 E0.01675
G1 X167.930 Y72.943 E1.03727
G1 X167.930 Y73.477 E0.01675
G1 X144.023 Y49.570 E1.06096
G1 X143.489 Y49.570 E0.01675
G1 X167.930 Y74.011 E1.08464
G1 X167.930 Y74.544 E0.01675
G1 X142.956 Y49.570 E1.10833
G1 X142.422 Y49.570 E0.01675
G1 X167.930 Y75.078 E1.13201
G1 X167.930 Y75.612 E0.01675
G1 X141.888 Y49.570 E1.15570
G1 X141.355 Y49.570 E0.01675
G1 X167.930 Y76.145 E1.17938
G1 X167.930 Y76.679 E0.01675
G1 X140.821 Y49.570 E1.20307
G1 X140.287 Y49.570 E0.01675
G1 X167.930 Y77.213 E1.22676
G1 X167.930 Y77.747 E0.01675
G1 X139.753 Y49.570 E1.25044
G1 X139.220 Y49.570 E0.01675
G1 X167.930 Y78.280 E1.27413
G1 X167.930 Y78.814 E0.01675
G1 X138.686 Y49.570 E1.29781
G1 X138.152 Y49.570 E0.01675
G1 X167.930 Y79.348 E1.32150
G1 X167.930 Y79.881 E0.01675
G1 X137.619 Y49.570 E1.34518
G1 X137.085 Y49.570 E0.01675
G1 X167.930 Y80.415 E1.36887
G1 X167.930 Y80.949 E0.01675
G1 X136.551 Y49.570 E1.39255
G1 X136.017 Y49.570 E0.01675
G1 X167.930 Y81.483 E1.41624
G1 X167.930 Y82.016 E0.01675
G1 X135.484 Y49.570 E1.43992
G1 X134.950 Y49.570 E0.01675
G1 X167.930 Y82.550 E1.46361
G1 X167.930 Y83.084 E0.01675
G1 X134.416 Y49.570 E1.48730
G1 X133.883 Y49.570 E0.01675
G1 X167.930 Y83.617 E1.51098
G1 X167.930 Y84.151 E0.01675
G1 X133.349 Y49.570 E1.53467
G1 X132.815 Y49.570 E0.01675
G1 X167.930 Y84.685 E1.55835
G1 X167.930 Y85.219 E0.01675
G1 X132.281 Y49.570 E1.58204
G1 X131.748 Y49.570 E0.01675
G1 X167.930 Y85.752 E1.60572
G1 X167.930 Y86.286 E0.01675
G1 X131.214 Y49.570 E1.62941
G1 X130.680 Y49.570 E0.01675
G1 X167.930 Y86.820 E1.65309
G1 X167.930 Y87.353 E0.01675
G1 X130.147 Y49.570 E1.67678
G1 X129.613 Y49.570 E0.01675
G1 X167.930 Y87.887 E1.70046
G1 X167.930 Y88.421 E0.01675
G1 X129.079 Y49.570 E1.72415
G1 X128.545 Y49.570 E0.01675
G1 X167.930 Y88.955 E1.74784
G1 X167.930 Y89.488 E0.01675
G1 X128.012 Y49.570 E1.77152
G1 X127.478 Y49.570 E0.01675
G1 X167.930 Y90.022 E1.79521
G1 X167.930 Y90.556 E0.01675
G1 X126.944 Y49.570 E1.81889
G1 X126.411 Y49.570 E0.01675
G1 X167.930 Y91.089 E1.84258
G1 X167.930 Y91.623 E0.01675
G1 X125.877 Y49.570 E1.86626
G1 X125.343 Y49.570 E0.01675
G1 X167.930 Y92.157 E1.88995
G1 X167.930 Y92.691 E0.01675
G1 X124.809 Y49.570 E1.91363
G1 X124.276 Y49.570 E0.01675
G1 X167.930 Y93.224 E1.93732
G1 X167.930 Y93.758 E0.01675
G1 X123.742 Y49.570 E1.96100
G1 X123.208 Y49.570 E0.01675
G1 X167.930 Y94.292 E1.98469
G1 X167.930 Y94.825 E0.01675
G1 X122.675 Y49.570 E2.00838
G1 X122.141 Y49.570 E0.01675
G1 X167.930 Y95.359 E2.03206
G1 X167.930 Y95.893 E0.01675
G1 X121.607 Y49.570 E2.05575
G1 X121.073 Y49.570 E0.01675
G1 X167.930 Y96.427 E2.07943
G1 X167.930 Y96.960 E0.01675
G1 X120.540 Y49.570 E2.10312
G1 X120.006 Y49.570 E0.01675
G1 X167.930 Y97.494 E2.12680
G1 X167.930 Y98.028 E0.01675
G1 X119.472 Y49.570 E2.15049
G1 X118.939 Y49.570 E0.01675
G1 X167.930 Y98.561 E2.17417
G1 X167.930 Y99.095 E0.01675
G1 X118.405 Y49.570 E2.19786
G1 X117.871 Y49.570 E0.01675
G1 X167.930 Y99.629 E2.22154
G1 X167.930 Y100.163 E0.01675
G1 X117.337 Y49.570 E2.24523
G1 X116.804 Y49.570 E0.01675
G1 X167.930 Y100.696 E2.26892
G1 X167.930 Y101.230 E0.01675
G1 X116.270 Y49.570 E2.29260
G1 X115.736 Y49.570 E0.01675
G1 X167.930 Y101.764 E2.31629
G1 X167.930 Y102.297 E0.01675
G1 X115.203 Y49.570 E2.33997
G1 X114.669 Y49.570 E0.01675
G1 X167.930 Y102.831 E2.36366
G1 X167.930 Y103.365 E0.01675
G1 X114.135 Y49.570 E2.38734
G1 X113.601 Y49.570 E0.01675
G1 X167.930 Y103.899 E2.41103
G1 X167.930 Y104.432 E0.01675
G1 X113.068 Y49.570 E2.43471
G1 X112.534 Y49.570 E0.01675
G1 X167.930 Y104.966 E2.45840
G1 X167.930 Y105.500 E0.01675
G1 X112.000 Y49.570 E2.48208
G1 X111.467 Y49.570 E0.01675
G1 X167.930 Y106.033 E2.50577
G1 X167.930 Y106.567 E0.01675
G1 X110.933 Y49.570 E2.52946
G1 X110.399 Y49.570 E0.01675
G1 X167.930 Y107.101 E2.55314
G1 X167.930 Y107.635 E0.01675
G1 X109.865 Y49.570 E2.57683
G1 X109.332 Y49.570 E0.01675
G1 X167.930 Y108.168 E2.60051
G1 X167.930 Y108.702 E0.01675
G1 X108.798 Y49.570 E2.62420
G1 X108.264 Y49.570 E0.01675
G1 X167.930 Y109.236 E2.64788
G1 X167.930 Y109.769 E0.01675
G1 X107.731 Y49.570 E2.67157
G1 X107.197 Y49.570 E0.01675
G1 X167.930 Y110.303 E2.69525
G1 X167.930 Y110.837 E0.01675
G1 X106.663 Y49.570 E2.71894
G1 X106.129 Y49.570 E0.01675
G1 X167.930 Y111.371 E2.74262
G1 X167.930 Y111.904 E0.01675
G1 X105.596 Y49.570 E2.76631
G1 X105.062 Y49.570 E0.01675
G1 X167.930 Y112.438 E2.79000
G1 X167.930 Y112.972 E0.01675
G1 X104.528 Y49.570 E2.81368
G1 X103.995 Y49.570 E0.01675
G1 X167.930 Y113.505 E2.83737
G1 X167.930 Y114.039 E0.01675
G1 X103.461 Y49.570 E2.86105
G1 X102.927 Y49.570 E0.01675
G1 X167.930 Y114.573 E2.88474
G1 X167.930 Y115.107 E0.01675
G1 X102.393 Y49.570 E2.90842
G1 X101.860 Y49.570 E0.01675
G1 X167.930 Y115.640 E2.93211
G1 X167.930 Y116.174 E0.01675
G1 X101.326 Y49.570 E2.95579
G1 X100.792 Y49.570 E0.01675
G1 X167.930 Y116.708 E2.97948
G1 X167.930 Y117.241 E0.01675
G1 X100.259 Y49.570 E3.00316
G1 X99.725 Y49.570 E0.01675
G1 X167.930 Y117.775 E3.02685
G1 X167.930 Y118.309 E0.01675
G1 X99.191 Y49.570 E3.05054
G1 X98.657 Y49.570 E0.01675
G1 X167.930 Y118.843 E3.07422
G1 X167.930 Y119.376 E0.01675
G1 X98.124 Y49.570 E3.09791
G1 X97.590 Y49.570 E0.01675
G1 X167.930 Y119.910 E3.12159
G1 X167.930 Y120.444 E0.01675
G1 X97.056 Y49.570 E3.14528
G1 X96.523 Y49.570 E0.01675
G1 X167.930 Y120.977 E3.16896
G1 X167.930 Y121.511 E0.01675
G1 X95.989 Y49.570 E3.19265
G1 X95.455 Y49.570 E0.01675
G1 X167.930 Y122.045 E3.21633
G1 X167.930 Y122.579 E0.01675
G1 X94.921 Y49.570 E3.24002
G1 X94.388 Y49.570 E0.01675
G1 X167.930 Y123.112 E3.26370
G1 X167.930 Y123.646 E0.01675
G1 X93.854 Y49.570 E3.28739
G1 X93.320 Y49.570 E0.01675
G1 X167.930 Y124.180 E3.31108
G1 X167.930 Y124.713 E0.01675
G1 X92.787 Y49.570 E3.33476
G1 X92.253 Y49.570 E0.01675
G1 X167.930 Y125.247 E3.35845
G1 X167.930 Y125.781 E0.01675
G1 X91.719 Y49.570 E3.38213
G1 X91.185 Y49.570 E0.01675
G1 X167.930 Y126.315 E3.40582
G1 X167.930 Y126.848 E0.01675
G1 X90.652 Y49.570 E3.42950
G1 X90.118 Y49.570 E0.01675
G1 X167.930 Y127.382 E3.45319
G1 X167.930 Y127.916 E0.01675
G1 X89.584 Y49.570 E3.47687
G1 X89.051 Y49.570 E0.01675
G1 X167.930 Y128.449 E3.50056
G1 X167.930 Y128.983 E0.01675
G1 X88.517 Y49.570 E3.52424
G1 X87.983 Y49.570 E0.01675
G1 X167.930 Y129.517 E3.54793
G1 X167.930 Y130.051 E0.01675
G1 X87.449 Y49.570 E3.57162
G1 X86.916 Y49.570 E0.01675
G1 X167.930 Y130.584 E3.59530
G1 X167.930 Y131.118 E0.01675
G1 X86.382 Y49.570 E3.61899
G1 X85.848 Y49.570 E0.01675
G1 X167.930 Y131.652 E3.64267
G1 X167.930 Y132.185 E0.01675
G1 X85.315 Y49.570 E3.66636
G1 X84.781 Y49.570 E0.01675
G1 X167.930 Y132.719 E3.69004
G1 X167.930 Y133.253 E0.01675
G1 X84.247 Y49.570 E3.71373
G1 X83.713 Y49.570 E0.01675
G1 X167.930 Y133.787 E3.73741
G1 X167.930 Y134.320 E0.01675
G1 X83.180 Y49.570 E3.76110
G1 X82.646 Y49.570 E0.01675
G1 X167.930 Y134.854 E3.78478
G1 X167.930 Y135.388 E0.01675
G1 X82.112 Y49.570 E3.80847
G1 X82.070 Y49.570 E0.00133
G1 X82.070 Y50.061 E0.01542
G1 X167.930 Y135.921 E3.81035
G1 X167.930 Y136.455 E0.01675
G1 X82.070 Y50.595 E3.81035
G1 X82.070 Y51.129 E0.01675
G1 X167.930 Y136.989 E3.81035
G1 X167.930 Y137.523 E0.01675
G1 X82.070 Y51.662 E3.81035
G1 X82.070 Y52.196 E0.01675
G1 X167.930 Y138.056 E3.81035
G1 X167.930 Y138.590 E0.01675
G1 X82.070 Y52.730 E3.81035
G1 X82.070 Y53.263 E0.01675
G1 X167.930 Y139.124 E3.81035
G1 X167.930 Y139.657 E0.01675
G1 X82.070 Y53.797 E3.81035
G1 X82.070 Y54.331 E0.01675
G1 X167.930 Y140.191 E3.81035
G1 X167.930 Y140.725 E0.01675
G1 X82.070 Y54.865 E3.81035
G1 X82.070 Y55.398 E0.01675
G1 X167.930 Y141.259 E3.81035
G1 X167.930 Y141.792 E0.01675
G1 X82.070 Y55.932 E3.81035
G1 X82.070 Y56.466 E0.01675
G1 X167.930 Y142.326 E3.81035
G1 X167.930 Y142.860 E0.01675
G1 X82.070 Y56.999 E3.81035
G1 X82.070 Y57.533 E0.01675
G1 X167.930 Y143.393 E3.81035
G1 X167.930 Y143.927 E0.01675
G1 X82.070 Y58.067 E3.81035
G1 X82.070 Y58.601 E0.01675
G1 X167.930 Y144.461 E3.81035
G1 X167.930 Y144.995 E0.01675
G1 X82.070 Y59.134 E3.81035
G1 X82.070 Y59.668 E0.01675
G1 X167.930 Y145.528 E3.81035
G1 X167.930 Y146.062 E0.01675
G1 X82.070 Y60.202 E3.81035
G1 X82.070 Y60.735 E0.01675
G1 X167.930 Y146.596 E3.81035
G1 X167.930 Y147.129 E0.01675
G1 X82.070 Y61.269 E3.81035
G1 X82.070 Y61.803 E0.01675
G1 X167.930 Y147.663 E3.81035
G1 X167.930 Y148.197 E0.01675
G1 X82.070 Y62.337 E3.81035
G1 X82.070 Y62.870 E0.01675
G1 X167.930 Y148.731 E3.81035
G1 X167.930 Y149.264 E0.01675
G1 X82.070 Y63.404 E3.81035
G1 X82.070 Y63.938 E0.01675
G1 X167.930 Y149.798 E3.81035
G1 X167.930 Y150.332 E0.01675
G1 X82.070 Y64.471 E3.81035
G1 X82.070 Y65.005 E0.01675
G1 X167.930 Y150.865 E3.81035
G1 X167.930 Y151.399 E0.01675
G1 X82.070 Y65.539 E3.81035
G1 X82.070 Y66.073 E0.01675
G1 X167.930 Y151.933 E3.81035
G1 X167.930 Y152.467 E0.01675
G1 X82.070 Y66.606 E3.81035
G1 X82.070 Y67.140 E0.01675
G1 X167.930 Y153.000 E3.81035
G1 X167.930 Y153.534 E0.01675
G1 X82.070 Y67.674 E3.81035
G1 X82.070 Y68.207 E0.01675
G1 X167.930 Y154.068 E3.81035
G1 X167.930 Y154.601 E0.01675
G1 X82.070 Y68.741 E3.81035
G1 X82.070 Y69.275 E0.01675
G1 X167.930 Y155.135 E3.81035
G1 X167.930 Y155.669 E0.01675
G1 X82.070 Y69.809 E3.81035
G1 X82.070 Y70.342 E0.01675
G1 X167.930 Y156.203 E3.81035
G1 X167.930 Y156.736 E0.01675
G1 X82.070 Y70.876 E3.81035
G1 X82.070 Y71.410 E0.01675
G1 X167.930 Y157.270 E3.81035
G1 X167.930 Y157.804 E0.01675
G1 X82.070 Y71.943 E3.81035
G1 X82.070 Y72.477 E0.01675
G1 X167.930 Y158.337 E3.81035
G1 X167.930 Y158.871 E0.01675
G1 X82.070 Y73.011 E3.81035
G1 X82.070 Y73.545 E0.01675
G1 X167.930 Y159.405 E3.81035
G1 X167.930 Y159.939 E0.01675
G1 X82.070 Y74.078 E3.81035
G1 X82.070 Y74.612 E0.01675
G1 X167.888 Y160.430 E3.80848
G1 X167.354 Y160.430 E0.01675
G1 X82.070 Y75.146 E3.78480
G1 X82.070 Y75.679 E0.01675
G1 X166.821 Y160.430 E3.76111
G1 X166.287 Y160.430 E0.01675
G1 X82.070 Y76.213 E3.73742
G1 X82.070 Y76.747 E0.01675
G1 X165.753 Y160.430 E3.71374
G1 X165.219 Y160.430 E0.01675
G1 X82.070 Y77.281 E3.69005
G1 X82.070 Y77.814 E0.01675
G1 X164.686 Y160.430 E3.66637
G1 X164.152 Y160.430 E0.01675
G1 X82.070 Y78.348 E3.64268
G1 X82.070 Y78.882 E0.01675
G1 X163.618 Y160.430 E3.61900
G1 X163.085 Y160.430 E0.01675
G1 X82.070 Y79.415 E3.59531
G1 X82.070 Y79.949 E0.01675
G1 X162.551 Y160.430 E3.57163
G1 X162.017 Y160.430 E0.01675
G1 X82.070 Y80.483 E3.54794
G1 X82.070 Y81.017 E0.01675
G1 X161.483 Y160.430 E3.52426
G1 X160.950 Y160.430 E0.01675
G1 X82.070 Y81.550 E3.50057
G1 X82.070 Y82.084 E0.01675
G1 X160.416 Y160.430 E3.47688
G1 X159.882 Y160.430 E0.01675
G1 X82.070 Y82.618 E3.45320
G1 X82.070 Y83.151 E0.01675
G1 X159.349 Y160.430 E3.42951
G1 X158.815 Y160.430 E0.01675
