; generated by Slic3r Prusa Edition 1.41.0+ on 2018-11-11 at 10:41:25

; 

; external perimeters extrusion width = 0.45mm
; perimeters extrusion width = 0.45mm
; infill extrusion width = 0.45mm
; solid infill extrusion width = 0.45mm
; top infill extrusion width = 0.40mm
; first layer extrusion width = 0.42mm

M201 X1000 Y1000 Z1000 E5000 ; sets maximum accelerations, mm/sec^2
M203 X200 Y200 Z12 E120 ; sets maximum feedrates, mm/sec
M204 P1250 R1250 T1250 ; sets acceleration (P, T) and retract acceleration (R), mm/sec^2
M205 X8.00 Y8.00 Z0.40 E1.50 ; sets the jerk limits, mm/sec
M205 S0 T0 ; sets the minimum extruding and travel feed rate, mm/sec
M107
M115 U3.4.1 ; tell printer latest fw version
M83  ; extruder relative mode
M104 S215 ; set extruder temp
M140 S60 ; set bed temp
M190 S60 ; wait for bed temp
M109 S215 ; wait for extruder temp
G28 W ; home all without mesh bed level
G80 ; mesh bed leveling
G1 Y-3.0 F1000.0 ; go outside print area
G92 E0.0
G1 X60.0 E9.0  F1000.0 ; intro line
M73 Q0 S636
M73 P0 R631
G1 X100.0 E12.5  F1000.0 ; intro line
G92 E0.0
M221 S95
M900 K30; Filament gcode
G21 ; set units to millimeters
G90 ; use absolute coordinates
M83 ; use relative distances for extrusion
;BEFORE_LAYER_CHANGE
G92 E0.0
;0.2


G1 E-0.80000 F2100.00000
G1 Z0.600 F10800.000
;AFTER_LAYER_CHANGE
;0.2
G1 X31.367 Y42.405
G1 Z0.200
G1 E0.80000 F2100.00000
M204 S1000
G1 F1200
G1 X31.994 Y42.311 E0.01987
G1 X218.004 Y42.311 E5.83220
G1 X218.834 Y42.476 E0.02653
G1 X219.542 Y42.947 E0.02664
G1 X220.016 Y43.647 E0.02653
G1 X220.188 Y44.480 E0.02664
G1 X220.188 Y165.518 E3.79509
G1 X220.119 Y166.046 E0.01669
G1 X219.925 Y166.542 E0.01669
G1 X219.616 Y166.975 E0.01669
G1 X219.209 Y167.324 E0.01680
G1 X218.633 Y167.595 E0.01998
G1 X218.006 Y167.689 E0.01987
G1 X31.993 Y167.689 E5.83231
G1 X31.461 Y167.621 E0.01680
G1 X30.962 Y167.427 E0.01680
G1 X30.525 Y167.116 E0.01680
G1 X30.176 Y166.709 E0.01680
G1 X29.905 Y166.133 E0.01998
G1 X29.811 Y165.506 E0.01987
G1 X29.811 Y44.489 E3.79440
G1 X29.880 Y43.957 E0.01680
G1 X30.075 Y43.458 E0.01680
G1 X30.384 Y43.025 E0.01669
G1 X30.791 Y42.676 E0.01680
G1 X31.313 Y42.430 E0.01810
; PURGING FINISHED
G1 F8640
G1 X31.994 Y42.311 E-0.15964
G1 X34.594 Y42.311 E-0.60036
G1 E-0.04000 F2100.00000
G1 Z0.800 F10800.000
G1 X128.587 Y108.587
G1 Z0.200
G1 E0.80000 F2100.00000
G1 F1200
G1 X217.413 Y108.587 E2.78507
G1 X217.413 Y164.913 E1.76606
G1 X128.587 Y164.913 E2.78507
G1 X128.587 Y108.647 E1.76418
G1 X128.210 Y108.210 F10800.000
G1 F1200
G1 X217.790 Y108.210 E2.80872
G1 X217.790 Y165.290 E1.78970
G1 X128.210 Y165.290 E2.80872
M73 Q0 S635
M73 P0 R630
G1 X128.210 Y108.270 E1.78782
G1 X128.603 Y108.285 F10800.000
G1 F8640
G1 X131.501 Y108.268 E-0.76000
G1 E-0.04000 F2100.00000
G1 Z0.800 F10800.000
G1 X128.700 Y164.036
G1 Z0.200
G1 E0.80000 F2100.00000
G1 F1200
G1 X129.294 Y164.630 E0.02639
G1 X129.828 Y164.630 E0.01678
G1 X128.870 Y163.672 E0.04258
G1 X128.870 Y163.137 E0.01678
G1 X130.363 Y164.630 E0.06631
G1 X130.897 Y164.630 E0.01678
G1 X128.870 Y162.603 E0.09004
G1 X128.870 Y162.069 E0.01678
G1 X131.431 Y164.630 E0.11377
G1 X131.965 Y164.630 E0.01678
G1 X128.870 Y161.535 E0.13750
G1 X128.870 Y161.000 E0.01678
G1 X132.500 Y164.630 E0.16123
G1 X133.034 Y164.630 E0.01678
G1 X128.870 Y160.466 E0.18497
G1 X128.870 Y159.932 E0.01678
G1 X133.568 Y164.630 E0.20870
G1 X134.102 Y164.630 E0.01678
G1 X128.870 Y159.398 E0.23243
G1 X128.870 Y158.864 E0.01678
G1 X134.636 Y164.630 E0.25616
G1 X135.171 Y164.630 E0.01678
G1 X128.870 Y158.329 E0.27989
G1 X128.870 Y157.795 E0.01678
G1 X135.705 Y164.630 E0.30362
G1 X136.239 Y164.630 E0.01678
G1 X128.870 Y157.261 E0.32735
G1 X128.870 Y156.727 E0.01678
G1 X136.773 Y164.630 E0.35108
G1 X137.308 Y164.630 E0.01678
G1 X128.870 Y156.192 E0.37481
G1 X128.870 Y155.658 E0.01678
G1 X137.842 Y164.630 E0.39854
G1 X138.376 Y164.630 E0.01678
G1 X128.870 Y155.124 E0.42227
G1 X128.870 Y154.590 E0.01678
G1 X138.910 Y164.630 E0.44600
G1 X139.444 Y164.630 E0.01678
G1 X128.870 Y154.056 E0.46973
G1 X128.870 Y153.521 E0.01678
G1 X139.979 Y164.630 E0.49346
G1 X140.513 Y164.630 E0.01678
G1 X128.870 Y152.987 E0.51719
G1 X128.870 Y152.453 E0.01678
G1 X141.047 Y164.630 E0.54093
G1 X141.581 Y164.630 E0.01678
G1 X128.870 Y151.919 E0.56466
G1 X128.870 Y151.384 E0.01678
G1 X142.116 Y164.630 E0.58839
G1 X142.650 Y164.630 E0.01678
G1 X128.870 Y150.850 E0.61212
G1 X128.870 Y150.316 E0.01678
G1 X143.184 Y164.630 E0.63585
G1 X143.718 Y164.630 E0.01678
G1 X128.870 Y149.782 E0.65958
G1 X128.870 Y149.248 E0.01678
G1 X144.252 Y164.630 E0.68331
G1 X144.787 Y164.630 E0.01678
G1 X128.870 Y148.713 E0.70704
G1 X128.870 Y148.179 E0.01678
G1 X145.321 Y164.630 E0.73077
G1 X145.855 Y164.630 E0.01678
G1 X128.870 Y147.645 E0.75450
G1 X128.870 Y147.111 E0.01678
G1 X146.389 Y164.630 E0.77823
G1 X146.924 Y164.630 E0.01678
G1 X128.870 Y146.576 E0.80196
G1 X128.870 Y146.042 E0.01678
G1 X147.458 Y164.630 E0.82569
G1 X147.992 Y164.630 E0.01678
G1 X128.870 Y145.508 E0.84942
G1 X128.870 Y144.974 E0.01678
G1 X148.526 Y164.630 E0.87315
G1 X149.060 Y164.630 E0.01678
G1 X128.870 Y144.440 E0.89689
G1 X128.870 Y143.905 E0.01678
G1 X149.595 Y164.630 E0.92062
G1 X150.129 Y164.630 E0.01678
G1 X128.870 Y143.371 E0.94435
G1 X128.870 Y142.837 E0.01678
G1 X150.663 Y164.630 E0.96808
G1 X151.197 Y164.630 E0.01678
G1 X128.870 Y142.303 E0.99181
G1 X128.870 Y141.768 E0.01678
G1 X151.732 Y164.630 E1.01554
G1 X152.266 Y164.630 E0.01678
G1 X128.870 Y141.234 E1.03927
G1 X128.870 Y140.700 E0.01678
G1 X152.800 Y164.630 E1.06300
G1 X153.334 Y164.630 E0.01678
G1 X128.870 Y140.166 E1.08673
G1 X128.870 Y139.631 E0.01678
G1 X153.869 Y164.630 E1.11046
G1 X154.403 Y164.630 E0.01678
G1 X128.870 Y139.097 E1.13419
G1 X128.870 Y138.563 E0.01678
G1 X154.937 Y164.630 E1.15792
G1 X155.471 Y164.630 E0.01678
G1 X128.870 Y138.029 E1.18165
G1 X128.870 Y137.495 E0.01678
G1 X156.005 Y164.630 E1.20538
G1 X156.540 Y164.630 E0.01678
G1 X128.870 Y136.960 E1.22911
G1 X128.870 Y136.426 E0.01678
G1 X157.074 Y164.630 E1.25285
G1 X157.608 Y164.630 E0.01678
G1 X128.870 Y135.892 E1.27658
M73 Q0 S633
M73 P0 R629
G1 X128.870 Y135.358 E0.01678
G1 X158.142 Y164.630 E1.30031
G1 X158.677 Y164.630 E0.01678
G1 X128.870 Y134.823 E1.32404
G1 X128.870 Y134.289 E0.01678
G1 X159.211 Y164.630 E1.34777
G1 X159.745 Y164.630 E0.01678
G1 X128.870 Y133.755 E1.37150
G1 X128.870 Y133.221 E0.01678
G1 X160.279 Y164.630 E1.39523
G1 X160.813 Y164.630 E0.01678
G1 X128.870 Y132.687 E1.41896
G1 X128.870 Y132.152 E0.01678
G1 X161.348 Y164.630 E1.44269
G1 X161.882 Y164.630 E0.01678
G1 X128.870 Y131.618 E1.46642
G1 X128.870 Y131.084 E0.01678
G1 X162.416 Y164.630 E1.49015
G1 X162.950 Y164.630 E0.01678
G1 X128.870 Y130.550 E1.51388
G1 X128.870 Y130.015 E0.01678
G1 X163.485 Y164.630 E1.53761
G1 X164.019 Y164.630 E0.01678
G1 X128.870 Y129.481 E1.56134
G1 X128.870 Y128.947 E0.01678
G1 X164.553 Y164.630 E1.58507
G1 X165.087 Y164.630 E0.01678
G1 X128.870 Y128.413 E1.60881
G1 X128.870 Y127.879 E0.01678
G1 X165.621 Y164.630 E1.63254
G1 X166.156 Y164.630 E0.01678
G1 X128.870 Y127.344 E1.65627
G1 X128.870 Y126.810 E0.01678
G1 X166.690 Y164.630 E1.68000
G1 X167.224 Y164.630 E0.01678
G1 X128.870 Y126.276 E1.70373
G1 X128.870 Y125.742 E0.01678
G1 X167.758 Y164.630 E1.72746
G1 X168.293 Y164.630 E0.01678
G1 X128.870 Y125.207 E1.75119
G1 X128.870 Y124.673 E0.01678
G1 X168.827 Y164.630 E1.77492
G1 X169.361 Y164.630 E0.01678
G1 X128.870 Y124.139 E1.79865
G1 X128.870 Y123.605 E0.01678
G1 X169.895 Y164.630 E1.82238
G1 X170.429 Y164.630 E0.01678
G1 X128.870 Y123.071 E1.84611
M73 Q0 S632
M73 P0 R628
G1 X128.870 Y122.536 E0.01678
G1 X170.964 Y164.630 E1.86984
G1 X171.498 Y164.630 E0.01678
G1 X128.870 Y122.002 E1.89357
G1 X128.870 Y121.468 E0.01678
G1 X172.032 Y164.630 E1.91730
G1 X172.566 Y164.630 E0.01678
G1 X128.870 Y120.934 E1.94103
G1 X128.870 Y120.399 E0.01678
G1 X173.101 Y164.630 E1.96476
G1 X173.635 Y164.630 E0.01678
G1 X128.870 Y119.865 E1.98850
G1 X128.870 Y119.331 E0.01678
G1 X174.169 Y164.630 E2.01223
G1 X174.703 Y164.630 E0.01678
G1 X128.870 Y118.797 E2.03596
G1 X128.870 Y118.263 E0.01678
G1 X175.237 Y164.630 E2.05969
G1 X175.772 Y164.630 E0.01678
G1 X128.870 Y117.728 E2.08342
G1 X128.870 Y117.194 E0.01678
G1 X176.306 Y164.630 E2.10715
G1 X176.840 Y164.630 E0.01678
G1 X128.870 Y116.660 E2.13088
G1 X128.870 Y116.126 E0.01678
G1 X177.374 Y164.630 E2.15461
G1 X177.909 Y164.630 E0.01678
G1 X128.870 Y115.591 E2.17834
G1 X128.870 Y115.057 E0.01678
G1 X178.443 Y164.630 E2.20207
G1 X178.977 Y164.630 E0.01678
G1 X128.870 Y114.523 E2.22580
G1 X128.870 Y113.989 E0.01678
G1 X179.511 Y164.630 E2.24953
G1 X180.045 Y164.630 E0.01678
G1 X128.870 Y113.455 E2.27326
M73 Q0 S631
M73 P0 R627
G1 X128.870 Y112.920 E0.01678
G1 X180.580 Y164.630 E2.29699
G1 X181.114 Y164.630 E0.01678
G1 X128.870 Y112.386 E2.32072
G1 X128.870 Y111.852 E0.01678
G1 X181.648 Y164.630 E2.34446
G1 X182.182 Y164.630 E0.01678
G1 X128.870 Y111.318 E2.36819
G1 X128.870 Y110.783 E0.01678
G1 X182.717 Y164.630 E2.39192
G1 X183.251 Y164.630 E0.01678
G1 X128.870 Y110.249 E2.41565
G1 X128.870 Y109.715 E0.01678
G1 X183.785 Y164.630 E2.43938
G1 X184.319 Y164.630 E0.01678
G1 X128.870 Y109.181 E2.46311
G1 X128.870 Y108.870 E0.00977
G1 X129.093 Y108.870 E0.00701
G1 X184.853 Y164.630 E2.47692
G1 X185.388 Y164.630 E0.01678
G1 X129.627 Y108.870 E2.47692
G1 X130.162 Y108.870 E0.01678
G1 X185.922 Y164.630 E2.47692
G1 X186.456 Y164.630 E0.01678
G1 X130.696 Y108.870 E2.47692
G1 X131.230 Y108.870 E0.01678
G1 X186.990 Y164.630 E2.47692
G1 X187.525 Y164.630 E0.01678
G1 X131.764 Y108.870 E2.47692
G1 X132.299 Y108.870 E0.01678
G1 X188.059 Y164.630 E2.47692
G1 X188.593 Y164.630 E0.01678
G1 X132.833 Y108.870 E2.47692
M73 Q0 S630
M73 P0 R626
G1 X133.367 Y108.870 E0.01678
G1 X189.127 Y164.630 E2.47692
G1 X189.661 Y164.630 E0.01678
G1 X133.901 Y108.870 E2.47692
G1 X134.435 Y108.870 E0.01678
G1 X190.196 Y164.630 E2.47692
G1 X190.730 Y164.630 E0.01678
G1 X134.970 Y108.870 E2.47692
G1 X135.504 Y108.870 E0.01678
G1 X191.264 Y164.630 E2.47692
G1 X191.798 Y164.630 E0.01678
G1 X136.038 Y108.870 E2.47692
G1 X136.572 Y108.870 E0.01678
G1 X192.333 Y164.630 E2.47692
G1 X192.867 Y164.630 E0.01678
G1 X137.107 Y108.870 E2.47692
G1 X137.641 Y108.870 E0.01678
G1 X193.401 Y164.630 E2.47692
G1 X193.935 Y164.630 E0.01678
G1 X138.175 Y108.870 E2.47692
G1 X138.709 Y108.870 E0.01678
G1 X194.469 Y164.630 E2.47692
G1 X195.004 Y164.630 E0.01678
G1 X139.243 Y108.870 E2.47692
G1 X139.778 Y108.870 E0.01678
G1 X195.538 Y164.630 E2.47692
G1 X196.072 Y164.630 E0.01678
G1 X140.312 Y108.870 E2.47692
G1 X140.846 Y108.870 E0.01678
G1 X196.606 Y164.630 E2.47692
G1 X197.141 Y164.630 E0.01678
G1 X141.380 Y108.870 E2.47692
M73 Q0 S629
M73 P0 R625
G1 X141.915 Y108.870 E0.01678
G1 X197.675 Y164.630 E2.47692
G1 X198.209 Y164.630 E0.01678
G1 X142.449 Y108.870 E2.47692
G1 X142.983 Y108.870 E0.01678
G1 X198.743 Y164.630 E2.47692
G1 X199.277 Y164.630 E0.01678
G1 X143.517 Y108.870 E2.47692
G1 X144.051 Y108.870 E0.01678
G1 X199.812 Y164.630 E2.47692
G1 X200.346 Y164.630 E0.01678
G1 X144.586 Y108.870 E2.47692
G1 X145.120 Y108.870 E0.01678
G1 X200.880 Y164.630 E2.47692
G1 X201.414 Y164.630 E0.01678
G1 X145.654 Y108.870 E2.47692
G1 X146.188 Y108.870 E0.01678
G1 X201.949 Y164.630 E2.47692
G1 X202.483 Y164.630 E0.01678
G1 X146.723 Y108.870 E2.47692
G1 X147.257 Y108.870 E0.01678
G1 X203.017 Y164.630 E2.47692
G1 X203.551 Y164.630 E0.01678
G1 X147.791 Y108.870 E2.47692
G1 X148.325 Y108.870 E0.01678
G1 X204.086 Y164.630 E2.47692
G1 X204.620 Y164.630 E0.01678
G1 X148.859 Y108.870 E2.47692
G1 X149.394 Y108.870 E0.01678
G1 X205.154 Y164.630 E2.47692
G1 X205.688 Y164.630 E0.01678
G1 X149.928 Y108.870 E2.47692
M73 Q1 S628
M73 P1 R623
G1 X150.462 Y108.870 E0.01678
G1 X206.222 Y164.630 E2.47692
G1 X206.757 Y164.630 E0.01678
G1 X150.996 Y108.870 E2.47692
G1 X151.531 Y108.870 E0.01678
G1 X207.291 Y164.630 E2.47692
G1 X207.825 Y164.630 E0.01678
G1 X152.065 Y108.870 E2.47692
G1 X152.599 Y108.870 E0.01678
G1 X208.359 Y164.630 E2.47692
G1 X208.894 Y164.630 E0.01678
G1 X153.133 Y108.870 E2.47692
G1 X153.667 Y108.870 E0.01678
G1 X209.428 Y164.630 E2.47692
G1 X209.962 Y164.630 E0.01678
G1 X154.202 Y108.870 E2.47692
G1 X154.736 Y108.870 E0.01678
G1 X210.496 Y164.630 E2.47692
G1 X211.030 Y164.630 E0.01678
G1 X155.270 Y108.870 E2.47692
G1 X155.804 Y108.870 E0.01678
G1 X211.565 Y164.630 E2.47692
G1 X212.099 Y164.630 E0.01678
G1 X156.339 Y108.870 E2.47692
G1 X156.873 Y108.870 E0.01678
G1 X212.633 Y164.630 E2.47692
G1 X213.167 Y164.630 E0.01678
G1 X157.407 Y108.870 E2.47692
G1 X157.941 Y108.870 E0.01678
G1 X213.702 Y164.630 E2.47692
G1 X214.236 Y164.630 E0.01678
G1 X158.475 Y108.870 E2.47692
M73 Q1 S627
M73 P1 R622
G1 X159.010 Y108.870 E0.01678
G1 X214.770 Y164.630 E2.47692
G1 X215.304 Y164.630 E0.01678
G1 X159.544 Y108.870 E2.47692
G1 X160.078 Y108.870 E0.01678
G1 X215.838 Y164.630 E2.47692
G1 X216.373 Y164.630 E0.01678
G1 X160.612 Y108.870 E2.47692
G1 X161.147 Y108.870 E0.01678
G1 X216.907 Y164.630 E2.47692
G1 X217.130 Y164.630 E0.00701
G1 X217.130 Y164.319 E0.00977
G1 X161.681 Y108.870 E2.46311
G1 X162.215 Y108.870 E0.01678
G1 X217.130 Y163.785 E2.43938
G1 X217.130 Y163.251 E0.01678
G1 X162.749 Y108.870 E2.41565
G1 X163.283 Y108.870 E0.01678
G1 X217.130 Y162.717 E2.39192
G1 X217.130 Y162.182 E0.01678
G1 X163.818 Y108.870 E2.36818
G1 X164.352 Y108.870 E0.01678
G1 X217.130 Y161.648 E2.34445
G1 X217.130 Y161.114 E0.01678
G1 X164.886 Y108.870 E2.32072
G1 X165.420 Y108.870 E0.01678
G1 X217.130 Y160.580 E2.29699
G1 X217.130 Y160.045 E0.01678
G1 X165.955 Y108.870 E2.27326
G1 X166.489 Y108.870 E0.01678
G1 X217.130 Y159.511 E2.24953
G1 X217.130 Y158.977 E0.01678
G1 X167.023 Y108.870 E2.22580
M73 Q1 S626
M73 P1 R621
G1 X167.557 Y108.870 E0.01678
G1 X217.130 Y158.443 E2.20207
G1 X217.130 Y157.909 E0.01678
G1 X168.092 Y108.870 E2.17834
G1 X168.626 Y108.870 E0.01678
G1 X217.130 Y157.374 E2.15461
G1 X217.130 Y156.840 E0.01678
G1 X169.160 Y108.870 E2.13088
G1 X169.694 Y108.870 E0.01678
G1 X217.130 Y156.306 E2.10715
G1 X217.130 Y155.772 E0.01678
G1 X170.228 Y108.870 E2.08342
G1 X170.763 Y108.870 E0.01678
G1 X217.130 Y155.237 E2.05969
G1 X217.130 Y154.703 E0.01678
G1 X171.297 Y108.870 E2.03596
G1 X171.831 Y108.870 E0.01678
G1 X217.130 Y154.169 E2.01222
G1 X217.130 Y153.635 E0.01678
G1 X172.365 Y108.870 E1.98849
G1 X172.900 Y108.870 E0.01678
G1 X217.130 Y153.101 E1.96476
G1 X217.130 Y152.566 E0.01678
G1 X173.434 Y108.870 E1.94103
G1 X173.968 Y108.870 E0.01678
G1 X217.130 Y152.032 E1.91730
G1 X217.130 Y151.498 E0.01678
G1 X174.502 Y108.870 E1.89357
G1 X175.036 Y108.870 E0.01678
G1 X217.130 Y150.964 E1.86984
G1 X217.130 Y150.429 E0.01678
G1 X175.571 Y108.870 E1.84611
G1 X176.105 Y108.870 E0.01678
G1 X217.130 Y149.895 E1.82238
G1 X217.130 Y149.361 E0.01678
G1 X176.639 Y108.870 E1.79865
G1 X177.173 Y108.870 E0.01678
G1 X217.130 Y148.827 E1.77492
M73 Q1 S625
M73 P1 R620
G1 X217.130 Y148.293 E0.01678
G1 X177.708 Y108.870 E1.75119
G1 X178.242 Y108.870 E0.01678
G1 X217.130 Y147.758 E1.72746
G1 X217.130 Y147.224 E0.01678
G1 X178.776 Y108.870 E1.70373
G1 X179.310 Y108.870 E0.01678
G1 X217.130 Y146.690 E1.68000
G1 X217.130 Y146.156 E0.01678
G1 X179.844 Y108.870 E1.65626
G1 X180.379 Y108.870 E0.01678
G1 X217.130 Y145.621 E1.63253
G1 X217.130 Y145.087 E0.01678
G1 X180.913 Y108.870 E1.60880
G1 X181.447 Y108.870 E0.01678
G1 X217.130 Y144.553 E1.58507
G1 X217.130 Y144.019 E0.01678
G1 X181.981 Y108.870 E1.56134
G1 X182.516 Y108.870 E0.01678
G1 X217.130 Y143.484 E1.53761
G1 X217.130 Y142.950 E0.01678
G1 X183.050 Y108.870 E1.51388
G1 X183.584 Y108.870 E0.01678
G1 X217.130 Y142.416 E1.49015
G1 X217.130 Y141.882 E0.01678
G1 X184.118 Y108.870 E1.46642
G1 X184.652 Y108.870 E0.01678
G1 X217.130 Y141.348 E1.44269
G1 X217.130 Y140.813 E0.01678
G1 X185.187 Y108.870 E1.41896
G1 X185.721 Y108.870 E0.01678
G1 X217.130 Y140.279 E1.39523
G1 X217.130 Y139.745 E0.01678
G1 X186.255 Y108.870 E1.37150
G1 X186.789 Y108.870 E0.01678
G1 X217.130 Y139.211 E1.34777
G1 X217.130 Y138.676 E0.01678
G1 X187.324 Y108.870 E1.32404
G1 X187.858 Y108.870 E0.01678
G1 X217.130 Y138.142 E1.30030
