; generated by Slic3r Prusa Edition 1.41.0+ on 2018-11-11 at 18:51:33

; 

; external perimeters extrusion width = 0.45mm
; perimeters extrusion width = 0.45mm
; infill extrusion width = 0.45mm
; solid infill extrusion width = 0.45mm
; top infill extrusion width = 0.40mm
; first layer extrusion width = 0.42mm

M201 X1000 Y1000 Z1000 E5000 ; sets maximum accelerations, mm/sec^2
M203 X200 Y200 Z12 E120 ; sets maximum feedrates, mm/sec
M204 P1250 R1250 T1250 ; sets acceleration (P, T) and retract acceleration (R), mm/sec^2
M205 X8.00 Y8.00 Z0.40 E1.50 ; sets the jerk limits, mm/sec
M205 S0 T0 ; sets the minimum extruding and travel feed rate, mm/sec
M107
M115 U3.4.1 ; tell printer latest fw version
M83  ; extruder relative mode
M104 S215 ; set extruder temp
M140 S60 ; set bed temp
M190 S60 ; wait for bed temp
M109 S215 ; wait for extruder temp
G28 W ; home all without mesh bed level
G80 ; mesh bed leveling
G1 Y-3.0 F1000.0 ; go outside print area
G92 E0.0
G1 X60.0 E9.0  F1000.0 ; intro line
M73 Q0 S479
M73 P0 R473
G1 X100.0 E12.5  F1000.0 ; intro line
G92 E0.0
M221 S95
M900 K30; Filament gcode
G21 ; set units to millimeters
G90 ; use absolute coordinates
M83 ; use relative distances for extrusion
;BEFORE_LAYER_CHANGE
G92 E0.0
;0.2


G1 E-0.80000 F2100.00000
G1 Z0.600 F10800.000
;AFTER_LAYER_CHANGE
;0.2
G1 X30.834 Y45.648
G1 Z0.200
G1 E0.80000 F2100.00000
M204 S1000
G1 F1200
G1 X31.388 Y45.399 E0.01908
G1 X31.994 Y45.311 E0.01919
G1 X218.004 Y45.311 E5.83220
G1 X218.834 Y45.476 E0.02653
G1 X219.542 Y45.947 E0.02664
G1 X220.016 Y46.647 E0.02653
G1 X220.188 Y47.480 E0.02664
G1 X220.188 Y162.518 E3.60696
G1 X220.116 Y163.060 E0.01714
G1 X219.911 Y163.567 E0.01714
G1 X219.589 Y164.005 E0.01703
G1 X219.166 Y164.352 E0.01714
G1 X218.612 Y164.601 E0.01908
G1 X218.006 Y164.689 E0.01919
G1 X31.993 Y164.689 E5.83231
G1 X31.450 Y164.618 E0.01714
G1 X30.939 Y164.414 E0.01726
G1 X30.498 Y164.092 E0.01714
G1 X30.148 Y163.666 E0.01726
G1 X29.899 Y163.112 E0.01908
G1 X29.811 Y162.506 E0.01919
G1 X29.811 Y47.489 E3.60627
G1 X29.883 Y46.947 E0.01714
G1 X30.086 Y46.439 E0.01714
G1 X30.408 Y45.998 E0.01714
G1 X30.787 Y45.686 E0.01538
; PURGING FINISHED
G1 F8640
G1 X31.388 Y45.399 E-0.15389
G1 X31.994 Y45.311 E-0.14131
G1 X34.007 Y45.311 E-0.46480
G1 E-0.04000 F2100.00000
G1 Z0.800 F10800.000
G1 X128.587 Y48.087
G1 Z0.200
G1 E0.80000 F2100.00000
G1 F1200
G1 X217.413 Y48.087 E2.78507
G1 X217.413 Y161.913 E3.56893
G1 X128.587 Y161.913 E2.78507
G1 X128.587 Y48.147 E3.56705
G1 X128.210 Y47.710 F10800.000
G1 F1200
G1 X217.790 Y47.710 E2.80872
M73 Q0 S478
G1 X217.790 Y162.290 E3.59258
M73 P0 R472
G1 X128.210 Y162.290 E2.80872
G1 X128.210 Y47.770 E3.59069
G1 X128.592 Y47.829 F10800.000
G1 F8640
G1 X131.501 Y47.768 E-0.76000
G1 E-0.04000 F2100.00000
G1 Z0.800 F10800.000
G1 X217.300 Y48.963
G1 Z0.200
G1 E0.80000 F2100.00000
G1 F1200
G1 X216.707 Y48.370 E0.02633
G1 X216.173 Y48.370 E0.01675
G1 X217.130 Y49.327 E0.04248
G1 X217.130 Y49.861 E0.01675
G1 X215.639 Y48.370 E0.06617
G1 X215.105 Y48.370 E0.01675
G1 X217.130 Y50.395 E0.08985
G1 X217.130 Y50.928 E0.01675
G1 X214.572 Y48.370 E0.11354
G1 X214.038 Y48.370 E0.01675
G1 X217.130 Y51.462 E0.13722
G1 X217.130 Y51.996 E0.01675
G1 X213.504 Y48.370 E0.16090
G1 X212.971 Y48.370 E0.01675
G1 X217.130 Y52.529 E0.18459
G1 X217.130 Y53.063 E0.01675
G1 X212.437 Y48.370 E0.20827
G1 X211.903 Y48.370 E0.01675
G1 X217.130 Y53.597 E0.23196
G1 X217.130 Y54.130 E0.01675
G1 X211.370 Y48.370 E0.25564
G1 X210.836 Y48.370 E0.01675
G1 X217.130 Y54.664 E0.27933
G1 X217.130 Y55.198 E0.01675
G1 X210.302 Y48.370 E0.30301
G1 X209.768 Y48.370 E0.01675
G1 X217.130 Y55.732 E0.32670
G1 X217.130 Y56.265 E0.01675
G1 X209.235 Y48.370 E0.35038
G1 X208.701 Y48.370 E0.01675
G1 X217.130 Y56.799 E0.37407
G1 X217.130 Y57.333 E0.01675
G1 X208.167 Y48.370 E0.39775
G1 X207.634 Y48.370 E0.01675
G1 X217.130 Y57.866 E0.42144
G1 X217.130 Y58.400 E0.01675
G1 X207.100 Y48.370 E0.44512
G1 X206.566 Y48.370 E0.01675
G1 X217.130 Y58.934 E0.46881
G1 X217.130 Y59.468 E0.01675
G1 X206.032 Y48.370 E0.49249
G1 X205.499 Y48.370 E0.01675
G1 X217.130 Y60.001 E0.51618
G1 X217.130 Y60.535 E0.01675
G1 X204.965 Y48.370 E0.53986
G1 X204.431 Y48.370 E0.01675
G1 X217.130 Y61.069 E0.56354
G1 X217.130 Y61.602 E0.01675
G1 X203.898 Y48.370 E0.58723
G1 X203.364 Y48.370 E0.01675
G1 X217.130 Y62.136 E0.61091
G1 X217.130 Y62.670 E0.01675
G1 X202.830 Y48.370 E0.63460
G1 X202.297 Y48.370 E0.01675
G1 X217.130 Y63.203 E0.65828
G1 X217.130 Y63.737 E0.01675
G1 X201.763 Y48.370 E0.68197
G1 X201.229 Y48.370 E0.01675
G1 X217.130 Y64.271 E0.70565
G1 X217.130 Y64.805 E0.01675
G1 X200.695 Y48.370 E0.72934
G1 X200.162 Y48.370 E0.01675
G1 X217.130 Y65.338 E0.75302
G1 X217.130 Y65.872 E0.01675
G1 X199.628 Y48.370 E0.77671
G1 X199.094 Y48.370 E0.01675
G1 X217.130 Y66.406 E0.80039
G1 X217.130 Y66.939 E0.01675
G1 X198.561 Y48.370 E0.82408
G1 X198.027 Y48.370 E0.01675
G1 X217.130 Y67.473 E0.84776
G1 X217.130 Y68.007 E0.01675
G1 X197.493 Y48.370 E0.87145
G1 X196.959 Y48.370 E0.01675
G1 X217.130 Y68.541 E0.89513
G1 X217.130 Y69.074 E0.01675
G1 X196.426 Y48.370 E0.91881
G1 X195.892 Y48.370 E0.01675
G1 X217.130 Y69.608 E0.94250
G1 X217.130 Y70.142 E0.01675
G1 X195.358 Y48.370 E0.96618
G1 X194.825 Y48.370 E0.01675
G1 X217.130 Y70.675 E0.98987
G1 X217.130 Y71.209 E0.01675
G1 X194.291 Y48.370 E1.01355
G1 X193.757 Y48.370 E0.01675
G1 X217.130 Y71.743 E1.03724
G1 X217.130 Y72.276 E0.01675
G1 X193.224 Y48.370 E1.06092
G1 X192.690 Y48.370 E0.01675
G1 X217.130 Y72.810 E1.08461
G1 X217.130 Y73.344 E0.01675
G1 X192.156 Y48.370 E1.10829
M73 Q0 S477
G1 X191.622 Y48.370 E0.01675
G1 X217.130 Y73.878 E1.13198
G1 X217.130 Y74.411 E0.01675
G1 X191.089 Y48.370 E1.15566
G1 X190.555 Y48.370 E0.01675
G1 X217.130 Y74.945 E1.17935
M73 P0 R471
G1 X217.130 Y75.479 E0.01675
G1 X190.021 Y48.370 E1.20303
G1 X189.488 Y48.370 E0.01675
G1 X217.130 Y76.012 E1.22672
G1 X217.130 Y76.546 E0.01675
G1 X188.954 Y48.370 E1.25040
G1 X188.420 Y48.370 E0.01675
G1 X217.130 Y77.080 E1.27409
G1 X217.130 Y77.614 E0.01675
G1 X187.886 Y48.370 E1.29777
G1 X187.353 Y48.370 E0.01675
G1 X217.130 Y78.147 E1.32145
G1 X217.130 Y78.681 E0.01675
G1 X186.819 Y48.370 E1.34514
G1 X186.285 Y48.370 E0.01675
G1 X217.130 Y79.215 E1.36882
G1 X217.130 Y79.748 E0.01675
G1 X185.752 Y48.370 E1.39251
G1 X185.218 Y48.370 E0.01675
G1 X217.130 Y80.282 E1.41619
G1 X217.130 Y80.816 E0.01675
G1 X184.684 Y48.370 E1.43988
G1 X184.151 Y48.370 E0.01675
G1 X217.130 Y81.349 E1.46356
G1 X217.130 Y81.883 E0.01675
G1 X183.617 Y48.370 E1.48725
G1 X183.083 Y48.370 E0.01675
G1 X217.130 Y82.417 E1.51093
G1 X217.130 Y82.951 E0.01675
G1 X182.549 Y48.370 E1.53462
G1 X182.016 Y48.370 E0.01675
G1 X217.130 Y83.484 E1.55830
G1 X217.130 Y84.018 E0.01675
G1 X181.482 Y48.370 E1.58199
G1 X180.948 Y48.370 E0.01675
G1 X217.130 Y84.552 E1.60567
G1 X217.130 Y85.085 E0.01675
G1 X180.415 Y48.370 E1.62936
G1 X179.881 Y48.370 E0.01675
G1 X217.130 Y85.619 E1.65304
G1 X217.130 Y86.153 E0.01675
G1 X179.347 Y48.370 E1.67673
G1 X178.813 Y48.370 E0.01675
G1 X217.130 Y86.687 E1.70041
G1 X217.130 Y87.220 E0.01675
G1 X178.280 Y48.370 E1.72409
M73 Q0 S476
G1 X177.746 Y48.370 E0.01675
G1 X217.130 Y87.754 E1.74778
G1 X217.130 Y88.288 E0.01675
G1 X177.212 Y48.370 E1.77146
M73 P0 R470
G1 X176.679 Y48.370 E0.01675
G1 X217.130 Y88.821 E1.79515
G1 X217.130 Y89.355 E0.01675
G1 X176.145 Y48.370 E1.81883
G1 X175.611 Y48.370 E0.01675
G1 X217.130 Y89.889 E1.84252
G1 X217.130 Y90.422 E0.01675
G1 X175.078 Y48.370 E1.86620
G1 X174.544 Y48.370 E0.01675
G1 X217.130 Y90.956 E1.88989
G1 X217.130 Y91.490 E0.01675
G1 X174.010 Y48.370 E1.91357
G1 X173.476 Y48.370 E0.01675
G1 X217.130 Y92.024 E1.93726
G1 X217.130 Y92.557 E0.01675
G1 X172.943 Y48.370 E1.96094
G1 X172.409 Y48.370 E0.01675
G1 X217.130 Y93.091 E1.98463
G1 X217.130 Y93.625 E0.01675
G1 X171.875 Y48.370 E2.00831
G1 X171.342 Y48.370 E0.01675
G1 X217.130 Y94.158 E2.03200
G1 X217.130 Y94.692 E0.01675
G1 X170.808 Y48.370 E2.05568
G1 X170.274 Y48.370 E0.01675
G1 X217.130 Y95.226 E2.07937
G1 X217.130 Y95.760 E0.01675
G1 X169.740 Y48.370 E2.10305
G1 X169.207 Y48.370 E0.01675
G1 X217.130 Y96.293 E2.12673
G1 X217.130 Y96.827 E0.01675
G1 X168.673 Y48.370 E2.15042
G1 X168.139 Y48.370 E0.01675
G1 X217.130 Y97.361 E2.17410
M73 Q0 S475
G1 X217.130 Y97.894 E0.01675
G1 X167.606 Y48.370 E2.19779
G1 X167.072 Y48.370 E0.01675
G1 X217.130 Y98.428 E2.22147
M73 P0 R469
G1 X217.130 Y98.962 E0.01675
G1 X166.538 Y48.370 E2.24516
G1 X166.005 Y48.370 E0.01675
G1 X217.130 Y99.495 E2.26884
G1 X217.130 Y100.029 E0.01675
G1 X165.471 Y48.370 E2.29253
G1 X164.937 Y48.370 E0.01675
G1 X217.130 Y100.563 E2.31621
G1 X217.130 Y101.097 E0.01675
G1 X164.403 Y48.370 E2.33990
G1 X163.870 Y48.370 E0.01675
G1 X217.130 Y101.630 E2.36358
G1 X217.130 Y102.164 E0.01675
G1 X163.336 Y48.370 E2.38727
G1 X162.802 Y48.370 E0.01675
G1 X217.130 Y102.698 E2.41095
G1 X217.130 Y103.231 E0.01675
G1 X162.269 Y48.370 E2.43464
G1 X161.735 Y48.370 E0.01675
G1 X217.130 Y103.765 E2.45832
G1 X217.130 Y104.299 E0.01675
G1 X161.201 Y48.370 E2.48201
G1 X160.667 Y48.370 E0.01675
G1 X217.130 Y104.833 E2.50569
G1 X217.130 Y105.366 E0.01675
G1 X160.134 Y48.370 E2.52937
G1 X159.600 Y48.370 E0.01675
G1 X217.130 Y105.900 E2.55306
M73 Q1 S474
G1 X217.130 Y106.434 E0.01675
G1 X159.066 Y48.370 E2.57674
G1 X158.533 Y48.370 E0.01675
G1 X217.130 Y106.967 E2.60043
M73 P1 R468
G1 X217.130 Y107.501 E0.01675
G1 X157.999 Y48.370 E2.62411
G1 X157.465 Y48.370 E0.01675
G1 X217.130 Y108.035 E2.64780
G1 X217.130 Y108.568 E0.01675
G1 X156.932 Y48.370 E2.67148
G1 X156.398 Y48.370 E0.01675
G1 X217.130 Y109.102 E2.69517
G1 X217.130 Y109.636 E0.01675
G1 X155.864 Y48.370 E2.71885
G1 X155.330 Y48.370 E0.01675
G1 X217.130 Y110.170 E2.74254
G1 X217.130 Y110.703 E0.01675
G1 X154.797 Y48.370 E2.76622
G1 X154.263 Y48.370 E0.01675
G1 X217.130 Y111.237 E2.78991
G1 X217.130 Y111.771 E0.01675
G1 X153.729 Y48.370 E2.81359
G1 X153.196 Y48.370 E0.01675
G1 X217.130 Y112.304 E2.83728
G1 X217.130 Y112.838 E0.01675
G1 X152.662 Y48.370 E2.86096
G1 X152.128 Y48.370 E0.01675
G1 X217.130 Y113.372 E2.88465
M73 Q1 S473
G1 X217.130 Y113.906 E0.01675
G1 X151.594 Y48.370 E2.90833
G1 X151.061 Y48.370 E0.01675
G1 X217.130 Y114.439 E2.93201
M73 P1 R467
G1 X217.130 Y114.973 E0.01675
G1 X150.527 Y48.370 E2.95570
G1 X149.993 Y48.370 E0.01675
G1 X217.130 Y115.507 E2.97938
G1 X217.130 Y116.040 E0.01675
G1 X149.460 Y48.370 E3.00307
G1 X148.926 Y48.370 E0.01675
G1 X217.130 Y116.574 E3.02675
G1 X217.130 Y117.108 E0.01675
G1 X148.392 Y48.370 E3.05044
G1 X147.859 Y48.370 E0.01675
G1 X217.130 Y117.641 E3.07412
G1 X217.130 Y118.175 E0.01675
G1 X147.325 Y48.370 E3.09781
G1 X146.791 Y48.370 E0.01675
G1 X217.130 Y118.709 E3.12149
G1 X217.130 Y119.243 E0.01675
G1 X146.257 Y48.370 E3.14518
G1 X145.724 Y48.370 E0.01675
G1 X217.130 Y119.776 E3.16886
G1 X217.130 Y120.310 E0.01675
G1 X145.190 Y48.370 E3.19255
M73 Q1 S472
G1 X144.656 Y48.370 E0.01675
G1 X217.130 Y120.844 E3.21623
G1 X217.130 Y121.377 E0.01675
G1 X144.123 Y48.370 E3.23992
M73 P1 R466
G1 X143.589 Y48.370 E0.01675
G1 X217.130 Y121.911 E3.26360
G1 X217.130 Y122.445 E0.01675
G1 X143.055 Y48.370 E3.28728
G1 X142.521 Y48.370 E0.01675
G1 X217.130 Y122.979 E3.31097
G1 X217.130 Y123.512 E0.01675
G1 X141.988 Y48.370 E3.33465
G1 X141.454 Y48.370 E0.01675
G1 X217.130 Y124.046 E3.35834
G1 X217.130 Y124.580 E0.01675
G1 X140.920 Y48.370 E3.38202
G1 X140.387 Y48.370 E0.01675
G1 X217.130 Y125.113 E3.40571
G1 X217.130 Y125.647 E0.01675
G1 X139.853 Y48.370 E3.42939
G1 X139.319 Y48.370 E0.01675
G1 X217.130 Y126.181 E3.45308
G1 X217.130 Y126.714 E0.01675
G1 X138.786 Y48.370 E3.47676
M73 Q1 S471
G1 X138.252 Y48.370 E0.01675
G1 X217.130 Y127.248 E3.50045
G1 X217.130 Y127.782 E0.01675
G1 X137.718 Y48.370 E3.52413
M73 P1 R464
G1 X137.184 Y48.370 E0.01675
G1 X217.130 Y128.316 E3.54782
G1 X217.130 Y128.849 E0.01675
G1 X136.651 Y48.370 E3.57150
G1 X136.117 Y48.370 E0.01675
G1 X217.130 Y129.383 E3.59519
G1 X217.130 Y129.917 E0.01675
G1 X135.583 Y48.370 E3.61887
G1 X135.050 Y48.370 E0.01675
G1 X217.130 Y130.450 E3.64256
G1 X217.130 Y130.984 E0.01675
G1 X134.516 Y48.370 E3.66624
G1 X133.982 Y48.370 E0.01675
G1 X217.130 Y131.518 E3.68992
G1 X217.130 Y132.052 E0.01675
G1 X133.448 Y48.370 E3.71361
G1 X132.915 Y48.370 E0.01675
G1 X217.130 Y132.585 E3.73729
M73 Q1 S469
G1 X217.130 Y133.119 E0.01675
G1 X132.381 Y48.370 E3.76098
G1 X131.847 Y48.370 E0.01675
G1 X217.130 Y133.653 E3.78466
M73 P2 R463
G1 X217.130 Y134.186 E0.01675
G1 X131.314 Y48.370 E3.80835
G1 X130.780 Y48.370 E0.01675
G1 X217.130 Y134.720 E3.83203
G1 X217.130 Y135.254 E0.01675
G1 X130.246 Y48.370 E3.85572
G1 X129.713 Y48.370 E0.01675
G1 X217.130 Y135.787 E3.87940
G1 X217.130 Y136.321 E0.01675
G1 X129.179 Y48.370 E3.90309
G1 X128.870 Y48.370 E0.00970
G1 X128.870 Y48.595 E0.00705
G1 X217.130 Y136.855 E3.91680
G1 X217.130 Y137.389 E0.01675
G1 X128.870 Y49.128 E3.91680
G1 X128.870 Y49.662 E0.01675
G1 X217.130 Y137.922 E3.91680
M73 Q2 S468
G1 X217.130 Y138.456 E0.01675
G1 X128.870 Y50.196 E3.91680
G1 X128.870 Y50.729 E0.01675
G1 X217.130 Y138.990 E3.91680
M73 P2 R462
G1 X217.130 Y139.523 E0.01675
G1 X128.870 Y51.263 E3.91680
G1 X128.870 Y51.797 E0.01675
G1 X217.130 Y140.057 E3.91680
G1 X217.130 Y140.591 E0.01675
G1 X128.870 Y52.331 E3.91680
G1 X128.870 Y52.864 E0.01675
G1 X217.130 Y141.125 E3.91680
G1 X217.130 Y141.658 E0.01675
G1 X128.870 Y53.398 E3.91680
G1 X128.870 Y53.932 E0.01675
G1 X217.130 Y142.192 E3.91680
G1 X217.130 Y142.726 E0.01675
G1 X128.870 Y54.465 E3.91680
G1 X128.870 Y54.999 E0.01675
G1 X217.130 Y143.259 E3.91680
M73 Q2 S467
G1 X217.130 Y143.793 E0.01675
G1 X128.870 Y55.533 E3.91680
G1 X128.870 Y56.066 E0.01675
G1 X217.130 Y144.327 E3.91680
M73 P2 R461
G1 X217.130 Y144.860 E0.01675
G1 X128.870 Y56.600 E3.91680
G1 X128.870 Y57.134 E0.01675
G1 X217.130 Y145.394 E3.91680
G1 X217.130 Y145.928 E0.01675
G1 X128.870 Y57.668 E3.91680
G1 X128.870 Y58.201 E0.01675
G1 X217.130 Y146.462 E3.91680
G1 X217.130 Y146.995 E0.01675
G1 X128.870 Y58.735 E3.91680
G1 X128.870 Y59.269 E0.01675
G1 X217.130 Y147.529 E3.91680
G1 X217.130 Y148.063 E0.01675
G1 X128.870 Y59.802 E3.91680
G1 X128.870 Y60.336 E0.01675
G1 X217.130 Y148.596 E3.91680
M73 Q2 S466
G1 X217.130 Y149.130 E0.01675
G1 X128.870 Y60.870 E3.91680
G1 X128.870 Y61.404 E0.01675
G1 X217.130 Y149.664 E3.91680
M73 P2 R460
G1 X217.130 Y150.198 E0.01675
G1 X128.870 Y61.937 E3.91680
G1 X128.870 Y62.471 E0.01675
G1 X217.130 Y150.731 E3.91680
G1 X217.130 Y151.265 E0.01675
G1 X128.870 Y63.005 E3.91680
G1 X128.870 Y63.538 E0.01675
G1 X217.130 Y151.799 E3.91680
G1 X217.130 Y152.332 E0.01675
G1 X128.870 Y64.072 E3.91680
G1 X128.870 Y64.606 E0.01675
G1 X217.130 Y152.866 E3.91680
G1 X217.130 Y153.400 E0.01675
G1 X128.870 Y65.139 E3.91680
G1 X128.870 Y65.673 E0.01675
G1 X217.130 Y153.933 E3.91680
M73 Q2 S465
G1 X217.130 Y154.467 E0.01675
G1 X128.870 Y66.207 E3.91680
G1 X128.870 Y66.741 E0.01675
G1 X217.130 Y155.001 E3.91680
M73 P2 R459
G1 X217.130 Y155.535 E0.01675
G1 X128.870 Y67.274 E3.91680
G1 X128.870 Y67.808 E0.01675
G1 X217.130 Y156.068 E3.91680
G1 X217.130 Y156.602 E0.01675
G1 X128.870 Y68.342 E3.91680
G1 X128.870 Y68.875 E0.01675
G1 X217.130 Y157.136 E3.91680
G1 X217.130 Y157.669 E0.01675
G1 X128.870 Y69.409 E3.91680
G1 X128.870 Y69.943 E0.01675
G1 X217.130 Y158.203 E3.91680
G1 X217.130 Y158.737 E0.01675
G1 X128.870 Y70.477 E3.91680
G1 X128.870 Y71.010 E0.01675
G1 X217.130 Y159.271 E3.91680
M73 Q3 S464
G1 X217.130 Y159.804 E0.01675
G1 X128.870 Y71.544 E3.91680
G1 X128.870 Y72.078 E0.01675
G1 X217.130 Y160.338 E3.91680
M73 P3 R458
G1 X217.130 Y160.872 E0.01675
G1 X128.870 Y72.611 E3.91680
G1 X128.870 Y73.145 E0.01675
G1 X217.130 Y161.405 E3.91680
G1 X217.130 Y161.630 E0.00705
G1 X216.821 Y161.630 E0.00969
G1 X128.870 Y73.679 E3.90309
G1 X128.870 Y74.212 E0.01675
G1 X216.288 Y161.630 E3.87940
G1 X215.754 Y161.630 E0.01675
G1 X128.870 Y74.746 E3.85572
G1 X128.870 Y75.280 E0.01675
G1 X215.220 Y161.630 E3.83204
G1 X214.686 Y161.630 E0.01675
G1 X128.870 Y75.814 E3.80835
G1 X128.870 Y76.347 E0.01675
G1 X214.153 Y161.630 E3.78467
M73 Q3 S463
