; generated by Slic3r Prusa Edition 1.41.0+ on 2018-11-11 at 18:22:27

; 

; external perimeters extrusion width = 0.45mm
; perimeters extrusion width = 0.45mm
; infill extrusion width = 0.45mm
; solid infill extrusion width = 0.45mm
; top infill extrusion width = 0.40mm
; first layer extrusion width = 0.42mm

M201 X1000 Y1000 Z1000 E5000 ; sets maximum accelerations, mm/sec^2
M203 X200 Y200 Z12 E120 ; sets maximum feedrates, mm/sec
M204 P1250 R1250 T1250 ; sets acceleration (P, T) and retract acceleration (R), mm/sec^2
M205 X8.00 Y8.00 Z0.40 E1.50 ; sets the jerk limits, mm/sec
M205 S0 T0 ; sets the minimum extruding and travel feed rate, mm/sec
M107
M115 U3.4.1 ; tell printer latest fw version
M83  ; extruder relative mode
M104 S215 ; set extruder temp
M140 S60 ; set bed temp
M190 S60 ; wait for bed temp
M109 S215 ; wait for extruder temp
G28 W ; home all without mesh bed level
G80 ; mesh bed leveling
G1 Y-3.0 F1000.0 ; go outside print area
G92 E0.0
G1 X60.0 E9.0  F1000.0 ; intro line
M73 Q0 S296
M73 P0 R294
G1 X100.0 E12.5  F1000.0 ; intro line
G92 E0.0
M221 S95
M900 K30; Filament gcode
G21 ; set units to millimeters
G90 ; use absolute coordinates
M83 ; use relative distances for extrusion
;BEFORE_LAYER_CHANGE
G92 E0.0
;0.2


G1 E-0.80000 F2100.00000
G1 Z0.600 F10800.000
;AFTER_LAYER_CHANGE
;0.2
G1 X100.423 Y37.810
G1 Z0.200
G1 E0.80000 F2100.00000
M204 S1000
G1 F1200
G1 X100.725 Y37.220 E0.02078
G1 X101.192 Y36.745 E0.02089
G1 X101.777 Y36.434 E0.02078
G1 X102.432 Y36.313 E0.02089
G1 X147.504 Y36.311 E1.41319
G1 X148.330 Y36.475 E0.02642
G1 X149.037 Y36.941 E0.02653
G1 X149.512 Y37.637 E0.02642
G1 X149.688 Y38.465 E0.02653
G1 X149.688 Y171.500 E4.17122
G1 X149.577 Y172.190 E0.02191
G1 X149.275 Y172.780 E0.02078
G1 X148.808 Y173.255 E0.02089
G1 X148.219 Y173.567 E0.02089
G1 X147.564 Y173.688 E0.02089
G1 X102.496 Y173.689 E1.41307
G1 X101.810 Y173.577 E0.02179
G1 X101.211 Y173.269 E0.02112
G1 X100.732 Y172.790 E0.02123
G1 X100.423 Y172.192 E0.02112
G1 X100.311 Y171.524 E0.02123
G1 X100.312 Y38.500 E4.17088
G1 X100.414 Y37.869 E0.02003
; PURGING FINISHED
G1 F8640
G1 X100.725 Y37.220 E-0.16624
G1 X101.192 Y36.745 E-0.15384
G1 X101.777 Y36.434 E-0.15300
G1 X102.432 Y36.313 E-0.15384
G1 X103.009 Y36.313 E-0.13309
G1 E-0.04000 F2100.00000
G1 Z0.800 F10800.000
G1 X103.087 Y108.587
G1 Z0.200
G1 E0.80000 F2100.00000
G1 F1200
G1 X146.913 Y108.587 E1.37413
G1 X146.913 Y136.163 E0.86462
G1 X103.087 Y136.163 E1.37413
G1 X103.087 Y108.647 E0.86274
G1 X102.710 Y108.210 F10800.000
G1 F1200
G1 X147.290 Y108.210 E1.39777
G1 X147.290 Y136.540 E0.88827
G1 X102.710 Y136.540 E1.39777
G1 X102.710 Y108.270 E0.88639
G1 X103.103 Y108.285 F10800.000
G1 F8640
G1 X106.001 Y108.266 E-0.76000
G1 E-0.04000 F2100.00000
G1 Z0.800 F10800.000
G1 X103.200 Y135.287
G1 Z0.200
G1 E0.80000 F2100.00000
G1 F1200
G1 X103.794 Y135.880 E0.02636
G1 X104.328 Y135.880 E0.01677
G1 X103.370 Y134.922 E0.04254
G1 X103.370 Y134.388 E0.01677
G1 X104.862 Y135.880 E0.06625
G1 X105.396 Y135.880 E0.01677
G1 X103.370 Y133.854 E0.08996
G1 X103.370 Y133.320 E0.01677
G1 X105.930 Y135.880 E0.11368
G1 X106.464 Y135.880 E0.01677
G1 X103.370 Y132.786 E0.13739
G1 X103.370 Y132.252 E0.01677
G1 X106.998 Y135.880 E0.16110
G1 X107.532 Y135.880 E0.01677
G1 X103.370 Y131.718 E0.18481
G1 X103.370 Y131.184 E0.01677
G1 X108.066 Y135.880 E0.20853
G1 X108.600 Y135.880 E0.01677
G1 X103.370 Y130.650 E0.23224
G1 X103.370 Y130.116 E0.01677
G1 X109.134 Y135.880 E0.25595
G1 X109.668 Y135.880 E0.01677
G1 X103.370 Y129.582 E0.27966
G1 X103.370 Y129.048 E0.01677
G1 X110.202 Y135.880 E0.30338
G1 X110.736 Y135.880 E0.01677
G1 X103.370 Y128.514 E0.32709
G1 X103.370 Y127.980 E0.01677
G1 X111.270 Y135.880 E0.35080
G1 X111.804 Y135.880 E0.01677
G1 X103.370 Y127.446 E0.37451
G1 X103.370 Y126.912 E0.01677
G1 X112.338 Y135.880 E0.39823
G1 X112.872 Y135.880 E0.01677
G1 X103.370 Y126.378 E0.42194
G1 X103.370 Y125.844 E0.01677
G1 X113.406 Y135.880 E0.44565
G1 X113.940 Y135.880 E0.01677
G1 X103.370 Y125.310 E0.46936
G1 X103.370 Y124.776 E0.01677
G1 X114.474 Y135.880 E0.49308
G1 X115.008 Y135.880 E0.01677
G1 X103.370 Y124.242 E0.51679
G1 X103.370 Y123.708 E0.01677
G1 X115.542 Y135.880 E0.54050
G1 X116.076 Y135.880 E0.01677
G1 X103.370 Y123.174 E0.56421
G1 X103.370 Y122.640 E0.01677
G1 X116.610 Y135.880 E0.58793
G1 X117.144 Y135.880 E0.01677
G1 X103.370 Y122.106 E0.61164
G1 X103.370 Y121.572 E0.01677
G1 X117.678 Y135.880 E0.63535
G1 X118.212 Y135.880 E0.01677
G1 X103.370 Y121.038 E0.65906
G1 X103.370 Y120.504 E0.01677
G1 X118.746 Y135.880 E0.68278
G1 X119.280 Y135.880 E0.01677
G1 X103.370 Y119.970 E0.70649
G1 X103.370 Y119.436 E0.01677
G1 X119.814 Y135.880 E0.73020
G1 X120.348 Y135.880 E0.01677
G1 X103.370 Y118.902 E0.75391
G1 X103.370 Y118.368 E0.01677
G1 X120.882 Y135.880 E0.77763
M73 Q0 S295
G1 X121.416 Y135.880 E0.01677
G1 X103.370 Y117.834 E0.80134
M73 P0 R293
G1 X103.370 Y117.300 E0.01677
G1 X121.950 Y135.880 E0.82505
G1 X122.484 Y135.880 E0.01677
G1 X103.370 Y116.765 E0.84876
G1 X103.370 Y116.231 E0.01677
G1 X123.018 Y135.880 E0.87248
G1 X123.552 Y135.880 E0.01677
G1 X103.370 Y115.697 E0.89619
G1 X103.370 Y115.163 E0.01677
G1 X124.086 Y135.880 E0.91990
G1 X124.620 Y135.880 E0.01677
G1 X103.370 Y114.629 E0.94362
G1 X103.370 Y114.095 E0.01677
G1 X125.154 Y135.880 E0.96733
G1 X125.688 Y135.880 E0.01677
G1 X103.370 Y113.561 E0.99104
G1 X103.370 Y113.027 E0.01677
G1 X126.222 Y135.880 E1.01475
G1 X126.756 Y135.880 E0.01677
G1 X103.370 Y112.493 E1.03847
G1 X103.370 Y111.959 E0.01677
G1 X127.291 Y135.880 E1.06218
G1 X127.825 Y135.880 E0.01677
G1 X103.370 Y111.425 E1.08589
G1 X103.370 Y110.891 E0.01677
G1 X128.359 Y135.880 E1.10960
G1 X128.893 Y135.880 E0.01677
G1 X103.370 Y110.357 E1.13332
G1 X103.370 Y109.823 E0.01677
G1 X129.427 Y135.880 E1.15703
G1 X129.961 Y135.880 E0.01677
G1 X103.370 Y109.289 E1.18074
G1 X103.370 Y108.870 E0.01317
G1 X103.484 Y108.870 E0.00360
G1 X130.495 Y135.880 E1.19936
G1 X131.029 Y135.880 E0.01677
G1 X104.018 Y108.870 E1.19936
G1 X104.552 Y108.870 E0.01677
G1 X131.563 Y135.880 E1.19936
G1 X132.097 Y135.880 E0.01677
G1 X105.086 Y108.870 E1.19936
G1 X105.620 Y108.870 E0.01677
G1 X132.631 Y135.880 E1.19936
G1 X133.165 Y135.880 E0.01677
G1 X106.154 Y108.870 E1.19936
G1 X106.688 Y108.870 E0.01677
G1 X133.699 Y135.880 E1.19936
G1 X134.233 Y135.880 E0.01677
G1 X107.223 Y108.870 E1.19936
G1 X107.757 Y108.870 E0.01677
G1 X134.767 Y135.880 E1.19936
G1 X135.301 Y135.880 E0.01677
G1 X108.291 Y108.870 E1.19936
G1 X108.825 Y108.870 E0.01677
G1 X135.835 Y135.880 E1.19936
G1 X136.369 Y135.880 E0.01677
G1 X109.359 Y108.870 E1.19936
G1 X109.893 Y108.870 E0.01677
G1 X136.903 Y135.880 E1.19936
G1 X137.437 Y135.880 E0.01677
G1 X110.427 Y108.870 E1.19936
G1 X110.961 Y108.870 E0.01677
G1 X137.971 Y135.880 E1.19936
G1 X138.505 Y135.880 E0.01677
G1 X111.495 Y108.870 E1.19936
G1 X112.029 Y108.870 E0.01677
G1 X139.039 Y135.880 E1.19936
M73 Q0 S294
G1 X139.573 Y135.880 E0.01677
G1 X112.563 Y108.870 E1.19936
M73 P0 R292
G1 X113.097 Y108.870 E0.01677
G1 X140.107 Y135.880 E1.19936
G1 X140.641 Y135.880 E0.01677
G1 X113.631 Y108.870 E1.19936
G1 X114.165 Y108.870 E0.01677
G1 X141.175 Y135.880 E1.19936
G1 X141.709 Y135.880 E0.01677
G1 X114.699 Y108.870 E1.19936
G1 X115.233 Y108.870 E0.01677
G1 X142.243 Y135.880 E1.19936
G1 X142.777 Y135.880 E0.01677
G1 X115.767 Y108.870 E1.19936
G1 X116.301 Y108.870 E0.01677
G1 X143.311 Y135.880 E1.19936
G1 X143.845 Y135.880 E0.01677
G1 X116.835 Y108.870 E1.19936
G1 X117.369 Y108.870 E0.01677
G1 X144.379 Y135.880 E1.19936
G1 X144.913 Y135.880 E0.01677
G1 X117.903 Y108.870 E1.19936
G1 X118.437 Y108.870 E0.01677
G1 X145.447 Y135.880 E1.19936
G1 X145.981 Y135.880 E0.01677
G1 X118.971 Y108.870 E1.19936
G1 X119.505 Y108.870 E0.01677
G1 X146.515 Y135.880 E1.19936
G1 X146.630 Y135.880 E0.00360
G1 X146.630 Y135.461 E0.01316
G1 X120.039 Y108.870 E1.18074
G1 X120.573 Y108.870 E0.01677
G1 X146.630 Y134.927 E1.15703
G1 X146.630 Y134.393 E0.01677
G1 X121.107 Y108.870 E1.13332
G1 X121.641 Y108.870 E0.01677
G1 X146.630 Y133.859 E1.10961
G1 X146.630 Y133.325 E0.01677
G1 X122.175 Y108.870 E1.08589
G1 X122.709 Y108.870 E0.01677
G1 X146.630 Y132.791 E1.06218
G1 X146.630 Y132.257 E0.01677
G1 X123.243 Y108.870 E1.03847
G1 X123.777 Y108.870 E0.01677
G1 X146.630 Y131.723 E1.01476
G1 X146.630 Y131.189 E0.01677
G1 X124.311 Y108.870 E0.99104
G1 X124.845 Y108.870 E0.01677
G1 X146.630 Y130.655 E0.96733
G1 X146.630 Y130.121 E0.01677
G1 X125.379 Y108.870 E0.94362
G1 X125.913 Y108.870 E0.01677
G1 X146.630 Y129.587 E0.91991
G1 X146.630 Y129.053 E0.01677
G1 X126.447 Y108.870 E0.89619
G1 X126.981 Y108.870 E0.01677
G1 X146.630 Y128.519 E0.87248
G1 X146.630 Y127.985 E0.01677
G1 X127.515 Y108.870 E0.84877
G1 X128.049 Y108.870 E0.01677
G1 X146.630 Y127.451 E0.82506
G1 X146.630 Y126.917 E0.01677
G1 X128.583 Y108.870 E0.80134
G1 X129.117 Y108.870 E0.01677
G1 X146.630 Y126.383 E0.77763
G1 X146.630 Y125.849 E0.01677
G1 X129.651 Y108.870 E0.75392
G1 X130.185 Y108.870 E0.01677
G1 X146.630 Y125.314 E0.73021
G1 X146.630 Y124.780 E0.01677
G1 X130.719 Y108.870 E0.70649
G1 X131.253 Y108.870 E0.01677
G1 X146.630 Y124.246 E0.68278
M73 Q1 S293
G1 X146.630 Y123.712 E0.01677
G1 X131.787 Y108.870 E0.65907
G1 X132.321 Y108.870 E0.01677
G1 X146.630 Y123.178 E0.63536
M73 P1 R291
G1 X146.630 Y122.644 E0.01677
G1 X132.855 Y108.870 E0.61164
G1 X133.389 Y108.870 E0.01677
G1 X146.630 Y122.110 E0.58793
G1 X146.630 Y121.576 E0.01677
G1 X133.923 Y108.870 E0.56422
G1 X134.458 Y108.870 E0.01677
G1 X146.630 Y121.042 E0.54050
G1 X146.630 Y120.508 E0.01677
G1 X134.992 Y108.870 E0.51679
G1 X135.526 Y108.870 E0.01677
G1 X146.630 Y119.974 E0.49308
G1 X146.630 Y119.440 E0.01677
G1 X136.060 Y108.870 E0.46937
G1 X136.594 Y108.870 E0.01677
G1 X146.630 Y118.906 E0.44565
G1 X146.630 Y118.372 E0.01677
G1 X137.128 Y108.870 E0.42194
G1 X137.662 Y108.870 E0.01677
G1 X146.630 Y117.838 E0.39823
G1 X146.630 Y117.304 E0.01677
G1 X138.196 Y108.870 E0.37452
G1 X138.730 Y108.870 E0.01677
G1 X146.630 Y116.770 E0.35080
G1 X146.630 Y116.236 E0.01677
G1 X139.264 Y108.870 E0.32709
G1 X139.798 Y108.870 E0.01677
G1 X146.630 Y115.702 E0.30338
G1 X146.630 Y115.168 E0.01677
G1 X140.332 Y108.870 E0.27967
G1 X140.866 Y108.870 E0.01677
G1 X146.630 Y114.634 E0.25595
G1 X146.630 Y114.100 E0.01677
G1 X141.400 Y108.870 E0.23224
G1 X141.934 Y108.870 E0.01677
G1 X146.630 Y113.566 E0.20853
G1 X146.630 Y113.032 E0.01677
G1 X142.468 Y108.870 E0.18482
G1 X143.002 Y108.870 E0.01677
G1 X146.630 Y112.498 E0.16110
G1 X146.630 Y111.964 E0.01677
G1 X143.536 Y108.870 E0.13739
G1 X144.070 Y108.870 E0.01677
G1 X146.630 Y111.430 E0.11368
G1 X146.630 Y110.896 E0.01677
G1 X144.604 Y108.870 E0.08997
G1 X145.138 Y108.870 E0.01677
G1 X146.630 Y110.362 E0.06625
G1 X146.630 Y109.828 E0.01677
G1 X145.672 Y108.870 E0.04254
G1 X146.206 Y108.870 E0.01677
G1 X146.800 Y109.464 E0.02636
G1 F8640
G1 X146.206 Y108.870 E-0.19387
G1 X145.672 Y108.870 E-0.12331
G1 X146.630 Y109.828 E-0.31284
G1 X146.630 Y110.362 E-0.12331
G1 X146.610 Y110.342 E-0.00667
G1 E-0.04000 F2100.00000
G1 Z0.800 F10800.000
G1 X146.800 Y101.413
G1 Z0.200
G1 E0.80000 F2100.00000
G1 F1200
G1 X103.087 Y101.413 E1.37058
G1 X103.087 Y73.837 E0.86462
G1 X146.913 Y73.837 E1.37413
G1 X146.913 Y101.413 E0.86462
G1 X146.860 Y101.413 E0.00166
G1 X147.290 Y101.790 F10800.000
G1 F1200
G1 X102.710 Y101.790 E1.39777
G1 X102.710 Y73.460 E0.88827
G1 X147.290 Y73.460 E1.39777
G1 X147.290 Y101.730 E0.88639
G1 X146.897 Y101.715 F10800.000
G1 F8640
G1 X143.998 Y101.734 E-0.76000
G1 E-0.04000 F2100.00000
G1 Z0.800 F10800.000
G1 X146.800 Y74.714
G1 Z0.200
G1 E0.80000 F2100.00000
G1 F1200
G1 X146.206 Y74.120 E0.02636
G1 X145.672 Y74.120 E0.01677
G1 X146.630 Y75.078 E0.04254
G1 X146.630 Y75.612 E0.01677
G1 X145.138 Y74.120 E0.06625
G1 X144.604 Y74.120 E0.01677
G1 X146.630 Y76.146 E0.08997
G1 X146.630 Y76.680 E0.01677
G1 X144.070 Y74.120 E0.11368
G1 X143.536 Y74.120 E0.01677
G1 X146.630 Y77.214 E0.13739
G1 X146.630 Y77.748 E0.01677
G1 X143.002 Y74.120 E0.16110
G1 X142.468 Y74.120 E0.01677
G1 X146.630 Y78.282 E0.18482
G1 X146.630 Y78.816 E0.01677
G1 X141.934 Y74.120 E0.20853
G1 X141.400 Y74.120 E0.01677
G1 X146.630 Y79.350 E0.23224
G1 X146.630 Y79.884 E0.01677
G1 X140.866 Y74.120 E0.25595
G1 X140.332 Y74.120 E0.01677
G1 X146.630 Y80.418 E0.27967
G1 X146.630 Y80.952 E0.01677
G1 X139.798 Y74.120 E0.30338
G1 X139.264 Y74.120 E0.01677
G1 X146.630 Y81.486 E0.32709
G1 X146.630 Y82.020 E0.01677
G1 X138.730 Y74.120 E0.35080
G1 X138.196 Y74.120 E0.01677
G1 X146.630 Y82.554 E0.37452
G1 X146.630 Y83.088 E0.01677
G1 X137.662 Y74.120 E0.39823
G1 X137.128 Y74.120 E0.01677
G1 X146.630 Y83.622 E0.42194
G1 X146.630 Y84.156 E0.01677
G1 X136.594 Y74.120 E0.44565
G1 X136.060 Y74.120 E0.01677
G1 X146.630 Y84.690 E0.46937
G1 X146.630 Y85.224 E0.01677
G1 X135.526 Y74.120 E0.49308
G1 X134.991 Y74.120 E0.01677
G1 X146.630 Y85.758 E0.51679
G1 X146.630 Y86.292 E0.01677
G1 X134.457 Y74.120 E0.54050
G1 X133.923 Y74.120 E0.01677
G1 X146.630 Y86.826 E0.56422
G1 X146.630 Y87.360 E0.01677
G1 X133.389 Y74.120 E0.58793
G1 X132.855 Y74.120 E0.01677
G1 X146.630 Y87.894 E0.61164
G1 X146.630 Y88.428 E0.01677
G1 X132.321 Y74.120 E0.63536
G1 X131.787 Y74.120 E0.01677
G1 X146.630 Y88.962 E0.65907
G1 X146.630 Y89.496 E0.01677
G1 X131.253 Y74.120 E0.68278
G1 X130.719 Y74.120 E0.01677
G1 X146.630 Y90.030 E0.70649
G1 X146.630 Y90.564 E0.01677
G1 X130.185 Y74.120 E0.73021
G1 X129.651 Y74.120 E0.01677
G1 X146.630 Y91.099 E0.75392
G1 X146.630 Y91.633 E0.01677
G1 X129.117 Y74.120 E0.77763
G1 X128.583 Y74.120 E0.01677
G1 X146.630 Y92.167 E0.80134
G1 X146.630 Y92.701 E0.01677
G1 X128.049 Y74.120 E0.82506
G1 X127.515 Y74.120 E0.01677
G1 X146.630 Y93.235 E0.84877
G1 X146.630 Y93.769 E0.01677
G1 X126.981 Y74.120 E0.87248
G1 X126.447 Y74.120 E0.01677
G1 X146.630 Y94.303 E0.89619
M73 Q1 S292
G1 X146.630 Y94.837 E0.01677
G1 X125.913 Y74.120 E0.91991
M73 P1 R290
G1 X125.379 Y74.120 E0.01677
G1 X146.630 Y95.371 E0.94362
G1 X146.630 Y95.905 E0.01677
G1 X124.845 Y74.120 E0.96733
G1 X124.311 Y74.120 E0.01677
G1 X146.630 Y96.439 E0.99104
G1 X146.630 Y96.973 E0.01677
G1 X123.777 Y74.120 E1.01476
G1 X123.243 Y74.120 E0.01677
G1 X146.630 Y97.507 E1.03847
G1 X146.630 Y98.041 E0.01677
G1 X122.709 Y74.120 E1.06218
G1 X122.175 Y74.120 E0.01677
G1 X146.630 Y98.575 E1.08589
G1 X146.630 Y99.109 E0.01677
G1 X121.641 Y74.120 E1.10961
G1 X121.107 Y74.120 E0.01677
G1 X146.630 Y99.643 E1.13332
G1 X146.630 Y100.177 E0.01677
G1 X120.573 Y74.120 E1.15703
G1 X120.039 Y74.120 E0.01677
G1 X146.630 Y100.711 E1.18074
G1 X146.630 Y101.130 E0.01316
G1 X146.515 Y101.130 E0.00360
G1 X119.505 Y74.120 E1.19936
G1 X118.971 Y74.120 E0.01677
G1 X145.981 Y101.130 E1.19936
G1 X145.447 Y101.130 E0.01677
G1 X118.437 Y74.120 E1.19936
G1 X117.903 Y74.120 E0.01677
G1 X144.913 Y101.130 E1.19936
G1 X144.379 Y101.130 E0.01677
G1 X117.369 Y74.120 E1.19936
G1 X116.835 Y74.120 E0.01677
G1 X143.845 Y101.130 E1.19936
G1 X143.311 Y101.130 E0.01677
G1 X116.301 Y74.120 E1.19936
G1 X115.767 Y74.120 E0.01677
G1 X142.777 Y101.130 E1.19936
G1 X142.243 Y101.130 E0.01677
G1 X115.233 Y74.120 E1.19936
G1 X114.699 Y74.120 E0.01677
G1 X141.709 Y101.130 E1.19936
G1 X141.175 Y101.130 E0.01677
G1 X114.165 Y74.120 E1.19936
G1 X113.631 Y74.120 E0.01677
G1 X140.641 Y101.130 E1.19936
G1 X140.107 Y101.130 E0.01677
G1 X113.097 Y74.120 E1.19936
G1 X112.563 Y74.120 E0.01677
G1 X139.573 Y101.130 E1.19936
G1 X139.039 Y101.130 E0.01677
G1 X112.029 Y74.120 E1.19936
G1 X111.495 Y74.120 E0.01677
G1 X138.505 Y101.130 E1.19936
G1 X137.971 Y101.130 E0.01677
G1 X110.961 Y74.120 E1.19936
G1 X110.427 Y74.120 E0.01677
G1 X137.437 Y101.130 E1.19936
G1 X136.903 Y101.130 E0.01677
G1 X109.893 Y74.120 E1.19936
G1 X109.359 Y74.120 E0.01677
G1 X136.369 Y101.130 E1.19936
G1 X135.835 Y101.130 E0.01677
G1 X108.825 Y74.120 E1.19936
M73 Q1 S291
G1 X108.291 Y74.120 E0.01677
G1 X135.301 Y101.130 E1.19936
M73 P1 R289
G1 X134.767 Y101.130 E0.01677
G1 X107.756 Y74.120 E1.19936
G1 X107.222 Y74.120 E0.01677
G1 X134.233 Y101.130 E1.19936
G1 X133.699 Y101.130 E0.01677
G1 X106.688 Y74.120 E1.19936
