; generated by Slic3r Prusa Edition 1.41.0+ on 2018-11-24 at 11:06:31

; 

; external perimeters extrusion width = 0.45mm
; perimeters extrusion width = 0.45mm
; infill extrusion width = 0.45mm
; solid infill extrusion width = 0.45mm
; top infill extrusion width = 0.40mm
; first layer extrusion width = 0.42mm

M201 X1000 Y1000 Z1000 E5000 ; sets maximum accelerations, mm/sec^2
M203 X200 Y200 Z12 E120 ; sets maximum feedrates, mm/sec
M204 P1250 R1250 T1250 ; sets acceleration (P, T) and retract acceleration (R), mm/sec^2
M205 X8.00 Y8.00 Z0.40 E1.50 ; sets the jerk limits, mm/sec
M205 S0 T0 ; sets the minimum extruding and travel feed rate, mm/sec
M107
M115 U3.4.1 ; tell printer latest fw version
M83  ; extruder relative mode
M104 S220 ; set extruder temp
M140 S60 ; set bed temp
M190 S60 ; wait for bed temp
M109 S220 ; wait for extruder temp
G28 W ; home all without mesh bed level
G80 ; mesh bed leveling
G1 Y-3.0 F1000.0 ; go outside print area
G92 E0.0
G1 X60.0 E9.0  F1000.0 ; intro line
M73 Q0 S113
M73 P0 R113
G1 X100.0 E12.5  F1000.0 ; intro line
G92 E0.0
M221 S95
M900 K30; Filament gcode
G21 ; set units to millimeters
G90 ; use absolute coordinates
M83 ; use relative distances for extrusion
;BEFORE_LAYER_CHANGE
G92 E0.0
;0.2


G1 E-0.80000 F2100.00000
G1 Z0.600 F10800.000
;AFTER_LAYER_CHANGE
;0.2
G1 X79.045 Y69.995
G1 Z0.200
G1 E0.80000 F2100.00000
M204 S1000
G1 F1200
G1 X79.477 Y69.263 E0.02664
G1 X102.078 Y44.231 E1.05745
G1 X102.454 Y43.901 E0.01567
G1 X102.897 Y43.664 E0.01578
G1 X103.693 Y43.511 E0.02541
G1 X146.304 Y43.511 E1.33602
G1 X147.184 Y43.698 E0.02822
G1 X147.915 Y44.223 E0.02822
G1 X170.160 Y69.184 E1.04833
G1 X170.452 Y69.607 E0.01612
G1 X170.637 Y70.087 E0.01612
G1 X170.705 Y70.615 E0.01669
G1 X171.090 Y139.263 E2.15245
G1 X170.966 Y140.002 E0.02349
G1 X170.534 Y140.734 E0.02664
G1 X147.922 Y165.770 E1.05776
G1 X147.540 Y166.103 E0.01589
G1 X147.092 Y166.340 E0.01589
G1 X146.300 Y166.489 E0.02527
G1 X103.693 Y166.489 E1.33592
G1 X102.972 Y166.364 E0.02293
G1 X102.480 Y166.117 E0.01726
G1 X102.066 Y165.756 E0.01725
G1 X79.851 Y140.813 E1.04728
G1 X79.555 Y140.383 E0.01635
G1 X79.370 Y139.895 E0.01635
G1 X79.306 Y139.380 E0.01627
G1 X78.921 Y70.734 E2.15239
G1 X79.035 Y70.054 E0.02161
; PURGING FINISHED
G1 F8640
G1 X79.477 Y69.263 E-0.20921
G1 X81.076 Y67.493 E-0.55079
G1 E-0.04000 F2100.00000
G1 Z0.800 F10800.000
G1 X81.700 Y71.305
G1 Z0.200
G1 E0.80000 F2100.00000
G1 F1200
G1 X95.525 Y71.228 E0.43350
G1 X95.904 Y138.700 E2.11558
G1 X82.078 Y138.778 E0.43350
G1 X81.700 Y71.365 E2.11370
G1 X81.321 Y70.930 F10800.000
G1 F1200
G1 X95.900 Y70.849 E0.45715
G1 X96.283 Y139.075 E2.13922
G1 X81.703 Y139.157 E0.45715
G1 X81.321 Y70.990 E2.13734
G1 X81.681 Y71.104 F10800.000
G1 F8640
G1 X84.612 Y70.958 E-0.76000
G1 E-0.04000 F2100.00000
G1 Z0.800 F10800.000
G1 X95.417 Y72.109
G1 Z0.200
G1 E0.80000 F2100.00000
G1 F1200
G1 X94.823 Y71.515 E0.02639
G1 X94.292 Y71.518 E0.01667
G1 X95.250 Y72.475 E0.04252
G1 X95.253 Y73.012 E0.01686
G1 X93.761 Y71.521 E0.06623
G1 X93.230 Y71.524 E0.01667
G1 X95.256 Y73.549 E0.08993
G1 X95.259 Y74.086 E0.01686
G1 X92.699 Y71.526 E0.11363
G1 X92.168 Y71.529 E0.01667
G1 X95.262 Y74.623 E0.13734
G1 X95.265 Y75.160 E0.01686
G1 X91.637 Y71.532 E0.16104
G1 X91.106 Y71.535 E0.01667
G1 X95.268 Y75.697 E0.18475
G1 X95.271 Y76.234 E0.01686
G1 X90.575 Y71.538 E0.20845
G1 X90.044 Y71.541 E0.01667
G1 X95.274 Y76.771 E0.23215
G1 X95.277 Y77.308 E0.01686
G1 X89.513 Y71.544 E0.25586
G1 X88.983 Y71.547 E0.01667
G1 X95.280 Y77.845 E0.27956
G1 X95.283 Y78.381 E0.01686
G1 X88.452 Y71.550 E0.30327
G1 X87.921 Y71.553 E0.01667
G1 X95.286 Y78.918 E0.32697
G1 X95.289 Y79.455 E0.01686
G1 X87.390 Y71.556 E0.35067
G1 X86.859 Y71.559 E0.01667
G1 X95.292 Y79.992 E0.37438
G1 X95.295 Y80.529 E0.01686
G1 X86.328 Y71.562 E0.39808
G1 X85.797 Y71.565 E0.01667
G1 X95.298 Y81.066 E0.42179
G1 X95.301 Y81.603 E0.01686
G1 X85.266 Y71.568 E0.44549
G1 X84.735 Y71.571 E0.01667
G1 X95.304 Y82.140 E0.46919
G1 X95.307 Y82.677 E0.01686
G1 X84.204 Y71.574 E0.49290
G1 X83.673 Y71.577 E0.01667
G1 X95.310 Y83.214 E0.51660
G1 X95.313 Y83.751 E0.01686
G1 X83.142 Y71.580 E0.54031
G1 X82.611 Y71.583 E0.01667
G1 X95.316 Y84.288 E0.56401
G1 X95.319 Y84.825 E0.01686
G1 X82.080 Y71.586 E0.58771
G1 X81.984 Y71.587 E0.00302
G1 X81.987 Y72.026 E0.01380
G1 X95.322 Y85.361 E0.59201
G1 X95.325 Y85.898 E0.01686
G1 X81.990 Y72.563 E0.59201
G1 X81.993 Y73.100 E0.01686
G1 X95.328 Y86.435 E0.59201
G1 X95.331 Y86.972 E0.01686
G1 X81.996 Y73.637 E0.59201
G1 X81.999 Y74.174 E0.01686
G1 X95.334 Y87.509 E0.59201
G1 X95.337 Y88.046 E0.01686
G1 X82.002 Y74.711 E0.59201
G1 X82.005 Y75.248 E0.01686
G1 X95.340 Y88.583 E0.59201
G1 X95.343 Y89.120 E0.01686
G1 X82.008 Y75.785 E0.59201
M73 Q0 S112
G1 X82.011 Y76.321 E0.01686
M73 P0 R112
G1 X95.346 Y89.657 E0.59201
G1 X95.349 Y90.194 E0.01686
G1 X82.014 Y76.858 E0.59201
G1 X82.017 Y77.395 E0.01686
G1 X95.352 Y90.731 E0.59201
G1 X95.355 Y91.268 E0.01686
G1 X82.020 Y77.932 E0.59201
G1 X82.023 Y78.469 E0.01686
G1 X95.358 Y91.804 E0.59201
G1 X95.361 Y92.341 E0.01686
G1 X82.026 Y79.006 E0.59201
G1 X82.029 Y79.543 E0.01686
G1 X95.364 Y92.878 E0.59201
G1 X95.367 Y93.415 E0.01686
G1 X82.032 Y80.080 E0.59201
G1 X82.035 Y80.617 E0.01686
G1 X95.370 Y93.952 E0.59201
G1 X95.373 Y94.489 E0.01686
G1 X82.038 Y81.154 E0.59201
G1 X82.041 Y81.691 E0.01686
G1 X95.376 Y95.026 E0.59201
G1 X95.379 Y95.563 E0.01686
G1 X82.044 Y82.228 E0.59201
G1 X82.047 Y82.765 E0.01686
G1 X95.382 Y96.100 E0.59201
G1 X95.385 Y96.637 E0.01686
G1 X82.050 Y83.301 E0.59201
G1 X82.053 Y83.838 E0.01686
G1 X95.388 Y97.174 E0.59201
G1 X95.391 Y97.711 E0.01686
G1 X82.056 Y84.375 E0.59201
G1 X82.059 Y84.912 E0.01686
G1 X95.394 Y98.247 E0.59201
G1 X95.397 Y98.784 E0.01686
G1 X82.062 Y85.449 E0.59201
G1 X82.065 Y85.986 E0.01686
G1 X95.400 Y99.321 E0.59201
G1 X95.403 Y99.858 E0.01686
G1 X82.068 Y86.523 E0.59201
G1 X82.071 Y87.060 E0.01686
G1 X95.406 Y100.395 E0.59201
G1 X95.409 Y100.932 E0.01686
G1 X82.074 Y87.597 E0.59201
G1 X82.077 Y88.134 E0.01686
G1 X95.412 Y101.469 E0.59201
G1 X95.415 Y102.006 E0.01686
G1 X82.080 Y88.671 E0.59201
G1 X82.083 Y89.208 E0.01686
G1 X95.418 Y102.543 E0.59201
G1 X95.421 Y103.080 E0.01686
G1 X82.086 Y89.744 E0.59201
G1 X82.089 Y90.281 E0.01686
G1 X95.424 Y103.617 E0.59201
G1 X95.427 Y104.154 E0.01686
G1 X82.092 Y90.818 E0.59201
G1 X82.095 Y91.355 E0.01686
G1 X95.430 Y104.691 E0.59201
G1 X95.433 Y105.227 E0.01686
G1 X82.098 Y91.892 E0.59201
G1 X82.101 Y92.429 E0.01686
G1 X95.436 Y105.764 E0.59201
G1 X95.439 Y106.301 E0.01686
G1 X82.104 Y92.966 E0.59201
G1 X82.107 Y93.503 E0.01686
G1 X95.442 Y106.838 E0.59201
G1 X95.445 Y107.375 E0.01686
G1 X82.110 Y94.040 E0.59201
G1 X82.113 Y94.577 E0.01686
G1 X95.448 Y107.912 E0.59201
G1 X95.451 Y108.449 E0.01686
G1 X82.116 Y95.114 E0.59201
G1 X82.119 Y95.651 E0.01686
G1 X95.454 Y108.986 E0.59201
G1 X95.457 Y109.523 E0.01686
G1 X82.122 Y96.187 E0.59201
G1 X82.125 Y96.724 E0.01686
G1 X95.460 Y110.060 E0.59201
G1 X95.463 Y110.597 E0.01686
G1 X82.128 Y97.261 E0.59201
G1 X82.131 Y97.798 E0.01686
G1 X95.466 Y111.134 E0.59201
G1 X95.469 Y111.670 E0.01686
G1 X82.134 Y98.335 E0.59201
G1 X82.137 Y98.872 E0.01686
G1 X95.473 Y112.207 E0.59201
G1 X95.476 Y112.744 E0.01686
G1 X82.140 Y99.409 E0.59201
G1 X82.143 Y99.946 E0.01686
G1 X95.479 Y113.281 E0.59201
G1 X95.482 Y113.818 E0.01686
G1 X82.146 Y100.483 E0.59201
G1 X82.149 Y101.020 E0.01686
G1 X95.485 Y114.355 E0.59201
G1 X95.488 Y114.892 E0.01686
G1 X82.152 Y101.557 E0.59201
G1 X82.155 Y102.094 E0.01686
G1 X95.491 Y115.429 E0.59201
G1 X95.494 Y115.966 E0.01686
G1 X82.158 Y102.631 E0.59201
G1 X82.161 Y103.167 E0.01686
G1 X95.497 Y116.503 E0.59201
G1 X95.500 Y117.040 E0.01686
G1 X82.164 Y103.704 E0.59201
G1 X82.167 Y104.241 E0.01686
G1 X95.503 Y117.577 E0.59201
G1 X95.506 Y118.113 E0.01686
G1 X82.170 Y104.778 E0.59201
G1 X82.173 Y105.315 E0.01686
G1 X95.509 Y118.650 E0.59201
G1 X95.512 Y119.187 E0.01686
G1 X82.176 Y105.852 E0.59201
G1 X82.179 Y106.389 E0.01686
G1 X95.515 Y119.724 E0.59201
G1 X95.518 Y120.261 E0.01686
G1 X82.182 Y106.926 E0.59201
G1 X82.185 Y107.463 E0.01686
G1 X95.521 Y120.798 E0.59201
G1 X95.524 Y121.335 E0.01686
G1 X82.188 Y108.000 E0.59201
G1 X82.191 Y108.537 E0.01686
G1 X95.527 Y121.872 E0.59201
G1 X95.530 Y122.409 E0.01686
G1 X82.194 Y109.074 E0.59201
M73 Q1 S111
M73 P1 R111
G1 X82.197 Y109.610 E0.01686
G1 X95.533 Y122.946 E0.59201
G1 X95.536 Y123.483 E0.01686
G1 X82.200 Y110.147 E0.59201
G1 X82.203 Y110.684 E0.01686
G1 X95.539 Y124.020 E0.59201
G1 X95.542 Y124.556 E0.01686
G1 X82.206 Y111.221 E0.59201
G1 X82.210 Y111.758 E0.01686
G1 X95.545 Y125.093 E0.59201
G1 X95.548 Y125.630 E0.01686
G1 X82.213 Y112.295 E0.59201
G1 X82.216 Y112.832 E0.01686
G1 X95.551 Y126.167 E0.59201
G1 X95.554 Y126.704 E0.01686
G1 X82.219 Y113.369 E0.59201
G1 X82.222 Y113.906 E0.01686
G1 X95.557 Y127.241 E0.59201
G1 X95.560 Y127.778 E0.01686
G1 X82.225 Y114.443 E0.59201
G1 X82.228 Y114.980 E0.01686
G1 X95.563 Y128.315 E0.59201
G1 X95.566 Y128.852 E0.01686
G1 X82.231 Y115.517 E0.59201
G1 X82.234 Y116.053 E0.01686
G1 X95.569 Y129.389 E0.59201
G1 X95.572 Y129.926 E0.01686
G1 X82.237 Y116.590 E0.59201
G1 X82.240 Y117.127 E0.01686
G1 X95.575 Y130.463 E0.59201
G1 X95.578 Y131.000 E0.01686
G1 X82.243 Y117.664 E0.59201
G1 X82.246 Y118.201 E0.01686
G1 X95.581 Y131.536 E0.59201
G1 X95.584 Y132.073 E0.01686
G1 X82.249 Y118.738 E0.59201
G1 X82.252 Y119.275 E0.01686
G1 X95.587 Y132.610 E0.59201
G1 X95.590 Y133.147 E0.01686
G1 X82.255 Y119.812 E0.59201
G1 X82.258 Y120.349 E0.01686
G1 X95.593 Y133.684 E0.59201
G1 X95.596 Y134.221 E0.01686
G1 X82.261 Y120.886 E0.59201
G1 X82.264 Y121.423 E0.01686
G1 X95.599 Y134.758 E0.59201
G1 X95.602 Y135.295 E0.01686
G1 X82.267 Y121.960 E0.59201
G1 X82.270 Y122.497 E0.01686
G1 X95.605 Y135.832 E0.59201
G1 X95.608 Y136.369 E0.01686
G1 X82.273 Y123.033 E0.59201
G1 X82.276 Y123.570 E0.01686
G1 X95.611 Y136.906 E0.59201
G1 X95.614 Y137.443 E0.01686
G1 X82.279 Y124.107 E0.59201
G1 X82.282 Y124.644 E0.01686
G1 X95.617 Y137.979 E0.59201
G1 X95.620 Y138.419 E0.01379
G1 X95.523 Y138.419 E0.00303
G1 X82.285 Y125.181 E0.58771
G1 X82.288 Y125.718 E0.01686
G1 X94.992 Y138.422 E0.56401
G1 X94.461 Y138.425 E0.01667
G1 X82.291 Y126.255 E0.54030
G1 X82.294 Y126.792 E0.01686
G1 X93.930 Y138.428 E0.51660
G1 X93.399 Y138.431 E0.01667
G1 X82.297 Y127.329 E0.49289
G1 X82.300 Y127.866 E0.01686
G1 X92.869 Y138.434 E0.46919
G1 X92.338 Y138.437 E0.01667
G1 X82.303 Y128.403 E0.44548
G1 X82.306 Y128.940 E0.01686
G1 X91.807 Y138.440 E0.42178
G1 X91.276 Y138.443 E0.01667
G1 X82.309 Y129.476 E0.39808
G1 X82.312 Y130.013 E0.01686
G1 X90.745 Y138.446 E0.37437
G1 X90.214 Y138.449 E0.01667
G1 X82.315 Y130.550 E0.35067
G1 X82.318 Y131.087 E0.01686
G1 X89.683 Y138.452 E0.32696
G1 X89.152 Y138.455 E0.01667
G1 X82.321 Y131.624 E0.30326
G1 X82.324 Y132.161 E0.01686
G1 X88.621 Y138.458 E0.27956
G1 X88.090 Y138.461 E0.01667
G1 X82.327 Y132.698 E0.25585
G1 X82.330 Y133.235 E0.01686
G1 X87.559 Y138.464 E0.23215
G1 X87.028 Y138.467 E0.01667
G1 X82.333 Y133.772 E0.20844
G1 X82.336 Y134.309 E0.01686
G1 X86.497 Y138.470 E0.18474
G1 X85.966 Y138.473 E0.01667
G1 X82.339 Y134.846 E0.16104
G1 X82.342 Y135.383 E0.01686
G1 X85.436 Y138.476 E0.13733
G1 X84.905 Y138.479 E0.01667
G1 X82.345 Y135.919 E0.11363
G1 X82.348 Y136.456 E0.01686
G1 X84.374 Y138.482 E0.08992
G1 X83.843 Y138.485 E0.01667
G1 X82.351 Y136.993 E0.06622
G1 X82.354 Y137.530 E0.01686
G1 X83.312 Y138.488 E0.04252
G1 X82.781 Y138.491 E0.01667
G1 X82.186 Y137.897 E0.02639
G1 F8640
G1 X82.781 Y138.491 E-0.19410
G1 X83.312 Y138.488 E-0.12259
G1 X82.354 Y137.530 E-0.31273
G1 X82.351 Y136.993 E-0.12398
G1 X82.371 Y137.014 E-0.00659
G1 E-0.04000 F2100.00000
G1 Z0.800 F10800.000
G1 X154.486 Y138.769
G1 Z0.200
G1 E0.80000 F2100.00000
G1 F1200
G1 X154.107 Y71.297 E2.11558
G1 X167.933 Y71.219 E0.43350
G1 X168.311 Y138.692 E2.11558
G1 X154.546 Y138.769 E0.43162
G1 X154.111 Y139.148 F10800.000
G1 F1200
G1 X153.728 Y70.922 E2.13922
G1 X168.308 Y70.840 E0.45715
G1 X168.690 Y139.067 E2.13922
G1 X154.171 Y139.148 E0.45526
G1 X154.137 Y138.749 F10800.000
G1 F8640
G1 X154.149 Y135.857 E-0.76000
G1 E-0.04000 F2100.00000
G1 Z0.800 F10800.000
G1 X154.594 Y137.888
G1 Z0.200
G1 E0.80000 F2100.00000
G1 F1200
G1 X155.188 Y138.482 E0.02639
G1 X155.719 Y138.479 E0.01667
G1 X154.761 Y137.522 E0.04252
G1 X154.758 Y136.985 E0.01686
G1 X156.250 Y138.477 E0.06622
G1 X156.781 Y138.474 E0.01667
G1 X154.755 Y136.448 E0.08992
M73 Q2 S110
G1 X154.752 Y135.911 E0.01686
G1 X157.312 Y138.471 E0.11363
G1 X157.843 Y138.468 E0.01667
M73 P2 R110
G1 X154.749 Y135.374 E0.13733
G1 X154.746 Y134.837 E0.01686
G1 X158.374 Y138.465 E0.16104
G1 X158.905 Y138.462 E0.01667
G1 X154.743 Y134.300 E0.18474
G1 X154.740 Y133.763 E0.01686
G1 X159.436 Y138.459 E0.20844
G1 X159.967 Y138.456 E0.01667
G1 X154.737 Y133.226 E0.23215
G1 X154.734 Y132.690 E0.01686
G1 X160.498 Y138.453 E0.25585
G1 X161.028 Y138.450 E0.01667
G1 X154.731 Y132.153 E0.27956
G1 X154.728 Y131.616 E0.01686
G1 X161.559 Y138.447 E0.30326
G1 X162.090 Y138.444 E0.01667
G1 X154.725 Y131.079 E0.32696
G1 X154.722 Y130.542 E0.01686
G1 X162.621 Y138.441 E0.35067
G1 X163.152 Y138.438 E0.01667
G1 X154.719 Y130.005 E0.37437
G1 X154.716 Y129.468 E0.01686
G1 X163.683 Y138.435 E0.39808
G1 X164.214 Y138.432 E0.01667
G1 X154.713 Y128.931 E0.42178
G1 X154.710 Y128.394 E0.01686
G1 X164.745 Y138.429 E0.44548
G1 X165.276 Y138.426 E0.01667
G1 X154.707 Y127.857 E0.46919
G1 X154.704 Y127.320 E0.01686
G1 X165.807 Y138.423 E0.49289
G1 X166.338 Y138.420 E0.01667
G1 X154.701 Y126.783 E0.51660
G1 X154.698 Y126.246 E0.01686
G1 X166.869 Y138.417 E0.54030
G1 X167.400 Y138.414 E0.01667
G1 X154.695 Y125.710 E0.56401
G1 X154.692 Y125.173 E0.01686
G1 X167.931 Y138.411 E0.58771
G1 X168.027 Y138.410 E0.00303
G1 X168.024 Y137.971 E0.01379
G1 X154.689 Y124.636 E0.59201
G1 X154.686 Y124.099 E0.01686
G1 X168.021 Y137.434 E0.59201
G1 X168.018 Y136.897 E0.01686
G1 X154.683 Y123.562 E0.59201
G1 X154.680 Y123.025 E0.01686
G1 X168.015 Y136.360 E0.59201
G1 X168.012 Y135.823 E0.01686
G1 X154.677 Y122.488 E0.59201
G1 X154.674 Y121.951 E0.01686
G1 X168.009 Y135.286 E0.59201
G1 X168.006 Y134.750 E0.01686
G1 X154.671 Y121.414 E0.59201
G1 X154.668 Y120.877 E0.01686
G1 X168.003 Y134.213 E0.59201
G1 X168.000 Y133.676 E0.01686
G1 X154.665 Y120.340 E0.59201
G1 X154.662 Y119.803 E0.01686
G1 X167.997 Y133.139 E0.59201
G1 X167.994 Y132.602 E0.01686
G1 X154.659 Y119.267 E0.59201
G1 X154.656 Y118.730 E0.01686
G1 X167.991 Y132.065 E0.59201
G1 X167.988 Y131.528 E0.01686
G1 X154.653 Y118.193 E0.59201
G1 X154.650 Y117.656 E0.01686
G1 X167.985 Y130.991 E0.59201
G1 X167.982 Y130.454 E0.01686
G1 X154.647 Y117.119 E0.59201
G1 X154.644 Y116.582 E0.01686
G1 X167.979 Y129.917 E0.59201
G1 X167.976 Y129.380 E0.01686
G1 X154.641 Y116.045 E0.59201
G1 X154.638 Y115.508 E0.01686
G1 X167.973 Y128.843 E0.59201
G1 X167.970 Y128.306 E0.01686
G1 X154.635 Y114.971 E0.59201
G1 X154.632 Y114.434 E0.01686
G1 X167.967 Y127.770 E0.59201
G1 X167.964 Y127.233 E0.01686
G1 X154.629 Y113.897 E0.59201
G1 X154.626 Y113.360 E0.01686
G1 X167.961 Y126.696 E0.59201
G1 X167.958 Y126.159 E0.01686
G1 X154.623 Y112.824 E0.59201
G1 X154.620 Y112.287 E0.01686
G1 X167.955 Y125.622 E0.59201
G1 X167.952 Y125.085 E0.01686
G1 X154.617 Y111.750 E0.59201
G1 X154.614 Y111.213 E0.01686
G1 X167.949 Y124.548 E0.59201
G1 X167.946 Y124.011 E0.01686
G1 X154.611 Y110.676 E0.59201
G1 X154.608 Y110.139 E0.01686
G1 X167.943 Y123.474 E0.59201
G1 X167.940 Y122.937 E0.01686
G1 X154.605 Y109.602 E0.59201
G1 X154.602 Y109.065 E0.01686
G1 X167.937 Y122.400 E0.59201
G1 X167.934 Y121.863 E0.01686
G1 X154.599 Y108.528 E0.59201
G1 X154.596 Y107.991 E0.01686
G1 X167.931 Y121.327 E0.59201
G1 X167.928 Y120.790 E0.01686
G1 X154.593 Y107.454 E0.59201
G1 X154.590 Y106.917 E0.01686
G1 X167.925 Y120.253 E0.59201
G1 X167.922 Y119.716 E0.01686
G1 X154.587 Y106.381 E0.59201
G1 X154.584 Y105.844 E0.01686
G1 X167.919 Y119.179 E0.59201
G1 X167.916 Y118.642 E0.01686
G1 X154.581 Y105.307 E0.59201
G1 X154.578 Y104.770 E0.01686
G1 X167.913 Y118.105 E0.59201
