; generated by Slic3r Prusa Edition 1.41.0+ on 2018-12-10 at 19:59:37

; 

; external perimeters extrusion width = 0.45mm
; perimeters extrusion width = 0.45mm
; infill extrusion width = 0.45mm
; solid infill extrusion width = 0.45mm
; top infill extrusion width = 0.40mm
; first layer extrusion width = 0.42mm

M201 X1000 Y1000 Z1000 E5000 ; sets maximum accelerations, mm/sec^2
M203 X200 Y200 Z12 E120 ; sets maximum feedrates, mm/sec
M204 P1250 R1250 T1250 ; sets acceleration (P, T) and retract acceleration (R), mm/sec^2
M205 X8.00 Y8.00 Z0.40 E1.50 ; sets the jerk limits, mm/sec
M205 S0 T0 ; sets the minimum extruding and travel feed rate, mm/sec
M107
M115 U3.4.1 ; tell printer latest fw version
M83  ; extruder relative mode
M104 S215 ; set extruder temp
M140 S60 ; set bed temp
M190 S60 ; wait for bed temp
M109 S215 ; wait for extruder temp
G28 W ; home all without mesh bed level
G80 ; mesh bed leveling
G1 Y-3.0 F1000.0 ; go outside print area
G92 E0.0
G1 X60.0 E9.0  F1000.0 ; intro line
M73 Q0 S132
M73 P0 R131
G1 X100.0 E12.5  F1000.0 ; intro line
G92 E0.0
M221 S95
M900 K30; Filament gcode
G21 ; set units to millimeters
G90 ; use absolute coordinates
M83 ; use relative distances for extrusion
;BEFORE_LAYER_CHANGE
G92 E0.0
;0.2


G1 E-0.80000 F2100.00000
G1 Z0.600 F10800.000
;AFTER_LAYER_CHANGE
;0.2
G1 X101.648 Y47.938
G1 Z0.200
G1 E0.80000 F2100.00000
M204 S1000
G1 F1200
G1 X101.959 Y47.373 E0.02021
G1 X102.421 Y46.924 E0.02021
G1 X102.994 Y46.628 E0.02021
G1 X103.628 Y46.513 E0.02021
G1 X146.304 Y46.511 E1.33805
G1 X147.130 Y46.675 E0.02642
G1 X147.834 Y47.139 E0.02642
G1 X148.310 Y47.834 E0.02642
G1 X148.488 Y48.661 E0.02653
G1 X148.489 Y161.304 E3.53182
G1 X148.352 Y162.062 E0.02417
G1 X148.041 Y162.627 E0.02021
G1 X147.576 Y163.078 E0.02032
G1 X146.999 Y163.374 E0.02032
G1 X146.361 Y163.488 E0.02032
G1 X103.693 Y163.489 E1.33782
G1 X102.938 Y163.352 E0.02405
G1 X102.365 Y163.034 E0.02055
G1 X101.909 Y162.558 E0.02066
G1 X101.617 Y161.971 E0.02055
G1 X101.512 Y161.324 E0.02055
G1 X101.511 Y48.696 E3.53137
G1 X101.638 Y47.997 E0.02229
; PURGING FINISHED
G1 F8640
G1 X101.959 Y47.373 E-0.16202
G1 X102.421 Y46.924 E-0.14883
G1 X102.994 Y46.628 E-0.14883
G1 X103.628 Y46.513 E-0.14883
G1 X104.284 Y46.513 E-0.15149
G1 E-0.04000 F2100.00000
G1 Z0.800 F10800.000
G1 X104.287 Y49.287
G1 Z0.200
G1 E0.80000 F2100.00000
G1 F1200
G1 X145.713 Y49.287 E1.29888
G1 X145.713 Y160.713 E3.49368
G1 X104.287 Y160.713 E1.29888
G1 X104.287 Y49.347 E3.49180
G1 X103.910 Y48.910 F10800.000
G1 F1200
G1 X146.090 Y48.910 E1.32252
G1 X146.090 Y161.090 E3.51733
G1 X103.910 Y161.090 E1.32252
G1 X103.910 Y48.970 E3.51544
G1 X104.278 Y49.067 F10800.000
G1 F8640
G1 X107.201 Y48.965 E-0.76000
G1 E-0.04000 F2100.00000
G1 Z0.800 F10800.000
G1 X145.600 Y50.165
G1 Z0.200
G1 E0.80000 F2100.00000
G1 F1200
G1 X145.005 Y49.570 E0.02648
G1 X144.470 Y49.570 E0.01683
G1 X145.430 Y50.530 E0.04273
G1 X145.430 Y51.065 E0.01683
G1 X143.935 Y49.570 E0.06653
G1 X143.400 Y49.570 E0.01683
G1 X145.430 Y51.600 E0.09033
G1 X145.430 Y52.135 E0.01683
G1 X142.865 Y49.570 E0.11413
G1 X142.330 Y49.570 E0.01683
G1 X145.430 Y52.670 E0.13793
G1 X145.430 Y53.205 E0.01683
G1 X141.795 Y49.570 E0.16173
G1 X141.260 Y49.570 E0.01683
G1 X145.430 Y53.740 E0.18553
G1 X145.430 Y54.275 E0.01683
G1 X140.725 Y49.570 E0.20932
G1 X140.190 Y49.570 E0.01683
G1 X145.430 Y54.810 E0.23312
G1 X145.430 Y55.345 E0.01683
G1 X139.655 Y49.570 E0.25692
G1 X139.120 Y49.570 E0.01683
G1 X145.430 Y55.880 E0.28072
G1 X145.430 Y56.415 E0.01683
G1 X138.585 Y49.570 E0.30452
G1 X138.050 Y49.570 E0.01683
G1 X145.430 Y56.950 E0.32832
G1 X145.430 Y57.485 E0.01683
G1 X137.515 Y49.570 E0.35212
G1 X136.980 Y49.570 E0.01683
G1 X145.430 Y58.020 E0.37592
G1 X145.430 Y58.555 E0.01683
G1 X136.445 Y49.570 E0.39972
G1 X135.910 Y49.570 E0.01683
G1 X145.430 Y59.090 E0.42352
G1 X145.430 Y59.625 E0.01683
G1 X135.375 Y49.570 E0.44732
G1 X134.840 Y49.570 E0.01683
G1 X145.430 Y60.160 E0.47112
G1 X145.430 Y60.695 E0.01683
M73 Q0 S131
G1 X134.305 Y49.570 E0.49492
M73 P0 R130
G1 X133.770 Y49.570 E0.01683
G1 X145.430 Y61.230 E0.51872
G1 X145.430 Y61.765 E0.01683
G1 X133.235 Y49.570 E0.54252
G1 X132.700 Y49.570 E0.01683
G1 X145.430 Y62.300 E0.56632
G1 X145.430 Y62.835 E0.01683
G1 X132.165 Y49.570 E0.59012
G1 X131.630 Y49.570 E0.01683
G1 X145.430 Y63.370 E0.61392
G1 X145.430 Y63.905 E0.01683
G1 X131.095 Y49.570 E0.63772
G1 X130.560 Y49.570 E0.01683
G1 X145.430 Y64.440 E0.66152
G1 X145.430 Y64.975 E0.01683
G1 X130.025 Y49.570 E0.68532
G1 X129.490 Y49.570 E0.01683
G1 X145.430 Y65.510 E0.70912
G1 X145.430 Y66.045 E0.01683
G1 X128.955 Y49.570 E0.73292
G1 X128.420 Y49.570 E0.01683
G1 X145.430 Y66.580 E0.75671
G1 X145.430 Y67.115 E0.01683
G1 X127.885 Y49.570 E0.78051
G1 X127.350 Y49.570 E0.01683
G1 X145.430 Y67.650 E0.80431
G1 X145.430 Y68.185 E0.01683
G1 X126.815 Y49.570 E0.82811
G1 X126.280 Y49.570 E0.01683
G1 X145.430 Y68.720 E0.85191
G1 X145.430 Y69.255 E0.01683
G1 X125.745 Y49.570 E0.87571
G1 X125.210 Y49.570 E0.01683
G1 X145.430 Y69.790 E0.89951
G1 X145.430 Y70.325 E0.01683
G1 X124.675 Y49.570 E0.92331
G1 X124.140 Y49.570 E0.01683
G1 X145.430 Y70.860 E0.94711
G1 X145.430 Y71.395 E0.01683
G1 X123.605 Y49.570 E0.97091
G1 X123.070 Y49.570 E0.01683
G1 X145.430 Y71.930 E0.99471
G1 X145.430 Y72.465 E0.01683
G1 X122.535 Y49.570 E1.01851
G1 X122.000 Y49.570 E0.01683
G1 X145.430 Y73.000 E1.04231
G1 X145.430 Y73.535 E0.01683
G1 X121.465 Y49.570 E1.06611
G1 X120.930 Y49.570 E0.01683
G1 X145.430 Y74.070 E1.08991
G1 X145.430 Y74.605 E0.01683
G1 X120.395 Y49.570 E1.11371
G1 X119.860 Y49.570 E0.01683
G1 X145.430 Y75.140 E1.13751
G1 X145.430 Y75.675 E0.01683
G1 X119.325 Y49.570 E1.16131
G1 X118.790 Y49.570 E0.01683
G1 X145.430 Y76.210 E1.18511
G1 X145.430 Y76.745 E0.01683
G1 X118.255 Y49.570 E1.20891
G1 X117.720 Y49.570 E0.01683
G1 X145.430 Y77.280 E1.23271
G1 X145.430 Y77.815 E0.01683
G1 X117.185 Y49.570 E1.25651
G1 X116.650 Y49.570 E0.01683
G1 X145.430 Y78.350 E1.28031
G1 X145.430 Y78.885 E0.01683
G1 X116.115 Y49.570 E1.30410
G1 X115.580 Y49.570 E0.01683
G1 X145.430 Y79.420 E1.32790
G1 X145.430 Y79.955 E0.01683
G1 X115.045 Y49.570 E1.35170
G1 X114.510 Y49.570 E0.01683
G1 X145.430 Y80.490 E1.37550
G1 X145.430 Y81.025 E0.01683
G1 X113.975 Y49.570 E1.39930
M73 Q1 S130
G1 X113.440 Y49.570 E0.01683
G1 X145.430 Y81.560 E1.42310
M73 P1 R129
G1 X145.430 Y82.095 E0.01683
G1 X112.905 Y49.570 E1.44690
G1 X112.370 Y49.570 E0.01683
G1 X145.430 Y82.630 E1.47070
G1 X145.430 Y83.165 E0.01683
G1 X111.835 Y49.570 E1.49450
G1 X111.300 Y49.570 E0.01683
G1 X145.430 Y83.700 E1.51830
G1 X145.430 Y84.235 E0.01683
G1 X110.765 Y49.570 E1.54210
G1 X110.230 Y49.570 E0.01683
G1 X145.430 Y84.770 E1.56590
G1 X145.430 Y85.305 E0.01683
G1 X109.695 Y49.570 E1.58970
G1 X109.160 Y49.570 E0.01683
G1 X145.430 Y85.840 E1.61350
G1 X145.430 Y86.375 E0.01683
G1 X108.625 Y49.570 E1.63730
G1 X108.090 Y49.570 E0.01683
G1 X145.430 Y86.910 E1.66110
G1 X145.430 Y87.445 E0.01683
G1 X107.555 Y49.570 E1.68490
G1 X107.020 Y49.570 E0.01683
G1 X145.430 Y87.980 E1.70870
G1 X145.430 Y88.515 E0.01683
G1 X106.485 Y49.570 E1.73250
G1 X105.950 Y49.570 E0.01683
G1 X145.430 Y89.050 E1.75630
G1 X145.430 Y89.585 E0.01683
G1 X105.415 Y49.570 E1.78010
G1 X104.880 Y49.570 E0.01683
G1 X145.430 Y90.120 E1.80390
G1 X145.430 Y90.655 E0.01683
G1 X104.570 Y49.795 E1.81768
G1 X104.570 Y50.330 E0.01683
G1 X145.430 Y91.190 E1.81768
G1 X145.430 Y91.725 E0.01683
G1 X104.570 Y50.865 E1.81768
G1 X104.570 Y51.400 E0.01683
G1 X145.430 Y92.260 E1.81768
G1 X145.430 Y92.795 E0.01683
G1 X104.570 Y51.935 E1.81768
G1 X104.570 Y52.470 E0.01683
G1 X145.430 Y93.330 E1.81768
M73 Q2 S128
G1 X145.430 Y93.865 E0.01683
G1 X104.570 Y53.005 E1.81768
M73 P2 R128
G1 X104.570 Y53.540 E0.01683
G1 X145.430 Y94.400 E1.81768
G1 X145.430 Y94.935 E0.01683
G1 X104.570 Y54.075 E1.81768
G1 X104.570 Y54.610 E0.01683
G1 X145.430 Y95.470 E1.81768
G1 X145.430 Y96.005 E0.01683
G1 X104.570 Y55.145 E1.81768
G1 X104.570 Y55.680 E0.01683
G1 X145.430 Y96.540 E1.81768
G1 X145.430 Y97.075 E0.01683
G1 X104.570 Y56.215 E1.81768
G1 X104.570 Y56.750 E0.01683
G1 X145.430 Y97.610 E1.81768
G1 X145.430 Y98.145 E0.01683
G1 X104.570 Y57.285 E1.81768
G1 X104.570 Y57.820 E0.01683
G1 X145.430 Y98.680 E1.81768
G1 X145.430 Y99.215 E0.01683
G1 X104.570 Y58.355 E1.81768
G1 X104.570 Y58.890 E0.01683
G1 X145.430 Y99.750 E1.81768
G1 X145.430 Y100.285 E0.01683
G1 X104.570 Y59.425 E1.81768
G1 X104.570 Y59.960 E0.01683
G1 X145.430 Y100.820 E1.81768
G1 X145.430 Y101.355 E0.01683
G1 X104.570 Y60.495 E1.81768
G1 X104.570 Y61.030 E0.01683
G1 X145.430 Y101.890 E1.81768
G1 X145.430 Y102.425 E0.01683
G1 X104.570 Y61.565 E1.81768
G1 X104.570 Y62.100 E0.01683
G1 X145.430 Y102.960 E1.81768
G1 X145.430 Y103.495 E0.01683
G1 X104.570 Y62.635 E1.81768
G1 X104.570 Y63.170 E0.01683
G1 X145.430 Y104.030 E1.81768
G1 X145.430 Y104.565 E0.01683
G1 X104.570 Y63.705 E1.81768
M73 Q3 S127
G1 X104.570 Y64.240 E0.01683
G1 X145.430 Y105.100 E1.81768
M73 P3 R127
G1 X145.430 Y105.635 E0.01683
G1 X104.570 Y64.775 E1.81768
G1 X104.570 Y65.310 E0.01683
G1 X145.430 Y106.170 E1.81768
G1 X145.430 Y106.705 E0.01683
G1 X104.570 Y65.845 E1.81768
G1 X104.570 Y66.380 E0.01683
G1 X145.430 Y107.240 E1.81768
G1 X145.430 Y107.775 E0.01683
G1 X104.570 Y66.915 E1.81768
G1 X104.570 Y67.450 E0.01683
G1 X145.430 Y108.310 E1.81768
G1 X145.430 Y108.845 E0.01683
G1 X104.570 Y67.985 E1.81768
G1 X104.570 Y68.520 E0.01683
G1 X145.430 Y109.380 E1.81768
G1 X145.430 Y109.915 E0.01683
G1 X104.570 Y69.055 E1.81768
G1 X104.570 Y69.590 E0.01683
G1 X145.430 Y110.450 E1.81768
G1 X145.430 Y110.985 E0.01683
G1 X104.570 Y70.125 E1.81768
G1 X104.570 Y70.660 E0.01683
G1 X145.430 Y111.520 E1.81768
G1 X145.430 Y112.055 E0.01683
G1 X104.570 Y71.195 E1.81768
G1 X104.570 Y71.730 E0.01683
G1 X145.430 Y112.590 E1.81768
G1 X145.430 Y113.125 E0.01683
G1 X104.570 Y72.265 E1.81768
G1 X104.570 Y72.800 E0.01683
G1 X145.430 Y113.660 E1.81768
G1 X145.430 Y114.195 E0.01683
G1 X104.570 Y73.335 E1.81768
G1 X104.570 Y73.870 E0.01683
G1 X145.430 Y114.730 E1.81768
G1 X145.430 Y115.265 E0.01683
G1 X104.570 Y74.405 E1.81768
G1 X104.570 Y74.940 E0.01683
G1 X145.430 Y115.800 E1.81768
M73 Q3 S126
G1 X145.430 Y116.335 E0.01683
G1 X104.570 Y75.475 E1.81768
M73 P3 R126
G1 X104.570 Y76.010 E0.01683
G1 X145.430 Y116.870 E1.81768
G1 X145.430 Y117.405 E0.01683
G1 X104.570 Y76.545 E1.81768
G1 X104.570 Y77.080 E0.01683
G1 X145.430 Y117.940 E1.81768
G1 X145.430 Y118.475 E0.01683
G1 X104.570 Y77.615 E1.81768
G1 X104.570 Y78.150 E0.01683
G1 X145.430 Y119.010 E1.81768
G1 X145.430 Y119.545 E0.01683
G1 X104.570 Y78.685 E1.81768
G1 X104.570 Y79.220 E0.01683
G1 X145.430 Y120.080 E1.81768
G1 X145.430 Y120.615 E0.01683
G1 X104.570 Y79.755 E1.81768
G1 X104.570 Y80.290 E0.01683
G1 X145.430 Y121.150 E1.81768
G1 X145.430 Y121.685 E0.01683
G1 X104.570 Y80.825 E1.81768
G1 X104.570 Y81.360 E0.01683
G1 X145.430 Y122.220 E1.81768
G1 X145.430 Y122.755 E0.01683
G1 X104.570 Y81.895 E1.81768
G1 X104.570 Y82.430 E0.01683
G1 X145.430 Y123.290 E1.81768
G1 X145.430 Y123.825 E0.01683
G1 X104.570 Y82.965 E1.81768
G1 X104.570 Y83.500 E0.01683
G1 X145.430 Y124.360 E1.81768
G1 X145.430 Y124.895 E0.01683
G1 X104.570 Y84.035 E1.81768
G1 X104.570 Y84.570 E0.01683
G1 X145.430 Y125.430 E1.81768
G1 X145.430 Y125.965 E0.01683
G1 X104.570 Y85.105 E1.81768
G1 X104.570 Y85.640 E0.01683
G1 X145.430 Y126.500 E1.81768
G1 X145.430 Y127.035 E0.01683
G1 X104.570 Y86.175 E1.81768
M73 Q4 S125
G1 X104.570 Y86.710 E0.01683
G1 X145.430 Y127.570 E1.81768
M73 P4 R125
G1 X145.430 Y128.105 E0.01683
G1 X104.570 Y87.245 E1.81768
G1 X104.570 Y87.780 E0.01683
G1 X145.430 Y128.640 E1.81768
G1 X145.430 Y129.175 E0.01683
G1 X104.570 Y88.315 E1.81768
G1 X104.570 Y88.850 E0.01683
G1 X145.430 Y129.710 E1.81768
G1 X145.430 Y130.245 E0.01683
G1 X104.570 Y89.385 E1.81768
G1 X104.570 Y89.920 E0.01683
G1 X145.430 Y130.780 E1.81768
G1 X145.430 Y131.315 E0.01683
G1 X104.570 Y90.455 E1.81768
G1 X104.570 Y90.990 E0.01683
G1 X145.430 Y131.850 E1.81768
G1 X145.430 Y132.385 E0.01683
G1 X104.570 Y91.525 E1.81768
G1 X104.570 Y92.060 E0.01683
G1 X145.430 Y132.920 E1.81768
G1 X145.430 Y133.455 E0.01683
G1 X104.570 Y92.595 E1.81768
G1 X104.570 Y93.130 E0.01683
G1 X145.430 Y133.990 E1.81768
G1 X145.430 Y134.525 E0.01683
G1 X104.570 Y93.665 E1.81768
G1 X104.570 Y94.200 E0.01683
G1 X145.430 Y135.060 E1.81768
G1 X145.430 Y135.595 E0.01683
G1 X104.570 Y94.735 E1.81768
G1 X104.570 Y95.270 E0.01683
G1 X145.430 Y136.130 E1.81768
G1 X145.430 Y136.665 E0.01683
G1 X104.570 Y95.805 E1.81768
G1 X104.570 Y96.340 E0.01683
G1 X145.430 Y137.200 E1.81768
G1 X145.430 Y137.735 E0.01683
G1 X104.570 Y96.875 E1.81768
G1 X104.570 Y97.410 E0.01683
G1 X145.430 Y138.270 E1.81768
M73 Q5 S124
G1 X145.430 Y138.805 E0.01683
G1 X104.570 Y97.945 E1.81768
M73 P5 R124
G1 X104.570 Y98.480 E0.01683
G1 X145.430 Y139.340 E1.81768
G1 X145.430 Y139.875 E0.01683
G1 X104.570 Y99.015 E1.81768
G1 X104.570 Y99.550 E0.01683
G1 X145.430 Y140.410 E1.81768
G1 X145.430 Y140.945 E0.01683
G1 X104.570 Y100.085 E1.81768
G1 X104.570 Y100.620 E0.01683
G1 X145.430 Y141.480 E1.81768
G1 X145.430 Y142.015 E0.01683
G1 X104.570 Y101.155 E1.81768
G1 X104.570 Y101.690 E0.01683
G1 X145.430 Y142.550 E1.81768
G1 X145.430 Y143.085 E0.01683
G1 X104.570 Y102.225 E1.81768
G1 X104.570 Y102.760 E0.01683
G1 X145.430 Y143.620 E1.81768
G1 X145.430 Y144.155 E0.01683
G1 X104.570 Y103.295 E1.81768
G1 X104.570 Y103.830 E0.01683
G1 X145.430 Y144.690 E1.81768
G1 X145.430 Y145.225 E0.01683
G1 X104.570 Y104.365 E1.81768
G1 X104.570 Y104.900 E0.01683
G1 X145.430 Y145.760 E1.81768
G1 X145.430 Y146.295 E0.01683
G1 X104.570 Y105.435 E1.81768
G1 X104.570 Y105.970 E0.01683
G1 X145.430 Y146.830 E1.81768
G1 X145.430 Y147.365 E0.01683
G1 X104.570 Y106.505 E1.81768
G1 X104.570 Y107.040 E0.01683
G1 X145.430 Y147.900 E1.81768
G1 X145.430 Y148.435 E0.01683
G1 X104.570 Y107.575 E1.81768
G1 X104.570 Y108.110 E0.01683
G1 X145.430 Y148.970 E1.81768
G1 X145.430 Y149.505 E0.01683
G1 X104.570 Y108.645 E1.81768
M73 Q6 S123
G1 X104.570 Y109.180 E0.01683
G1 X145.430 Y150.040 E1.81768
M73 P6 R123
G1 X145.430 Y150.575 E0.01683
G1 X104.570 Y109.715 E1.81768
G1 X104.570 Y110.250 E0.01683
G1 X145.430 Y151.110 E1.81768
G1 X145.430 Y151.645 E0.01683
G1 X104.570 Y110.785 E1.81768
G1 X104.570 Y111.320 E0.01683
G1 X145.430 Y152.180 E1.81768
G1 X145.430 Y152.715 E0.01683
G1 X104.570 Y111.855 E1.81768
G1 X104.570 Y112.390 E0.01683
G1 X145.430 Y153.250 E1.81768
G1 X145.430 Y153.785 E0.01683
G1 X104.570 Y112.925 E1.81768
G1 X104.570 Y113.460 E0.01683
G1 X145.430 Y154.320 E1.81768
G1 X145.430 Y154.855 E0.01683
G1 X104.570 Y113.995 E1.81768
G1 X104.570 Y114.530 E0.01683
G1 X145.430 Y155.390 E1.81768
G1 X145.430 Y155.925 E0.01683
G1 X104.570 Y115.065 E1.81768
G1 X104.570 Y115.600 E0.01683
G1 X145.430 Y156.460 E1.81768
G1 X145.430 Y156.995 E0.01683
G1 X104.570 Y116.135 E1.81768
G1 X104.570 Y116.670 E0.01683
G1 X145.430 Y157.530 E1.81768
G1 X145.430 Y158.065 E0.01683
G1 X104.570 Y117.205 E1.81768
G1 X104.570 Y117.740 E0.01683
G1 X145.430 Y158.600 E1.81768
G1 X145.430 Y159.135 E0.01683
G1 X104.570 Y118.275 E1.81768
G1 X104.570 Y118.810 E0.01683
G1 X145.430 Y159.670 E1.81768
G1 X145.430 Y160.205 E0.01683
G1 X104.570 Y119.345 E1.81768
G1 X104.570 Y119.880 E0.01683
G1 X145.120 Y160.430 E1.80390
M73 Q7 S122
G1 X144.585 Y160.430 E0.01683
G1 X104.570 Y120.415 E1.78010
M73 P7 R122
G1 X104.570 Y120.950 E0.01683
G1 X144.050 Y160.430 E1.75630
G1 X143.515 Y160.430 E0.01683
G1 X104.570 Y121.485 E1.73250
G1 X104.570 Y122.020 E0.01683
G1 X142.980 Y160.430 E1.70870
G1 X142.445 Y160.430 E0.01683
G1 X104.570 Y122.555 E1.68490
G1 X104.570 Y123.090 E0.01683
G1 X141.910 Y160.430 E1.66110
G1 X141.375 Y160.430 E0.01683
G1 X104.570 Y123.625 E1.63730
G1 X104.570 Y124.160 E0.01683
G1 X140.840 Y160.430 E1.61350
G1 X140.305 Y160.430 E0.01683
G1 X104.570 Y124.695 E1.58970
G1 X104.570 Y125.230 E0.01683
G1 X139.770 Y160.430 E1.56590
G1 X139.235 Y160.430 E0.01683
G1 X104.570 Y125.765 E1.54210
G1 X104.570 Y126.300 E0.01683
G1 X138.700 Y160.430 E1.51830
G1 X138.165 Y160.430 E0.01683
G1 X104.570 Y126.835 E1.49450
