; generated by Slic3r Prusa Edition 1.41.0+ on 2018-11-16 at 18:05:39

; 

; external perimeters extrusion width = 0.45mm
; perimeters extrusion width = 0.45mm
; infill extrusion width = 0.45mm
; solid infill extrusion width = 0.45mm
; top infill extrusion width = 0.40mm
; first layer extrusion width = 0.42mm

M201 X1000 Y1000 Z1000 E5000 ; sets maximum accelerations, mm/sec^2
M203 X200 Y200 Z12 E120 ; sets maximum feedrates, mm/sec
M204 P1250 R1250 T1250 ; sets acceleration (P, T) and retract acceleration (R), mm/sec^2
M205 X8.00 Y8.00 Z0.40 E1.50 ; sets the jerk limits, mm/sec
M205 S0 T0 ; sets the minimum extruding and travel feed rate, mm/sec
M107
M115 U3.4.1 ; tell printer latest fw version
M83  ; extruder relative mode
M104 S220 ; set extruder temp
M140 S60 ; set bed temp
M190 S60 ; wait for bed temp
M109 S220 ; wait for extruder temp
G28 W ; home all without mesh bed level
G80 ; mesh bed leveling
G1 Y-3.0 F1000.0 ; go outside print area
G92 E0.0
G1 X60.0 E9.0  F1000.0 ; intro line
M73 Q0 S97
M73 P0 R97
G1 X100.0 E12.5  F1000.0 ; intro line
G92 E0.0
M221 S95
M900 K30; Filament gcode
G21 ; set units to millimeters
G90 ; use absolute coordinates
M83 ; use relative distances for extrusion
;BEFORE_LAYER_CHANGE
G92 E0.0
;0.2


G1 E-0.80000 F2100.00000
G1 Z0.600 F10800.000
;AFTER_LAYER_CHANGE
;0.2
G1 X89.867 Y44.943
G1 Z0.200
G1 E0.80000 F2100.00000
M204 S1000
G1 F1200
G1 X90.293 Y44.361 E0.02259
G1 X90.884 Y43.950 E0.02259
G1 X91.576 Y43.752 E0.02259
G1 X106.827 Y43.692 E0.47816
G1 X157.094 Y44.886 E1.57653
G1 X157.688 Y44.999 E0.01896
G1 X158.231 Y45.272 E0.01908
G1 X158.679 Y45.684 E0.01908
G1 X158.996 Y46.203 E0.01908
G1 X159.175 Y47.067 E0.02766
G1 X159.175 Y159.694 E3.53134
G1 X159.079 Y160.313 E0.01964
G1 X158.810 Y160.883 E0.01976
G1 X158.392 Y161.350 E0.01964
G1 X157.856 Y161.680 E0.01976
G1 X157.186 Y161.851 E0.02168
G1 X107.296 Y166.259 E1.57035
G1 X92.026 Y166.302 E0.47878
G1 X91.445 Y166.179 E0.01862
G1 X90.919 Y165.903 E0.01862
G1 X90.486 Y165.497 E0.01862
G1 X90.179 Y164.989 E0.01862
G1 X89.999 Y164.129 E0.02754
G1 X89.654 Y45.631 E3.71543
G1 X89.850 Y45.000 E0.02071
; PURGING FINISHED
G1 F8640
G1 X90.293 Y44.361 E-0.17949
G1 X90.884 Y43.950 E-0.16633
G1 X91.576 Y43.752 E-0.16633
G1 X92.650 Y43.748 E-0.24784
G1 E-0.04000 F2100.00000
G1 Z0.800 F10800.000
G1 X114.974 Y47.659
G1 Z0.200
G1 E0.80000 F2100.00000
G1 F1200
G1 X156.400 Y47.659 E1.29888
G1 X156.400 Y159.085 E3.49368
G1 X114.974 Y159.085 E1.29888
G1 X114.974 Y47.719 E3.49180
G1 X114.597 Y47.282 F10800.000
G1 F1200
G1 X156.777 Y47.282 E1.32252
G1 X156.777 Y159.462 E3.51733
G1 X114.597 Y159.462 E1.32252
G1 X114.597 Y47.342 E3.51544
G1 X114.965 Y47.439 F10800.000
G1 F8640
G1 X117.888 Y47.337 E-0.76000
G1 E-0.04000 F2100.00000
G1 Z0.800 F10800.000
G1 X156.287 Y48.537
G1 Z0.200
G1 E0.80000 F2100.00000
G1 F1200
G1 X155.691 Y47.942 E0.02648
G1 X155.156 Y47.942 E0.01683
G1 X156.117 Y48.902 E0.04273
G1 X156.117 Y49.437 E0.01683
G1 X154.621 Y47.942 E0.06653
G1 X154.086 Y47.942 E0.01683
G1 X156.117 Y49.972 E0.09033
G1 X156.117 Y50.507 E0.01683
G1 X153.551 Y47.942 E0.11413
G1 X153.016 Y47.942 E0.01683
G1 X156.117 Y51.042 E0.13793
G1 X156.117 Y51.577 E0.01683
G1 X152.481 Y47.942 E0.16173
G1 X151.946 Y47.942 E0.01683
G1 X156.117 Y52.112 E0.18553
G1 X156.117 Y52.647 E0.01683
G1 X151.411 Y47.942 E0.20932
G1 X150.876 Y47.942 E0.01683
G1 X156.117 Y53.182 E0.23312
G1 X156.117 Y53.717 E0.01683
G1 X150.341 Y47.942 E0.25692
G1 X149.806 Y47.942 E0.01683
G1 X156.117 Y54.252 E0.28072
G1 X156.117 Y54.787 E0.01683
G1 X149.271 Y47.942 E0.30452
G1 X148.736 Y47.942 E0.01683
G1 X156.117 Y55.322 E0.32832
G1 X156.117 Y55.857 E0.01683
G1 X148.201 Y47.942 E0.35212
G1 X147.666 Y47.942 E0.01683
G1 X156.117 Y56.392 E0.37592
G1 X156.117 Y56.927 E0.01683
G1 X147.131 Y47.942 E0.39972
M73 Q1 S96
M73 P1 R96
G1 X146.596 Y47.942 E0.01683
G1 X156.117 Y57.462 E0.42352
G1 X156.117 Y57.997 E0.01683
G1 X146.061 Y47.942 E0.44732
G1 X145.526 Y47.942 E0.01683
G1 X156.117 Y58.532 E0.47112
G1 X156.117 Y59.067 E0.01683
G1 X144.991 Y47.942 E0.49492
G1 X144.456 Y47.942 E0.01683
G1 X156.117 Y59.602 E0.51872
G1 X156.117 Y60.137 E0.01683
G1 X143.921 Y47.942 E0.54252
G1 X143.386 Y47.942 E0.01683
G1 X156.117 Y60.672 E0.56632
G1 X156.117 Y61.207 E0.01683
G1 X142.851 Y47.942 E0.59012
G1 X142.316 Y47.942 E0.01683
G1 X156.117 Y61.742 E0.61392
G1 X156.117 Y62.277 E0.01683
G1 X141.781 Y47.942 E0.63772
G1 X141.246 Y47.942 E0.01683
G1 X156.117 Y62.812 E0.66152
G1 X156.117 Y63.347 E0.01683
G1 X140.711 Y47.942 E0.68532
G1 X140.176 Y47.942 E0.01683
G1 X156.117 Y63.882 E0.70912
G1 X156.117 Y64.417 E0.01683
G1 X139.641 Y47.942 E0.73292
G1 X139.106 Y47.942 E0.01683
G1 X156.117 Y64.952 E0.75671
G1 X156.117 Y65.487 E0.01683
G1 X138.571 Y47.942 E0.78051
G1 X138.036 Y47.942 E0.01683
G1 X156.117 Y66.022 E0.80431
G1 X156.117 Y66.557 E0.01683
G1 X137.501 Y47.942 E0.82811
G1 X136.966 Y47.942 E0.01683
G1 X156.117 Y67.092 E0.85191
G1 X156.117 Y67.627 E0.01683
G1 X136.431 Y47.942 E0.87571
G1 X135.896 Y47.942 E0.01683
G1 X156.117 Y68.162 E0.89951
G1 X156.117 Y68.697 E0.01683
G1 X135.361 Y47.942 E0.92331
G1 X134.826 Y47.942 E0.01683
G1 X156.117 Y69.232 E0.94711
G1 X156.117 Y69.767 E0.01683
G1 X134.291 Y47.942 E0.97091
G1 X133.756 Y47.942 E0.01683
G1 X156.117 Y70.302 E0.99471
G1 X156.117 Y70.837 E0.01683
G1 X133.221 Y47.942 E1.01851
G1 X132.686 Y47.942 E0.01683
G1 X156.117 Y71.372 E1.04231
G1 X156.117 Y71.907 E0.01683
G1 X132.151 Y47.942 E1.06611
G1 X131.617 Y47.942 E0.01683
G1 X156.117 Y72.442 E1.08991
G1 X156.117 Y72.977 E0.01683
G1 X131.082 Y47.942 E1.11371
G1 X130.547 Y47.942 E0.01683
G1 X156.117 Y73.512 E1.13751
G1 X156.117 Y74.047 E0.01683
G1 X130.012 Y47.942 E1.16131
G1 X129.477 Y47.942 E0.01683
G1 X156.117 Y74.582 E1.18511
G1 X156.117 Y75.117 E0.01683
G1 X128.942 Y47.942 E1.20891
G1 X128.407 Y47.942 E0.01683
G1 X156.117 Y75.652 E1.23271
G1 X156.117 Y76.187 E0.01683
G1 X127.872 Y47.942 E1.25651
G1 X127.337 Y47.942 E0.01683
G1 X156.117 Y76.722 E1.28031
G1 X156.117 Y77.257 E0.01683
G1 X126.802 Y47.942 E1.30410
G1 X126.267 Y47.942 E0.01683
G1 X156.117 Y77.792 E1.32790
G1 X156.117 Y78.327 E0.01683
G1 X125.732 Y47.942 E1.35170
G1 X125.197 Y47.942 E0.01683
G1 X156.117 Y78.862 E1.37550
M73 Q2 S95
M73 P2 R95
G1 X156.117 Y79.397 E0.01683
G1 X124.662 Y47.942 E1.39930
G1 X124.127 Y47.942 E0.01683
G1 X156.117 Y79.932 E1.42310
G1 X156.117 Y80.467 E0.01683
G1 X123.592 Y47.942 E1.44690
G1 X123.057 Y47.942 E0.01683
G1 X156.117 Y81.002 E1.47070
G1 X156.117 Y81.537 E0.01683
G1 X122.522 Y47.942 E1.49450
G1 X121.987 Y47.942 E0.01683
G1 X156.117 Y82.072 E1.51830
G1 X156.117 Y82.607 E0.01683
G1 X121.452 Y47.942 E1.54210
G1 X120.917 Y47.942 E0.01683
G1 X156.117 Y83.142 E1.56590
G1 X156.117 Y83.677 E0.01683
G1 X120.382 Y47.942 E1.58970
G1 X119.847 Y47.942 E0.01683
G1 X156.117 Y84.212 E1.61350
G1 X156.117 Y84.747 E0.01683
G1 X119.312 Y47.942 E1.63730
G1 X118.777 Y47.942 E0.01683
G1 X156.117 Y85.282 E1.66110
G1 X156.117 Y85.817 E0.01683
G1 X118.242 Y47.942 E1.68490
G1 X117.707 Y47.942 E0.01683
G1 X156.117 Y86.352 E1.70870
G1 X156.117 Y86.887 E0.01683
G1 X117.172 Y47.942 E1.73250
G1 X116.637 Y47.942 E0.01683
G1 X156.117 Y87.422 E1.75630
G1 X156.117 Y87.957 E0.01683
G1 X116.102 Y47.942 E1.78010
G1 X115.567 Y47.942 E0.01683
G1 X156.117 Y88.492 E1.80390
G1 X156.117 Y89.027 E0.01683
G1 X115.257 Y48.167 E1.81768
G1 X115.257 Y48.702 E0.01683
G1 X156.117 Y89.562 E1.81768
G1 X156.117 Y90.097 E0.01683
G1 X115.257 Y49.237 E1.81768
G1 X115.257 Y49.772 E0.01683
G1 X156.117 Y90.632 E1.81768
G1 X156.117 Y91.167 E0.01683
G1 X115.257 Y50.307 E1.81768
M73 Q3 S94
M73 P3 R94
G1 X115.257 Y50.842 E0.01683
G1 X156.117 Y91.702 E1.81768
G1 X156.117 Y92.237 E0.01683
G1 X115.257 Y51.377 E1.81768
G1 X115.257 Y51.912 E0.01683
G1 X156.117 Y92.772 E1.81768
G1 X156.117 Y93.307 E0.01683
G1 X115.257 Y52.447 E1.81768
G1 X115.257 Y52.982 E0.01683
G1 X156.117 Y93.842 E1.81768
G1 X156.117 Y94.377 E0.01683
G1 X115.257 Y53.517 E1.81768
G1 X115.257 Y54.052 E0.01683
G1 X156.117 Y94.912 E1.81768
G1 X156.117 Y95.447 E0.01683
G1 X115.257 Y54.587 E1.81768
G1 X115.257 Y55.122 E0.01683
G1 X156.117 Y95.982 E1.81768
G1 X156.117 Y96.517 E0.01683
G1 X115.257 Y55.657 E1.81768
G1 X115.257 Y56.192 E0.01683
G1 X156.117 Y97.052 E1.81768
G1 X156.117 Y97.587 E0.01683
G1 X115.257 Y56.727 E1.81768
G1 X115.257 Y57.262 E0.01683
G1 X156.117 Y98.122 E1.81768
G1 X156.117 Y98.657 E0.01683
G1 X115.257 Y57.797 E1.81768
G1 X115.257 Y58.332 E0.01683
G1 X156.117 Y99.192 E1.81768
G1 X156.117 Y99.727 E0.01683
G1 X115.257 Y58.867 E1.81768
G1 X115.257 Y59.402 E0.01683
G1 X156.117 Y100.262 E1.81768
G1 X156.117 Y100.797 E0.01683
G1 X115.257 Y59.937 E1.81768
G1 X115.257 Y60.472 E0.01683
G1 X156.117 Y101.332 E1.81768
G1 X156.117 Y101.867 E0.01683
G1 X115.257 Y61.007 E1.81768
G1 X115.257 Y61.542 E0.01683
G1 X156.117 Y102.402 E1.81768
M73 Q4 S93
M73 P4 R92
G1 X156.117 Y102.937 E0.01683
G1 X115.257 Y62.077 E1.81768
G1 X115.257 Y62.612 E0.01683
G1 X156.117 Y103.472 E1.81768
G1 X156.117 Y104.007 E0.01683
G1 X115.257 Y63.147 E1.81768
G1 X115.257 Y63.682 E0.01683
G1 X156.117 Y104.542 E1.81768
G1 X156.117 Y105.077 E0.01683
G1 X115.257 Y64.217 E1.81768
G1 X115.257 Y64.752 E0.01683
G1 X156.117 Y105.612 E1.81768
G1 X156.117 Y106.147 E0.01683
G1 X115.257 Y65.287 E1.81768
G1 X115.257 Y65.822 E0.01683
G1 X156.117 Y106.682 E1.81768
G1 X156.117 Y107.217 E0.01683
G1 X115.257 Y66.357 E1.81768
G1 X115.257 Y66.892 E0.01683
G1 X156.117 Y107.752 E1.81768
G1 X156.117 Y108.287 E0.01683
G1 X115.257 Y67.427 E1.81768
G1 X115.257 Y67.962 E0.01683
G1 X156.117 Y108.822 E1.81768
G1 X156.117 Y109.357 E0.01683
G1 X115.257 Y68.497 E1.81768
G1 X115.257 Y69.032 E0.01683
G1 X156.117 Y109.892 E1.81768
G1 X156.117 Y110.427 E0.01683
G1 X115.257 Y69.567 E1.81768
G1 X115.257 Y70.102 E0.01683
G1 X156.117 Y110.962 E1.81768
G1 X156.117 Y111.497 E0.01683
G1 X115.257 Y70.637 E1.81768
G1 X115.257 Y71.172 E0.01683
G1 X156.117 Y112.032 E1.81768
G1 X156.117 Y112.567 E0.01683
G1 X115.257 Y71.707 E1.81768
G1 X115.257 Y72.242 E0.01683
G1 X156.117 Y113.102 E1.81768
G1 X156.117 Y113.637 E0.01683
G1 X115.257 Y72.777 E1.81768
M73 Q5 S92
M73 P5 R91
G1 X115.257 Y73.312 E0.01683
G1 X156.117 Y114.172 E1.81768
G1 X156.117 Y114.707 E0.01683
G1 X115.257 Y73.847 E1.81768
G1 X115.257 Y74.382 E0.01683
G1 X156.117 Y115.242 E1.81768
G1 X156.117 Y115.777 E0.01683
G1 X115.257 Y74.917 E1.81768
G1 X115.257 Y75.452 E0.01683
G1 X156.117 Y116.312 E1.81768
G1 X156.117 Y116.847 E0.01683
G1 X115.257 Y75.987 E1.81768
G1 X115.257 Y76.522 E0.01683
G1 X156.117 Y117.382 E1.81768
G1 X156.117 Y117.917 E0.01683
G1 X115.257 Y77.057 E1.81768
G1 X115.257 Y77.592 E0.01683
G1 X156.117 Y118.452 E1.81768
G1 X156.117 Y118.987 E0.01683
G1 X115.257 Y78.127 E1.81768
G1 X115.257 Y78.662 E0.01683
G1 X156.117 Y119.522 E1.81768
G1 X156.117 Y120.057 E0.01683
G1 X115.257 Y79.197 E1.81768
G1 X115.257 Y79.732 E0.01683
G1 X156.117 Y120.592 E1.81768
G1 X156.117 Y121.127 E0.01683
G1 X115.257 Y80.267 E1.81768
G1 X115.257 Y80.802 E0.01683
G1 X156.117 Y121.662 E1.81768
G1 X156.117 Y122.197 E0.01683
G1 X115.257 Y81.337 E1.81768
G1 X115.257 Y81.872 E0.01683
G1 X156.117 Y122.732 E1.81768
G1 X156.117 Y123.267 E0.01683
G1 X115.257 Y82.407 E1.81768
G1 X115.257 Y82.942 E0.01683
G1 X156.117 Y123.802 E1.81768
G1 X156.117 Y124.337 E0.01683
G1 X115.257 Y83.477 E1.81768
G1 X115.257 Y84.012 E0.01683
G1 X156.117 Y124.872 E1.81768
M73 Q6 S91
M73 P6 R90
G1 X156.117 Y125.407 E0.01683
G1 X115.257 Y84.547 E1.81768
G1 X115.257 Y85.082 E0.01683
G1 X156.117 Y125.942 E1.81768
G1 X156.117 Y126.477 E0.01683
G1 X115.257 Y85.617 E1.81768
G1 X115.257 Y86.152 E0.01683
G1 X156.117 Y127.012 E1.81768
G1 X156.117 Y127.547 E0.01683
G1 X115.257 Y86.687 E1.81768
G1 X115.257 Y87.222 E0.01683
G1 X156.117 Y128.082 E1.81768
G1 X156.117 Y128.617 E0.01683
G1 X115.257 Y87.757 E1.81768
G1 X115.257 Y88.292 E0.01683
G1 X156.117 Y129.152 E1.81768
G1 X156.117 Y129.687 E0.01683
G1 X115.257 Y88.827 E1.81768
G1 X115.257 Y89.362 E0.01683
G1 X156.117 Y130.222 E1.81768
G1 X156.117 Y130.757 E0.01683
G1 X115.257 Y89.897 E1.81768
G1 X115.257 Y90.432 E0.01683
G1 X156.117 Y131.292 E1.81768
G1 X156.117 Y131.827 E0.01683
G1 X115.257 Y90.967 E1.81768
G1 X115.257 Y91.502 E0.01683
G1 X156.117 Y132.362 E1.81768
G1 X156.117 Y132.897 E0.01683
G1 X115.257 Y92.037 E1.81768
G1 X115.257 Y92.572 E0.01683
G1 X156.117 Y133.432 E1.81768
G1 X156.117 Y133.967 E0.01683
G1 X115.257 Y93.107 E1.81768
G1 X115.257 Y93.642 E0.01683
G1 X156.117 Y134.502 E1.81768
G1 X156.117 Y135.037 E0.01683
G1 X115.257 Y94.177 E1.81768
G1 X115.257 Y94.712 E0.01683
G1 X156.117 Y135.572 E1.81768
G1 X156.117 Y136.107 E0.01683
G1 X115.257 Y95.247 E1.81768
M73 Q7 S90
M73 P7 R89
G1 X115.257 Y95.782 E0.01683
G1 X156.117 Y136.642 E1.81768
G1 X156.117 Y137.177 E0.01683
G1 X115.257 Y96.317 E1.81768
G1 X115.257 Y96.852 E0.01683
G1 X156.117 Y137.712 E1.81768
G1 X156.117 Y138.247 E0.01683
G1 X115.257 Y97.387 E1.81768
G1 X115.257 Y97.922 E0.01683
G1 X156.117 Y138.782 E1.81768
G1 X156.117 Y139.317 E0.01683
G1 X115.257 Y98.457 E1.81768
G1 X115.257 Y98.992 E0.01683
G1 X156.117 Y139.852 E1.81768
G1 X156.117 Y140.387 E0.01683
G1 X115.257 Y99.527 E1.81768
G1 X115.257 Y100.062 E0.01683
G1 X156.117 Y140.922 E1.81768
G1 X156.117 Y141.457 E0.01683
G1 X115.257 Y100.597 E1.81768
G1 X115.257 Y101.132 E0.01683
G1 X156.117 Y141.992 E1.81768
G1 X156.117 Y142.527 E0.01683
G1 X115.257 Y101.667 E1.81768
G1 X115.257 Y102.202 E0.01683
G1 X156.117 Y143.062 E1.81768
G1 X156.117 Y143.597 E0.01683
G1 X115.257 Y102.737 E1.81768
G1 X115.257 Y103.272 E0.01683
G1 X156.117 Y144.132 E1.81768
G1 X156.117 Y144.667 E0.01683
G1 X115.257 Y103.807 E1.81768
G1 X115.257 Y104.342 E0.01683
G1 X156.117 Y145.202 E1.81768
G1 X156.117 Y145.737 E0.01683
G1 X115.257 Y104.877 E1.81768
G1 X115.257 Y105.412 E0.01683
G1 X156.117 Y146.272 E1.81768
G1 X156.117 Y146.807 E0.01683
G1 X115.257 Y105.947 E1.81768
G1 X115.257 Y106.482 E0.01683
G1 X156.117 Y147.342 E1.81768
M73 Q8 S89
M73 P8 R88
G1 X156.117 Y147.877 E0.01683
G1 X115.257 Y107.017 E1.81768
G1 X115.257 Y107.552 E0.01683
G1 X156.117 Y148.412 E1.81768
G1 X156.117 Y148.947 E0.01683
G1 X115.257 Y108.087 E1.81768
G1 X115.257 Y108.622 E0.01683
G1 X156.117 Y149.482 E1.81768
G1 X156.117 Y150.017 E0.01683
G1 X115.257 Y109.157 E1.81768
G1 X115.257 Y109.692 E0.01683
G1 X156.117 Y150.552 E1.81768
G1 X156.117 Y151.087 E0.01683
G1 X115.257 Y110.227 E1.81768
G1 X115.257 Y110.762 E0.01683
G1 X156.117 Y151.622 E1.81768
G1 X156.117 Y152.157 E0.01683
G1 X115.257 Y111.297 E1.81768
G1 X115.257 Y111.832 E0.01683
G1 X156.117 Y152.692 E1.81768
G1 X156.117 Y153.227 E0.01683
G1 X115.257 Y112.367 E1.81768
G1 X115.257 Y112.902 E0.01683
G1 X156.117 Y153.762 E1.81768
G1 X156.117 Y154.297 E0.01683
G1 X115.257 Y113.437 E1.81768
G1 X115.257 Y113.972 E0.01683
G1 X156.117 Y154.832 E1.81768
G1 X156.117 Y155.367 E0.01683
G1 X115.257 Y114.507 E1.81768
G1 X115.257 Y115.042 E0.01683
G1 X156.117 Y155.902 E1.81768
G1 X156.117 Y156.437 E0.01683
G1 X115.257 Y115.577 E1.81768
G1 X115.257 Y116.112 E0.01683
G1 X156.117 Y156.972 E1.81768
G1 X156.117 Y157.507 E0.01683
G1 X115.257 Y116.647 E1.81768
G1 X115.257 Y117.182 E0.01683
G1 X156.117 Y158.042 E1.81768
G1 X156.117 Y158.577 E0.01683
G1 X115.257 Y117.717 E1.81768
M73 Q9 S87
M73 P9 R87
G1 X115.257 Y118.252 E0.01683
G1 X155.807 Y158.802 E1.80390
G1 X155.272 Y158.802 E0.01683
G1 X115.257 Y118.787 E1.78010
G1 X115.257 Y119.322 E0.01683
G1 X154.737 Y158.802 E1.75630
G1 X154.202 Y158.802 E0.01683
G1 X115.257 Y119.857 E1.73250
G1 X115.257 Y120.392 E0.01683
G1 X153.667 Y158.802 E1.70870
G1 X153.132 Y158.802 E0.01683
G1 X115.257 Y120.927 E1.68490
G1 X115.257 Y121.462 E0.01683
G1 X152.597 Y158.802 E1.66110
G1 X152.062 Y158.802 E0.01683
G1 X115.257 Y121.997 E1.63730
G1 X115.257 Y122.532 E0.01683
G1 X151.527 Y158.802 E1.61350
G1 X150.992 Y158.802 E0.01683
G1 X115.257 Y123.067 E1.58970
G1 X115.257 Y123.602 E0.01683
G1 X150.457 Y158.802 E1.56590
G1 X149.922 Y158.802 E0.01683
G1 X115.257 Y124.137 E1.54210
G1 X115.257 Y124.672 E0.01683
G1 X149.387 Y158.802 E1.51830
G1 X148.852 Y158.802 E0.01683
G1 X115.257 Y125.207 E1.49450
