; generated by Slic3r Prusa Edition 1.41.0+ on 2018-11-21 at 13:51:32

; 

; external perimeters extrusion width = 0.45mm
; perimeters extrusion width = 0.45mm
; infill extrusion width = 0.45mm
; solid infill extrusion width = 0.45mm
; top infill extrusion width = 0.40mm
; first layer extrusion width = 0.42mm

M201 X1000 Y1000 Z1000 E5000 ; sets maximum accelerations, mm/sec^2
M203 X200 Y200 Z12 E120 ; sets maximum feedrates, mm/sec
M204 P1250 R1250 T1250 ; sets acceleration (P, T) and retract acceleration (R), mm/sec^2
M205 X8.00 Y8.00 Z0.40 E1.50 ; sets the jerk limits, mm/sec
M205 S0 T0 ; sets the minimum extruding and travel feed rate, mm/sec
M107
M115 U3.4.1 ; tell printer latest fw version
M83  ; extruder relative mode
M104 S220 ; set extruder temp
M140 S60 ; set bed temp
M190 S60 ; wait for bed temp
M109 S220 ; wait for extruder temp
G28 W ; home all without mesh bed level
G80 ; mesh bed leveling
G1 Y-3.0 F1000.0 ; go outside print area
G92 E0.0
G1 X60.0 E9.0  F1000.0 ; intro line
M73 Q0 S235
M73 P0 R235
G1 X100.0 E12.5  F1000.0 ; intro line
G92 E0.0
M221 S95
M900 K30; Filament gcode
G21 ; set units to millimeters
G90 ; use absolute coordinates
M83 ; use relative distances for extrusion
;BEFORE_LAYER_CHANGE
G92 E0.0
;0.2


G1 E-0.80000 F2100.00000
G1 Z0.600 F10800.000
;AFTER_LAYER_CHANGE
;0.2
G1 X10.777 Y81.553
G1 Z0.200
G1 E0.80000 F2100.00000
M204 S1000
G1 F1200
G1 X238.804 Y81.511 E7.14963
G1 X239.634 Y81.676 E0.02653
G1 X240.342 Y82.147 E0.02664
G1 X240.816 Y82.847 E0.02653
G1 X240.988 Y83.680 E0.02664
G1 X240.987 Y126.384 E1.33897
G1 X240.839 Y127.096 E0.02281
G1 X240.462 Y127.723 E0.02293
G1 X239.904 Y128.190 E0.02281
G1 X239.223 Y128.447 E0.02281
G1 X11.185 Y128.488 E7.14997
G1 X10.452 Y128.357 E0.02338
G1 X9.805 Y127.986 E0.02338
G1 X9.320 Y127.420 E0.02338
G1 X9.053 Y126.723 E0.02338
G1 X9.013 Y83.616 E1.35161
G1 X9.161 Y82.904 E0.02281
G1 X9.538 Y82.277 E0.02293
G1 X10.096 Y81.810 E0.02281
G1 X10.720 Y81.574 E0.02093
; PURGING FINISHED
G1 F8640
G1 X14.012 Y81.573 E-0.76000
G1 E-0.04000 F2100.00000
G1 Z0.800 F10800.000
G1 X11.787 Y84.287
G1 Z0.200
G1 E0.80000 F2100.00000
G1 F1200
G1 X238.213 Y84.287 E7.09942
G1 X238.213 Y125.713 E1.29888
G1 X11.787 Y125.713 E7.09942
G1 X11.787 Y84.347 E1.29700
G1 X11.410 Y83.910 F10800.000
G1 F1200
G1 X238.590 Y83.910 E7.12307
M73 Q0 S234
M73 P0 R234
G1 X238.590 Y126.090 E1.32252
G1 X11.410 Y126.090 E7.12307
G1 X11.410 Y83.970 E1.32064
G1 X11.809 Y83.934 F10800.000
G1 F8640
G1 X14.701 Y83.969 E-0.76000
G1 E-0.04000 F2100.00000
G1 Z0.800 F10800.000
G1 X11.900 Y124.837
G1 Z0.200
G1 E0.80000 F2100.00000
G1 F1200
G1 X12.494 Y125.430 E0.02635
G1 X13.028 Y125.430 E0.01676
G1 X12.070 Y124.472 E0.04252
G1 X12.070 Y123.939 E0.01676
G1 X13.562 Y125.430 E0.06622
G1 X14.095 Y125.430 E0.01676
G1 X12.070 Y123.405 E0.08992
G1 X12.070 Y122.871 E0.01676
G1 X14.629 Y125.430 E0.11362
G1 X15.163 Y125.430 E0.01676
G1 X12.070 Y122.337 E0.13732
G1 X12.070 Y121.803 E0.01676
G1 X15.697 Y125.430 E0.16102
G1 X16.231 Y125.430 E0.01676
G1 X12.070 Y121.269 E0.18472
G1 X12.070 Y120.735 E0.01676
G1 X16.765 Y125.430 E0.20842
G1 X17.299 Y125.430 E0.01676
G1 X12.070 Y120.201 E0.23212
G1 X12.070 Y119.667 E0.01676
G1 X17.833 Y125.430 E0.25582
G1 X18.366 Y125.430 E0.01676
G1 X12.070 Y119.134 E0.27952
G1 X12.070 Y118.600 E0.01676
G1 X18.900 Y125.430 E0.30322
G1 X19.434 Y125.430 E0.01676
G1 X12.070 Y118.066 E0.32692
G1 X12.070 Y117.532 E0.01676
G1 X19.968 Y125.430 E0.35062
G1 X20.502 Y125.430 E0.01676
G1 X12.070 Y116.998 E0.37432
G1 X12.070 Y116.464 E0.01676
G1 X21.036 Y125.430 E0.39802
G1 X21.570 Y125.430 E0.01676
G1 X12.070 Y115.930 E0.42172
G1 X12.070 Y115.396 E0.01676
G1 X22.104 Y125.430 E0.44542
G1 X22.637 Y125.430 E0.01676
G1 X12.070 Y114.863 E0.46912
G1 X12.070 Y114.329 E0.01676
G1 X23.171 Y125.430 E0.49282
G1 X23.705 Y125.430 E0.01676
G1 X12.070 Y113.795 E0.51652
G1 X12.070 Y113.261 E0.01676
G1 X24.239 Y125.430 E0.54022
G1 X24.773 Y125.430 E0.01676
G1 X12.070 Y112.727 E0.56392
G1 X12.070 Y112.193 E0.01676
G1 X25.307 Y125.430 E0.58762
G1 X25.841 Y125.430 E0.01676
G1 X12.070 Y111.659 E0.61132
G1 X12.070 Y111.125 E0.01676
G1 X26.375 Y125.430 E0.63502
G1 X26.909 Y125.430 E0.01676
G1 X12.070 Y110.591 E0.65872
G1 X12.070 Y110.058 E0.01676
G1 X27.442 Y125.430 E0.68242
G1 X27.976 Y125.430 E0.01676
G1 X12.070 Y109.524 E0.70612
G1 X12.070 Y108.990 E0.01676
G1 X28.510 Y125.430 E0.72982
G1 X29.044 Y125.430 E0.01676
G1 X12.070 Y108.456 E0.75353
G1 X12.070 Y107.922 E0.01676
G1 X29.578 Y125.430 E0.77723
G1 X30.112 Y125.430 E0.01676
G1 X12.070 Y107.388 E0.80093
G1 X12.070 Y106.854 E0.01676
G1 X30.646 Y125.430 E0.82463
G1 X31.180 Y125.430 E0.01676
G1 X12.070 Y106.320 E0.84833
G1 X12.070 Y105.787 E0.01676
G1 X31.713 Y125.430 E0.87203
G1 X32.247 Y125.430 E0.01676
G1 X12.070 Y105.253 E0.89573
G1 X12.070 Y104.719 E0.01676
G1 X32.781 Y125.430 E0.91943
G1 X33.315 Y125.430 E0.01676
G1 X12.070 Y104.185 E0.94313
G1 X12.070 Y103.651 E0.01676
G1 X33.849 Y125.430 E0.96683
G1 X34.383 Y125.430 E0.01676
G1 X12.070 Y103.117 E0.99053
G1 X12.070 Y102.583 E0.01676
G1 X34.917 Y125.430 E1.01423
G1 X35.451 Y125.430 E0.01676
G1 X12.070 Y102.049 E1.03793
G1 X12.070 Y101.515 E0.01676
G1 X35.985 Y125.430 E1.06163
G1 X36.518 Y125.430 E0.01676
G1 X12.070 Y100.982 E1.08533
G1 X12.070 Y100.448 E0.01676
G1 X37.052 Y125.430 E1.10903
M73 Q0 S233
M73 P0 R233
G1 X37.586 Y125.430 E0.01676
G1 X12.070 Y99.914 E1.13273
G1 X12.070 Y99.380 E0.01676
G1 X38.120 Y125.430 E1.15643
G1 X38.654 Y125.430 E0.01676
G1 X12.070 Y98.846 E1.18013
G1 X12.070 Y98.312 E0.01676
G1 X39.188 Y125.430 E1.20383
G1 X39.722 Y125.430 E0.01676
G1 X12.070 Y97.778 E1.22753
G1 X12.070 Y97.244 E0.01676
G1 X40.256 Y125.430 E1.25123
G1 X40.789 Y125.430 E0.01676
G1 X12.070 Y96.711 E1.27493
G1 X12.070 Y96.177 E0.01676
G1 X41.323 Y125.430 E1.29863
G1 X41.857 Y125.430 E0.01676
G1 X12.070 Y95.643 E1.32233
G1 X12.070 Y95.109 E0.01676
G1 X42.391 Y125.430 E1.34603
G1 X42.925 Y125.430 E0.01676
G1 X12.070 Y94.575 E1.36973
G1 X12.070 Y94.041 E0.01676
G1 X43.459 Y125.430 E1.39343
G1 X43.993 Y125.430 E0.01676
G1 X12.070 Y93.507 E1.41713
G1 X12.070 Y92.973 E0.01676
G1 X44.527 Y125.430 E1.44083
G1 X45.061 Y125.430 E0.01676
G1 X12.070 Y92.440 E1.46453
G1 X12.070 Y91.906 E0.01676
G1 X45.594 Y125.430 E1.48823
G1 X46.128 Y125.430 E0.01676
G1 X12.070 Y91.372 E1.51193
G1 X12.070 Y90.838 E0.01676
G1 X46.662 Y125.430 E1.53563
G1 X47.196 Y125.430 E0.01676
G1 X12.070 Y90.304 E1.55933
G1 X12.070 Y89.770 E0.01676
G1 X47.730 Y125.430 E1.58303
G1 X48.264 Y125.430 E0.01676
G1 X12.070 Y89.236 E1.60673
G1 X12.070 Y88.702 E0.01676
G1 X48.798 Y125.430 E1.63044
G1 X49.332 Y125.430 E0.01676
G1 X12.070 Y88.168 E1.65414
G1 X12.070 Y87.635 E0.01676
G1 X49.865 Y125.430 E1.67784
G1 X50.399 Y125.430 E0.01676
G1 X12.070 Y87.101 E1.70154
G1 X12.070 Y86.567 E0.01676
G1 X50.933 Y125.430 E1.72524
M73 Q1 S232
M73 P1 R232
G1 X51.467 Y125.430 E0.01676
G1 X12.070 Y86.033 E1.74894
G1 X12.070 Y85.499 E0.01676
G1 X52.001 Y125.430 E1.77264
G1 X52.535 Y125.430 E0.01676
G1 X12.070 Y84.965 E1.79634
G1 X12.070 Y84.570 E0.01241
G1 X12.208 Y84.570 E0.00435
G1 X53.069 Y125.430 E1.81389
G1 X53.603 Y125.430 E0.01676
G1 X12.742 Y84.570 E1.81389
G1 X13.276 Y84.570 E0.01676
G1 X54.136 Y125.430 E1.81389
G1 X54.670 Y125.430 E0.01676
G1 X13.810 Y84.570 E1.81389
G1 X14.344 Y84.570 E0.01676
G1 X55.204 Y125.430 E1.81389
G1 X55.738 Y125.430 E0.01676
G1 X14.878 Y84.570 E1.81389
G1 X15.412 Y84.570 E0.01676
G1 X56.272 Y125.430 E1.81389
G1 X56.806 Y125.430 E0.01676
G1 X15.946 Y84.570 E1.81389
G1 X16.480 Y84.570 E0.01676
G1 X57.340 Y125.430 E1.81389
G1 X57.874 Y125.430 E0.01676
G1 X17.013 Y84.570 E1.81389
G1 X17.547 Y84.570 E0.01676
G1 X58.408 Y125.430 E1.81389
G1 X58.941 Y125.430 E0.01676
G1 X18.081 Y84.570 E1.81389
G1 X18.615 Y84.570 E0.01676
G1 X59.475 Y125.430 E1.81389
G1 X60.009 Y125.430 E0.01676
G1 X19.149 Y84.570 E1.81389
G1 X19.683 Y84.570 E0.01676
G1 X60.543 Y125.430 E1.81389
G1 X61.077 Y125.430 E0.01676
G1 X20.217 Y84.570 E1.81389
G1 X20.751 Y84.570 E0.01676
G1 X61.611 Y125.430 E1.81389
G1 X62.145 Y125.430 E0.01676
G1 X21.284 Y84.570 E1.81389
M73 Q1 S231
M73 P1 R231
G1 X21.818 Y84.570 E0.01676
G1 X62.679 Y125.430 E1.81389
G1 X63.212 Y125.430 E0.01676
G1 X22.352 Y84.570 E1.81389
G1 X22.886 Y84.570 E0.01676
G1 X63.746 Y125.430 E1.81389
G1 X64.280 Y125.430 E0.01676
G1 X23.420 Y84.570 E1.81389
G1 X23.954 Y84.570 E0.01676
G1 X64.814 Y125.430 E1.81389
G1 X65.348 Y125.430 E0.01676
G1 X24.488 Y84.570 E1.81389
G1 X25.022 Y84.570 E0.01676
G1 X65.882 Y125.430 E1.81389
G1 X66.416 Y125.430 E0.01676
G1 X25.555 Y84.570 E1.81389
G1 X26.089 Y84.570 E0.01676
G1 X66.950 Y125.430 E1.81389
G1 X67.484 Y125.430 E0.01676
G1 X26.623 Y84.570 E1.81389
G1 X27.157 Y84.570 E0.01676
G1 X68.017 Y125.430 E1.81389
G1 X68.551 Y125.430 E0.01676
G1 X27.691 Y84.570 E1.81389
G1 X28.225 Y84.570 E0.01676
G1 X69.085 Y125.430 E1.81389
G1 X69.619 Y125.430 E0.01676
G1 X28.759 Y84.570 E1.81389
G1 X29.293 Y84.570 E0.01676
G1 X70.153 Y125.430 E1.81389
G1 X70.687 Y125.430 E0.01676
G1 X29.827 Y84.570 E1.81389
G1 X30.360 Y84.570 E0.01676
G1 X71.221 Y125.430 E1.81389
G1 X71.755 Y125.430 E0.01676
G1 X30.894 Y84.570 E1.81389
G1 X31.428 Y84.570 E0.01676
G1 X72.288 Y125.430 E1.81389
G1 X72.822 Y125.430 E0.01676
G1 X31.962 Y84.570 E1.81389
G1 X32.496 Y84.570 E0.01676
G1 X73.356 Y125.430 E1.81389
M73 Q2 S230
M73 P2 R230
G1 X73.890 Y125.430 E0.01676
G1 X33.030 Y84.570 E1.81389
G1 X33.564 Y84.570 E0.01676
G1 X74.424 Y125.430 E1.81389
G1 X74.958 Y125.430 E0.01676
G1 X34.098 Y84.570 E1.81389
G1 X34.631 Y84.570 E0.01676
G1 X75.492 Y125.430 E1.81389
G1 X76.026 Y125.430 E0.01676
G1 X35.165 Y84.570 E1.81389
G1 X35.699 Y84.570 E0.01676
G1 X76.559 Y125.430 E1.81389
G1 X77.093 Y125.430 E0.01676
G1 X36.233 Y84.570 E1.81389
G1 X36.767 Y84.570 E0.01676
G1 X77.627 Y125.430 E1.81389
G1 X78.161 Y125.430 E0.01676
G1 X37.301 Y84.570 E1.81389
G1 X37.835 Y84.570 E0.01676
G1 X78.695 Y125.430 E1.81389
G1 X79.229 Y125.430 E0.01676
G1 X38.369 Y84.570 E1.81389
G1 X38.903 Y84.570 E0.01676
G1 X79.763 Y125.430 E1.81389
G1 X80.297 Y125.430 E0.01676
G1 X39.436 Y84.570 E1.81389
G1 X39.970 Y84.570 E0.01676
G1 X80.831 Y125.430 E1.81389
G1 X81.364 Y125.430 E0.01676
G1 X40.504 Y84.570 E1.81389
G1 X41.038 Y84.570 E0.01676
G1 X81.898 Y125.430 E1.81389
G1 X82.432 Y125.430 E0.01676
G1 X41.572 Y84.570 E1.81389
G1 X42.106 Y84.570 E0.01676
G1 X82.966 Y125.430 E1.81389
G1 X83.500 Y125.430 E0.01676
G1 X42.640 Y84.570 E1.81389
G1 X43.174 Y84.570 E0.01676
G1 X84.034 Y125.430 E1.81389
G1 X84.568 Y125.430 E0.01676
G1 X43.707 Y84.570 E1.81389
M73 Q2 S229
M73 P2 R229
G1 X44.241 Y84.570 E0.01676
G1 X85.102 Y125.430 E1.81389
G1 X85.635 Y125.430 E0.01676
G1 X44.775 Y84.570 E1.81389
G1 X45.309 Y84.570 E0.01676
G1 X86.169 Y125.430 E1.81389
G1 X86.703 Y125.430 E0.01676
G1 X45.843 Y84.570 E1.81389
G1 X46.377 Y84.570 E0.01676
G1 X87.237 Y125.430 E1.81389
G1 X87.771 Y125.430 E0.01676
G1 X46.911 Y84.570 E1.81389
G1 X47.445 Y84.570 E0.01676
G1 X88.305 Y125.430 E1.81389
G1 X88.839 Y125.430 E0.01676
G1 X47.979 Y84.570 E1.81389
G1 X48.512 Y84.570 E0.01676
G1 X89.373 Y125.430 E1.81389
G1 X89.907 Y125.430 E0.01676
G1 X49.046 Y84.570 E1.81389
G1 X49.580 Y84.570 E0.01676
G1 X90.440 Y125.430 E1.81389
G1 X90.974 Y125.430 E0.01676
G1 X50.114 Y84.570 E1.81389
G1 X50.648 Y84.570 E0.01676
G1 X91.508 Y125.430 E1.81389
G1 X92.042 Y125.430 E0.01676
G1 X51.182 Y84.570 E1.81389
G1 X51.716 Y84.570 E0.01676
G1 X92.576 Y125.430 E1.81389
G1 X93.110 Y125.430 E0.01676
G1 X52.250 Y84.570 E1.81389
G1 X52.783 Y84.570 E0.01676
G1 X93.644 Y125.430 E1.81389
G1 X94.178 Y125.430 E0.01676
G1 X53.317 Y84.570 E1.81389
G1 X53.851 Y84.570 E0.01676
G1 X94.711 Y125.430 E1.81389
G1 X95.245 Y125.430 E0.01676
G1 X54.385 Y84.570 E1.81389
G1 X54.919 Y84.570 E0.01676
G1 X95.779 Y125.430 E1.81389
M73 Q3 S228
M73 P3 R228
G1 X96.313 Y125.430 E0.01676
G1 X55.453 Y84.570 E1.81389
G1 X55.987 Y84.570 E0.01676
G1 X96.847 Y125.430 E1.81389
G1 X97.381 Y125.430 E0.01676
G1 X56.521 Y84.570 E1.81389
G1 X57.054 Y84.570 E0.01676
G1 X97.915 Y125.430 E1.81389
G1 X98.449 Y125.430 E0.01676
G1 X57.588 Y84.570 E1.81389
G1 X58.122 Y84.570 E0.01676
G1 X98.983 Y125.430 E1.81389
G1 X99.516 Y125.430 E0.01676
G1 X58.656 Y84.570 E1.81389
G1 X59.190 Y84.570 E0.01676
G1 X100.050 Y125.430 E1.81389
G1 X100.584 Y125.430 E0.01676
G1 X59.724 Y84.570 E1.81389
G1 X60.258 Y84.570 E0.01676
G1 X101.118 Y125.430 E1.81389
G1 X101.652 Y125.430 E0.01676
G1 X60.792 Y84.570 E1.81389
G1 X61.326 Y84.570 E0.01676
G1 X102.186 Y125.430 E1.81389
G1 X102.720 Y125.430 E0.01676
G1 X61.859 Y84.570 E1.81389
G1 X62.393 Y84.570 E0.01676
G1 X103.254 Y125.430 E1.81389
G1 X103.787 Y125.430 E0.01676
G1 X62.927 Y84.570 E1.81389
G1 X63.461 Y84.570 E0.01676
G1 X104.321 Y125.430 E1.81389
G1 X104.855 Y125.430 E0.01676
G1 X63.995 Y84.570 E1.81389
G1 X64.529 Y84.570 E0.01676
G1 X105.389 Y125.430 E1.81389
G1 X105.923 Y125.430 E0.01676
G1 X65.063 Y84.570 E1.81389
G1 X65.597 Y84.570 E0.01676
G1 X106.457 Y125.430 E1.81389
G1 X106.991 Y125.430 E0.01676
G1 X66.130 Y84.570 E1.81389
M73 Q3 S227
M73 P3 R227
G1 X66.664 Y84.570 E0.01676
G1 X107.525 Y125.430 E1.81389
G1 X108.058 Y125.430 E0.01676
G1 X67.198 Y84.570 E1.81389
G1 X67.732 Y84.570 E0.01676
G1 X108.592 Y125.430 E1.81389
G1 X109.126 Y125.430 E0.01676
G1 X68.266 Y84.570 E1.81389
G1 X68.800 Y84.570 E0.01676
G1 X109.660 Y125.430 E1.81389
G1 X110.194 Y125.430 E0.01676
G1 X69.334 Y84.570 E1.81389
G1 X69.868 Y84.570 E0.01676
G1 X110.728 Y125.430 E1.81389
G1 X111.262 Y125.430 E0.01676
G1 X70.402 Y84.570 E1.81389
G1 X70.935 Y84.570 E0.01676
G1 X111.796 Y125.430 E1.81389
G1 X112.330 Y125.430 E0.01676
G1 X71.469 Y84.570 E1.81389
G1 X72.003 Y84.570 E0.01676
G1 X112.863 Y125.430 E1.81389
G1 X113.397 Y125.430 E0.01676
G1 X72.537 Y84.570 E1.81389
G1 X73.071 Y84.570 E0.01676
G1 X113.931 Y125.430 E1.81389
G1 X114.465 Y125.430 E0.01676
G1 X73.605 Y84.570 E1.81389
G1 X74.139 Y84.570 E0.01676
G1 X114.999 Y125.430 E1.81389
G1 X115.533 Y125.430 E0.01676
G1 X74.673 Y84.570 E1.81389
G1 X75.206 Y84.570 E0.01676
G1 X116.067 Y125.430 E1.81389
G1 X116.601 Y125.430 E0.01676
G1 X75.740 Y84.570 E1.81389
G1 X76.274 Y84.570 E0.01676
G1 X117.134 Y125.430 E1.81389
G1 X117.668 Y125.430 E0.01676
G1 X76.808 Y84.570 E1.81389
G1 X77.342 Y84.570 E0.01676
G1 X118.202 Y125.430 E1.81389
M73 Q3 S226
M73 P3 R226
G1 X118.736 Y125.430 E0.01676
G1 X77.876 Y84.570 E1.81389
G1 X78.410 Y84.570 E0.01676
G1 X119.270 Y125.430 E1.81389
G1 X119.804 Y125.430 E0.01676
G1 X78.944 Y84.570 E1.81389
G1 X79.477 Y84.570 E0.01676
G1 X120.338 Y125.430 E1.81389
G1 X120.872 Y125.430 E0.01676
G1 X80.011 Y84.570 E1.81389
G1 X80.545 Y84.570 E0.01676
G1 X121.406 Y125.430 E1.81389
G1 X121.939 Y125.430 E0.01676
G1 X81.079 Y84.570 E1.81389
G1 X81.613 Y84.570 E0.01676
G1 X122.473 Y125.430 E1.81389
G1 X123.007 Y125.430 E0.01676
G1 X82.147 Y84.570 E1.81389
G1 X82.681 Y84.570 E0.01676
G1 X123.541 Y125.430 E1.81389
G1 X124.075 Y125.430 E0.01676
G1 X83.215 Y84.570 E1.81389
G1 X83.749 Y84.570 E0.01676
G1 X124.609 Y125.430 E1.81389
G1 X125.143 Y125.430 E0.01676
G1 X84.282 Y84.570 E1.81389
G1 X84.816 Y84.570 E0.01676
G1 X125.677 Y125.430 E1.81389
G1 X126.210 Y125.430 E0.01676
G1 X85.350 Y84.570 E1.81389
G1 X85.884 Y84.570 E0.01676
G1 X126.744 Y125.430 E1.81389
G1 X127.278 Y125.430 E0.01676
G1 X86.418 Y84.570 E1.81389
G1 X86.952 Y84.570 E0.01676
G1 X127.812 Y125.430 E1.81389
G1 X128.346 Y125.430 E0.01676
G1 X87.486 Y84.570 E1.81389
G1 X88.020 Y84.570 E0.01676
G1 X128.880 Y125.430 E1.81389
G1 X129.414 Y125.430 E0.01676
G1 X88.553 Y84.570 E1.81389
M73 Q4 S225
M73 P4 R225
G1 X89.087 Y84.570 E0.01676
G1 X129.948 Y125.430 E1.81389
G1 X130.481 Y125.430 E0.01676
G1 X89.621 Y84.570 E1.81389
G1 X90.155 Y84.570 E0.01676
G1 X131.015 Y125.430 E1.81389
G1 X131.549 Y125.430 E0.01676
G1 X90.689 Y84.570 E1.81389
G1 X91.223 Y84.570 E0.01676
G1 X132.083 Y125.430 E1.81389
G1 X132.617 Y125.430 E0.01676
G1 X91.757 Y84.570 E1.81389
G1 X92.291 Y84.570 E0.01676
G1 X133.151 Y125.430 E1.81389
G1 X133.685 Y125.430 E0.01676
G1 X92.825 Y84.570 E1.81389
G1 X93.358 Y84.570 E0.01676
G1 X134.219 Y125.430 E1.81389
