; generated by Slic3r Prusa Edition 1.41.0+ on 2018-11-20 at 19:39:50

; 

; external perimeters extrusion width = 0.45mm
; perimeters extrusion width = 0.45mm
; infill extrusion width = 0.45mm
; solid infill extrusion width = 0.45mm
; top infill extrusion width = 0.40mm
; first layer extrusion width = 0.42mm

M201 X9000 Y9000 Z500 E10000 ; sets maximum accelerations, mm/sec^2
M203 X500 Y500 Z12 E120 ; sets maximum feedrates, mm/sec
M204 P2000 R1500 T2000 ; sets acceleration (P, T) and retract acceleration (R), mm/sec^2
M205 X10.00 Y10.00 Z0.20 E2.50 ; sets the jerk limits, mm/sec
M205 S0 T0 ; sets the minimum extruding and travel feed rate, mm/sec
M107
M115 U3.1.0 ; tell printer latest fw version
M83  ; extruder relative mode
M204 S2000 T1500 ; MK2 firmware only supports the old M204 format
M104 S220 ; set extruder temp
M140 S60 ; set bed temp
M190 S60 ; wait for bed temp
M109 S220 ; wait for extruder temp
G28 W ; home all without mesh bed level
G80 ; mesh bed leveling
G1 Y-3.0 F1000.0 ; go outside print area
G92 E0.0
G1 X60.0 E9.0  F1000.0 ; intro line
G1 X100.0 E12.5  F1000.0 ; intro line
G92 E0.0
M900 K30; Filament gcode
G21 ; set units to millimeters
G90 ; use absolute coordinates
M83 ; use relative distances for extrusion
;BEFORE_LAYER_CHANGE
G92 E0.0
;0.2


G1 E-0.80000 F2100.00000
G1 Z0.600 F10800.000
;AFTER_LAYER_CHANGE
;0.2
G1 X101.636 Y44.972
G1 Z0.200
G1 E0.80000 F2100.00000
M204 S1000
G1 F1200
G1 X101.944 Y44.394 E0.02055
G1 X102.407 Y43.935 E0.02044
G1 X102.984 Y43.632 E0.02044
G1 X103.628 Y43.513 E0.02055
G1 X146.304 Y43.511 E1.33805
G1 X147.130 Y43.675 E0.02642
G1 X147.834 Y44.139 E0.02642
G1 X148.310 Y44.834 E0.02642
G1 X148.488 Y45.661 E0.02653
G1 X148.489 Y164.304 E3.71995
G1 X148.364 Y165.028 E0.02304
G1 X148.056 Y165.606 E0.02055
G1 X147.590 Y166.068 E0.02055
G1 X147.009 Y166.370 E0.02055
G1 X146.364 Y166.488 E0.02055
G1 X103.693 Y166.489 E1.33794
G1 X102.972 Y166.364 E0.02293
G1 X102.388 Y166.052 E0.02078
G1 X101.922 Y165.576 E0.02089
G1 X101.620 Y164.981 E0.02089
G1 X101.512 Y164.324 E0.02089
G1 X101.511 Y45.696 E3.71949
G1 X101.626 Y45.031 E0.02116
; PURGING FINISHED
G1 F8640
G1 X101.944 Y44.394 E-0.16455
G1 X102.407 Y43.935 E-0.15050
G1 X102.984 Y43.632 E-0.15050
G1 X103.628 Y43.513 E-0.15133
G1 X104.248 Y43.513 E-0.14313
G1 E-0.04000 F2100.00000
G1 Z0.800 F10800.000
G1 X104.287 Y109.787
G1 Z0.200
G1 E0.80000 F2100.00000
G1 F1200
G1 X145.713 Y109.787 E1.29888
G1 X145.713 Y163.713 E1.69081
G1 X104.287 Y163.713 E1.29888
G1 X104.287 Y109.847 E1.68893
G1 X103.910 Y109.410 F10800.000
G1 F1200
G1 X146.090 Y109.410 E1.32252
G1 X146.090 Y164.090 E1.71445
G1 X103.910 Y164.090 E1.32252
G1 X103.910 Y109.470 E1.71257
G1 X104.292 Y109.530 F10800.000
G1 F8640
G1 X107.201 Y109.465 E-0.76000
G1 E-0.04000 F2100.00000
G1 Z0.800 F10800.000
G1 X145.600 Y110.663
G1 Z0.200
G1 E0.80000 F2100.00000
G1 F1200
G1 X145.007 Y110.070 E0.02631
G1 X144.473 Y110.070 E0.01674
G1 X145.430 Y111.027 E0.04245
G1 X145.430 Y111.560 E0.01674
G1 X143.940 Y110.070 E0.06613
G1 X143.406 Y110.070 E0.01674
G1 X145.430 Y112.094 E0.08980
G1 X145.430 Y112.627 E0.01674
G1 X142.873 Y110.070 E0.11347
G1 X142.339 Y110.070 E0.01674
G1 X145.430 Y113.161 E0.13714
G1 X145.430 Y113.695 E0.01674
G1 X141.805 Y110.070 E0.16081
G1 X141.272 Y110.070 E0.01674
G1 X145.430 Y114.228 E0.18449
G1 X145.430 Y114.762 E0.01674
G1 X140.738 Y110.070 E0.20816
G1 X140.205 Y110.070 E0.01674
G1 X145.430 Y115.295 E0.23183
G1 X145.430 Y115.829 E0.01674
G1 X139.671 Y110.070 E0.25550
G1 X139.138 Y110.070 E0.01674
G1 X145.430 Y116.362 E0.27918
G1 X145.430 Y116.896 E0.01674
G1 X138.604 Y110.070 E0.30285
G1 X138.070 Y110.070 E0.01674
G1 X145.430 Y117.430 E0.32652
G1 X145.430 Y117.963 E0.01674
G1 X137.537 Y110.070 E0.35019
G1 X137.003 Y110.070 E0.01674
G1 X145.430 Y118.497 E0.37386
G1 X145.430 Y119.030 E0.01674
G1 X136.470 Y110.070 E0.39754
G1 X135.936 Y110.070 E0.01674
G1 X145.430 Y119.564 E0.42121
G1 X145.430 Y120.097 E0.01674
G1 X135.403 Y110.070 E0.44488
G1 X134.869 Y110.070 E0.01674
G1 X145.430 Y120.631 E0.46855
G1 X145.430 Y121.164 E0.01674
G1 X134.335 Y110.070 E0.49222
G1 X133.802 Y110.070 E0.01674
G1 X145.430 Y121.698 E0.51590
G1 X145.430 Y122.232 E0.01674
G1 X133.268 Y110.070 E0.53957
G1 X132.735 Y110.070 E0.01674
G1 X145.430 Y122.765 E0.56324
G1 X145.430 Y123.299 E0.01674
G1 X132.201 Y110.070 E0.58691
G1 X131.668 Y110.070 E0.01674
G1 X145.430 Y123.832 E0.61059
G1 X145.430 Y124.366 E0.01674
G1 X131.134 Y110.070 E0.63426
G1 X130.601 Y110.070 E0.01674
G1 X145.430 Y124.899 E0.65793
G1 X145.430 Y125.433 E0.01674
G1 X130.067 Y110.070 E0.68160
G1 X129.533 Y110.070 E0.01674
G1 X145.430 Y125.967 E0.70527
G1 X145.430 Y126.500 E0.01674
G1 X129.000 Y110.070 E0.72895
G1 X128.466 Y110.070 E0.01674
G1 X145.430 Y127.034 E0.75262
G1 X145.430 Y127.567 E0.01674
G1 X127.933 Y110.070 E0.77629
G1 X127.399 Y110.070 E0.01674
G1 X145.430 Y128.101 E0.79996
G1 X145.430 Y128.634 E0.01674
G1 X126.866 Y110.070 E0.82364
G1 X126.332 Y110.070 E0.01674
G1 X145.430 Y129.168 E0.84731
G1 X145.430 Y129.702 E0.01674
G1 X125.798 Y110.070 E0.87098
G1 X125.265 Y110.070 E0.01674
G1 X145.430 Y130.235 E0.89465
G1 X145.430 Y130.769 E0.01674
G1 X124.731 Y110.070 E0.91832
G1 X124.198 Y110.070 E0.01674
G1 X145.430 Y131.302 E0.94200
G1 X145.430 Y131.836 E0.01674
G1 X123.664 Y110.070 E0.96567
G1 X123.131 Y110.070 E0.01674
G1 X145.430 Y132.369 E0.98934
G1 X145.430 Y132.903 E0.01674
G1 X122.597 Y110.070 E1.01301
G1 X122.064 Y110.070 E0.01674
G1 X145.430 Y133.436 E1.03668
G1 X145.430 Y133.970 E0.01674
G1 X121.530 Y110.070 E1.06036
G1 X120.996 Y110.070 E0.01674
G1 X145.430 Y134.504 E1.08403
G1 X145.430 Y135.037 E0.01674
G1 X120.463 Y110.070 E1.10770
G1 X119.929 Y110.070 E0.01674
G1 X145.430 Y135.571 E1.13137
G1 X145.430 Y136.104 E0.01674
G1 X119.396 Y110.070 E1.15505
G1 X118.862 Y110.070 E0.01674
G1 X145.430 Y136.638 E1.17872
G1 X145.430 Y137.171 E0.01674
G1 X118.329 Y110.070 E1.20239
G1 X117.795 Y110.070 E0.01674
G1 X145.430 Y137.705 E1.22606
G1 X145.430 Y138.239 E0.01674
G1 X117.261 Y110.070 E1.24973
G1 X116.728 Y110.070 E0.01674
G1 X145.430 Y138.772 E1.27341
G1 X145.430 Y139.306 E0.01674
G1 X116.194 Y110.070 E1.29708
G1 X115.661 Y110.070 E0.01674
G1 X145.430 Y139.839 E1.32075
G1 X145.430 Y140.373 E0.01674
G1 X115.127 Y110.070 E1.34442
G1 X114.594 Y110.070 E0.01674
G1 X145.430 Y140.906 E1.36809
G1 X145.430 Y141.440 E0.01674
G1 X114.060 Y110.070 E1.39177
G1 X113.526 Y110.070 E0.01674
G1 X145.430 Y141.974 E1.41544
G1 X145.430 Y142.507 E0.01674
G1 X112.993 Y110.070 E1.43911
G1 X112.459 Y110.070 E0.01674
G1 X145.430 Y143.041 E1.46278
G1 X145.430 Y143.574 E0.01674
G1 X111.926 Y110.070 E1.48646
G1 X111.392 Y110.070 E0.01674
G1 X145.430 Y144.108 E1.51013
G1 X145.430 Y144.641 E0.01674
G1 X110.859 Y110.070 E1.53380
G1 X110.325 Y110.070 E0.01674
G1 X145.430 Y145.175 E1.55747
G1 X145.430 Y145.708 E0.01674
G1 X109.792 Y110.070 E1.58114
G1 X109.258 Y110.070 E0.01674
G1 X145.430 Y146.242 E1.60482
G1 X145.430 Y146.776 E0.01674
G1 X108.724 Y110.070 E1.62849
G1 X108.191 Y110.070 E0.01674
G1 X145.430 Y147.309 E1.65216
G1 X145.430 Y147.843 E0.01674
G1 X107.657 Y110.070 E1.67583
G1 X107.124 Y110.070 E0.01674
G1 X145.430 Y148.376 E1.69950
G1 X145.430 Y148.910 E0.01674
G1 X106.590 Y110.070 E1.72318
G1 X106.057 Y110.070 E0.01674
G1 X145.430 Y149.443 E1.74685
G1 X145.430 Y149.977 E0.01674
G1 X105.523 Y110.070 E1.77052
G1 X104.989 Y110.070 E0.01674
G1 X145.430 Y150.511 E1.79419
G1 X145.430 Y151.044 E0.01674
G1 X104.570 Y110.184 E1.81281
G1 X104.570 Y110.717 E0.01674
G1 X145.430 Y151.578 E1.81281
G1 X145.430 Y152.111 E0.01674
G1 X104.570 Y111.251 E1.81281
G1 X104.570 Y111.785 E0.01674
G1 X145.430 Y152.645 E1.81281
G1 X145.430 Y153.178 E0.01674
G1 X104.570 Y112.318 E1.81281
G1 X104.570 Y112.852 E0.01674
G1 X145.430 Y153.712 E1.81281
G1 X145.430 Y154.245 E0.01674
G1 X104.570 Y113.385 E1.81281
G1 X104.570 Y113.919 E0.01674
G1 X145.430 Y154.779 E1.81281
G1 X145.430 Y155.313 E0.01674
G1 X104.570 Y114.452 E1.81281
G1 X104.570 Y114.986 E0.01674
G1 X145.430 Y155.846 E1.81281
G1 X145.430 Y156.380 E0.01674
G1 X104.570 Y115.519 E1.81281
G1 X104.570 Y116.053 E0.01674
G1 X145.430 Y156.913 E1.81281
G1 X145.430 Y157.447 E0.01674
G1 X104.570 Y116.587 E1.81281
G1 X104.570 Y117.120 E0.01674
G1 X145.430 Y157.980 E1.81281
G1 X145.430 Y158.514 E0.01674
G1 X104.570 Y117.654 E1.81281
G1 X104.570 Y118.187 E0.01674
G1 X145.430 Y159.048 E1.81281
G1 X145.430 Y159.581 E0.01674
G1 X104.570 Y118.721 E1.81281
G1 X104.570 Y119.254 E0.01674
G1 X145.430 Y160.115 E1.81281
G1 X145.430 Y160.648 E0.01674
G1 X104.570 Y119.788 E1.81281
G1 X104.570 Y120.322 E0.01674
G1 X145.430 Y161.182 E1.81281
G1 X145.430 Y161.715 E0.01674
G1 X104.570 Y120.855 E1.81281
G1 X104.570 Y121.389 E0.01674
G1 X145.430 Y162.249 E1.81281
G1 X145.430 Y162.783 E0.01674
G1 X104.570 Y121.922 E1.81281
G1 X104.570 Y122.456 E0.01674
G1 X145.430 Y163.316 E1.81281
G1 X145.430 Y163.430 E0.00358
G1 X145.011 Y163.430 E0.01316
G1 X104.570 Y122.989 E1.79420
G1 X104.570 Y123.523 E0.01674
G1 X144.477 Y163.430 E1.77053
G1 X143.943 Y163.430 E0.01674
G1 X104.570 Y124.056 E1.74685
G1 X104.570 Y124.590 E0.01674
G1 X143.410 Y163.430 E1.72318
G1 X142.876 Y163.430 E0.01674
G1 X104.570 Y125.124 E1.69951
G1 X104.570 Y125.657 E0.01674
G1 X142.343 Y163.430 E1.67584
G1 X141.809 Y163.430 E0.01674
G1 X104.570 Y126.191 E1.65216
G1 X104.570 Y126.724 E0.01674
G1 X141.276 Y163.430 E1.62849
G1 X140.742 Y163.430 E0.01674
G1 X104.570 Y127.258 E1.60482
G1 X104.570 Y127.791 E0.01674
G1 X140.209 Y163.430 E1.58115
G1 X139.675 Y163.430 E0.01674
G1 X104.570 Y128.325 E1.55748
G1 X104.570 Y128.859 E0.01674
G1 X139.141 Y163.430 E1.53380
G1 X138.608 Y163.430 E0.01674
G1 X104.570 Y129.392 E1.51013
G1 X104.570 Y129.926 E0.01674
G1 X138.074 Y163.430 E1.48646
G1 X137.541 Y163.430 E0.01674
G1 X104.570 Y130.459 E1.46279
G1 X104.570 Y130.993 E0.01674
G1 X137.007 Y163.430 E1.43912
G1 X136.474 Y163.430 E0.01674
G1 X104.570 Y131.526 E1.41544
G1 X104.570 Y132.060 E0.01674
G1 X135.940 Y163.430 E1.39177
G1 X135.406 Y163.430 E0.01674
G1 X104.570 Y132.594 E1.36810
G1 X104.570 Y133.127 E0.01674
G1 X134.873 Y163.430 E1.34443
G1 X134.339 Y163.430 E0.01674
G1 X104.570 Y133.661 E1.32075
G1 X104.570 Y134.194 E0.01674
G1 X133.806 Y163.430 E1.29708
G1 X133.272 Y163.430 E0.01674
G1 X104.570 Y134.728 E1.27341
G1 X104.570 Y135.261 E0.01674
G1 X132.739 Y163.430 E1.24974
G1 X132.205 Y163.430 E0.01674
G1 X104.570 Y135.795 E1.22607
G1 X104.570 Y136.328 E0.01674
G1 X131.671 Y163.430 E1.20239
G1 X131.138 Y163.430 E0.01674
G1 X104.570 Y136.862 E1.17872
G1 X104.570 Y137.396 E0.01674
G1 X130.604 Y163.430 E1.15505
G1 X130.071 Y163.430 E0.01674
G1 X104.570 Y137.929 E1.13138
G1 X104.570 Y138.463 E0.01674
G1 X129.537 Y163.430 E1.10771
G1 X129.004 Y163.430 E0.01674
G1 X104.570 Y138.996 E1.08403
G1 X104.570 Y139.530 E0.01674
G1 X128.470 Y163.430 E1.06036
G1 X127.937 Y163.430 E0.01674
G1 X104.570 Y140.063 E1.03669
G1 X104.570 Y140.597 E0.01674
G1 X127.403 Y163.430 E1.01302
G1 X126.869 Y163.430 E0.01674
G1 X104.570 Y141.131 E0.98934
G1 X104.570 Y141.664 E0.01674
G1 X126.336 Y163.430 E0.96567
G1 X125.802 Y163.430 E0.01674
G1 X104.570 Y142.198 E0.94200
G1 X104.570 Y142.731 E0.01674
G1 X125.269 Y163.430 E0.91833
G1 X124.735 Y163.430 E0.01674
G1 X104.570 Y143.265 E0.89466
G1 X104.570 Y143.798 E0.01674
G1 X124.202 Y163.430 E0.87098
G1 X123.668 Y163.430 E0.01674
G1 X104.570 Y144.332 E0.84731
G1 X104.570 Y144.866 E0.01674
G1 X123.134 Y163.430 E0.82364
G1 X122.601 Y163.430 E0.01674
G1 X104.570 Y145.399 E0.79997
G1 X104.570 Y145.933 E0.01674
G1 X122.067 Y163.430 E0.77629
G1 X121.534 Y163.430 E0.01674
G1 X104.570 Y146.466 E0.75262
G1 X104.570 Y147.000 E0.01674
G1 X121.000 Y163.430 E0.72895
G1 X120.467 Y163.430 E0.01674
G1 X104.570 Y147.533 E0.70528
G1 X104.570 Y148.067 E0.01674
G1 X119.933 Y163.430 E0.68161
G1 X119.400 Y163.430 E0.01674
G1 X104.570 Y148.600 E0.65793
G1 X104.570 Y149.134 E0.01674
G1 X118.866 Y163.430 E0.63426
G1 X118.332 Y163.430 E0.01674
G1 X104.570 Y149.668 E0.61059
G1 X104.570 Y150.201 E0.01674
G1 X117.799 Y163.430 E0.58692
G1 X117.265 Y163.430 E0.01674
G1 X104.570 Y150.735 E0.56325
G1 X104.570 Y151.268 E0.01674
G1 X116.732 Y163.430 E0.53957
G1 X116.198 Y163.430 E0.01674
G1 X104.570 Y151.802 E0.51590
G1 X104.570 Y152.335 E0.01674
G1 X115.665 Y163.430 E0.49223
G1 X115.131 Y163.430 E0.01674
G1 X104.570 Y152.869 E0.46856
G1 X104.570 Y153.403 E0.01674
G1 X114.597 Y163.430 E0.44488
G1 X114.064 Y163.430 E0.01674
G1 X104.570 Y153.936 E0.42121
G1 X104.570 Y154.470 E0.01674
G1 X113.530 Y163.430 E0.39754
G1 X112.997 Y163.430 E0.01674
G1 X104.570 Y155.003 E0.37387
G1 X104.570 Y155.537 E0.01674
G1 X112.463 Y163.430 E0.35020
G1 X111.930 Y163.430 E0.01674
G1 X104.570 Y156.070 E0.32652
G1 X104.570 Y156.604 E0.01674
G1 X111.396 Y163.430 E0.30285
G1 X110.862 Y163.430 E0.01674
G1 X104.570 Y157.137 E0.27918
G1 X104.570 Y157.671 E0.01674
G1 X110.329 Y163.430 E0.25551
G1 X109.795 Y163.430 E0.01674
G1 X104.570 Y158.205 E0.23184
G1 X104.570 Y158.738 E0.01674
G1 X109.262 Y163.430 E0.20816
G1 X108.728 Y163.430 E0.01674
G1 X104.570 Y159.272 E0.18449
G1 X104.570 Y159.805 E0.01674
G1 X108.195 Y163.430 E0.16082
G1 X107.661 Y163.430 E0.01674
G1 X104.570 Y160.339 E0.13715
G1 X104.570 Y160.872 E0.01674
G1 X107.128 Y163.430 E0.11347
G1 X106.594 Y163.430 E0.01674
G1 X104.570 Y161.406 E0.08980
G1 X104.570 Y161.940 E0.01674
G1 X106.060 Y163.430 E0.06613
G1 X105.527 Y163.430 E0.01674
G1 X104.570 Y162.473 E0.04246
G1 X104.570 Y163.007 E0.01674
G1 X105.163 Y163.600 E0.02631
G1 F8640
G1 X104.570 Y163.007 E-0.19368
G1 X104.570 Y162.473 E-0.12320
G1 X105.527 Y163.430 E-0.31250
G1 X106.060 Y163.430 E-0.12320
G1 X106.038 Y163.407 E-0.00741
G1 E-0.04000 F2100.00000
G1 Z0.800 F10800.000
G1 X104.287 Y100.213
G1 Z0.200
G1 E0.80000 F2100.00000
G1 F1200
G1 X104.287 Y46.287 E1.69081
G1 X145.713 Y46.287 E1.29888
G1 X145.713 Y100.213 E1.69081
G1 X104.347 Y100.213 E1.29700
G1 X103.910 Y100.590 F10800.000
G1 F1200
G1 X103.910 Y45.910 E1.71445
G1 X146.090 Y45.910 E1.32252
G1 X146.090 Y100.590 E1.71445
G1 X103.970 Y100.590 E1.32064
G1 X103.997 Y100.200 F10800.000
G1 F8640
G1 X103.966 Y97.299 E-0.76000
G1 E-0.04000 F2100.00000
G1 Z0.800 F10800.000
G1 X105.163 Y100.100
G1 Z0.200
G1 E0.80000 F2100.00000
G1 F1200
G1 X104.570 Y99.507 E0.02631
G1 X104.570 Y98.973 E0.01674
G1 X105.527 Y99.930 E0.04246
G1 X106.060 Y99.930 E0.01674
G1 X104.570 Y98.440 E0.06613
G1 X104.570 Y97.906 E0.01674
G1 X106.594 Y99.930 E0.08980
G1 X107.128 Y99.930 E0.01674
G1 X104.570 Y97.372 E0.11347
G1 X104.570 Y96.839 E0.01674
G1 X107.661 Y99.930 E0.13715
G1 X108.195 Y99.930 E0.01674
G1 X104.570 Y96.305 E0.16082
G1 X104.570 Y95.772 E0.01674
G1 X108.728 Y99.930 E0.18449
G1 X109.262 Y99.930 E0.01674
G1 X104.570 Y95.238 E0.20816
G1 X104.570 Y94.705 E0.01674
G1 X109.795 Y99.930 E0.23184
G1 X110.329 Y99.930 E0.01674
G1 X104.570 Y94.171 E0.25551
G1 X104.570 Y93.637 E0.01674
G1 X110.862 Y99.930 E0.27918
G1 X111.396 Y99.930 E0.01674
G1 X104.570 Y93.104 E0.30285
G1 X104.570 Y92.570 E0.01674
G1 X111.930 Y99.930 E0.32652
G1 X112.463 Y99.930 E0.01674
G1 X104.570 Y92.037 E0.35020
G1 X104.570 Y91.503 E0.01674
G1 X112.997 Y99.930 E0.37387
G1 X113.530 Y99.930 E0.01674
G1 X104.570 Y90.970 E0.39754
G1 X104.570 Y90.436 E0.01674
G1 X114.064 Y99.930 E0.42121
G1 X114.597 Y99.930 E0.01674
G1 X104.570 Y89.903 E0.44488
G1 X104.570 Y89.369 E0.01674
G1 X115.131 Y99.930 E0.46856
G1 X115.665 Y99.930 E0.01674
G1 X104.570 Y88.835 E0.49223
G1 X104.570 Y88.302 E0.01674
G1 X116.198 Y99.930 E0.51590
G1 X116.732 Y99.930 E0.01674
G1 X104.570 Y87.768 E0.53957
G1 X104.570 Y87.235 E0.01674
G1 X117.265 Y99.930 E0.56325
G1 X117.799 Y99.930 E0.01674
G1 X104.570 Y86.701 E0.58692
G1 X104.570 Y86.168 E0.01674
G1 X118.332 Y99.930 E0.61059
G1 X118.866 Y99.930 E0.01674
G1 X104.570 Y85.634 E0.63426
G1 X104.570 Y85.100 E0.01674
G1 X119.400 Y99.930 E0.65793
G1 X119.933 Y99.930 E0.01674
G1 X104.570 Y84.567 E0.68161
G1 X104.570 Y84.033 E0.01674
G1 X120.467 Y99.930 E0.70528
G1 X121.000 Y99.930 E0.01674
G1 X104.570 Y83.500 E0.72895
G1 X104.570 Y82.966 E0.01674
G1 X121.534 Y99.930 E0.75262
