; G-Code generated by Simplify3D(R) Version 4.1.0
; Nov 13, 2018 at 3:37:52 PM
; Settings Summary
;   processName,Process1
;   applyToModels,l8_w4_h2
;   profileName,Original Prusa i3 MK2 RC4 (modified)
;   profileVersion,2018-05-30 21:28:57
;   baseProfile,Prusa Mendel (modified)
;   printMaterial,PLA
;   printQuality,NORMAL 0.2mm
;   printExtruders,
;   extruderName,Primary Extruder
;   extruderToolheadNumber,0
;   extruderDiameter,0.4
;   extruderAutoWidth,0
;   extruderWidth,0.45
;   extrusionMultiplier,1
;   extruderUseRetract,1
;   extruderRetractionDistance,0.8
;   extruderExtraRestartDistance,0
;   extruderRetractionZLift,0
;   extruderRetractionSpeed,1800
;   extruderUseCoasting,1
;   extruderCoastingDistance,0.2
;   extruderUseWipe,1
;   extruderWipeDistance,2
;   primaryExtruder,0
;   layerHeight,0.2
;   topSolidLayers,3
;   bottomSolidLayers,3
;   perimeterOutlines,2
;   printPerimetersInsideOut,1
;   startPointOption,2
;   startPointOriginX,0
;   startPointOriginY,0
;   sequentialIslands,0
;   spiralVaseMode,0
;   firstLayerHeightPercentage,100
;   firstLayerWidthPercentage,95
;   firstLayerUnderspeed,0.6
;   useRaft,0
;   raftExtruder,0
;   raftTopLayers,3
;   raftBaseLayers,2
;   raftOffset,3
;   raftSeparationDistance,0.14
;   raftTopInfill,100
;   aboveRaftSpeedMultiplier,0.3
;   useSkirt,1
;   skirtExtruder,0
;   skirtLayers,1
;   skirtOutlines,1
;   skirtOffset,1.8
;   usePrimePillar,0
;   primePillarExtruder,999
;   primePillarWidth,12
;   primePillarLocation,7
;   primePillarSpeedMultiplier,1
;   useOozeShield,0
;   oozeShieldExtruder,999
;   oozeShieldOffset,2
;   oozeShieldOutlines,1
;   oozeShieldSidewallShape,1
;   oozeShieldSidewallAngle,30
;   oozeShieldSpeedMultiplier,1
;   infillExtruder,0
;   internalInfillPattern,Grid
;   externalInfillPattern,Rectilinear
;   infillPercentage,20
;   outlineOverlapPercentage,21
;   infillExtrusionWidthPercentage,100
;   minInfillLength,2
;   infillLayerInterval,1
;   internalInfillAngles,45,-45
;   overlapInternalInfillAngles,1
;   externalInfillAngles,45,-45
;   generateSupport,0
;   supportExtruder,0
;   supportInfillPercentage,30
;   supportExtraInflation,1.4
;   supportBaseLayers,0
;   denseSupportExtruder,0
;   denseSupportLayers,0
;   denseSupportInfillPercentage,70
;   supportLayerInterval,1
;   supportHorizontalPartOffset,0.2
;   supportUpperSeparationLayers,1
;   supportLowerSeparationLayers,1
;   supportType,0
;   supportGridSpacing,4
;   maxOverhangAngle,45
;   supportAngles,0
;   temperatureName,Primary Extruder,Heated Bed
;   temperatureNumber,0,1
;   temperatureSetpointCount,2,1
;   temperatureSetpointLayers,1,2,1
;   temperatureSetpointTemperatures,220,215,60
;   temperatureStabilizeAtStartup,1,1
;   temperatureHeatedBed,0,1
;   fanLayers,1,2
;   fanSpeeds,0,100
;   blipFanToFullPower,1
;   adjustSpeedForCooling,1
;   minSpeedLayerTime,15
;   minCoolingSpeedSlowdown,5
;   increaseFanForCooling,0
;   minFanLayerTime,45
;   maxCoolingFanSpeed,100
;   increaseFanForBridging,1
;   bridgingFanSpeed,100
;   use5D,1
;   relativeEdistances,1
;   allowEaxisZeroing,1
;   independentExtruderAxes,0
;   includeM10123,0
;   stickySupport,1
;   applyToolheadOffsets,0
;   gcodeXoffset,0
;   gcodeYoffset,0
;   gcodeZoffset,0
;   overrideMachineDefinition,1
;   machineTypeOverride,0
;   strokeXoverride,250
;   strokeYoverride,210
;   strokeZoverride,200
;   originOffsetXoverride,0
;   originOffsetYoverride,0
;   originOffsetZoverride,0
;   homeXdirOverride,-1
;   homeYdirOverride,-1
;   homeZdirOverride,-1
;   flipXoverride,1
;   flipYoverride,-1
;   flipZoverride,1
;   toolheadOffsets,0,0|0,0|0,0|0,0|0,0|0,0
;   overrideFirmwareConfiguration,0
;   firmwareTypeOverride,RepRap (Marlin/Repetier/Sprinter)
;   GPXconfigOverride,r2
;   baudRateOverride,250000
;   overridePrinterModels,1
;   printerModelsOverride
;   startingGcode,M115 U3.0.7 ; tell the printer latest firmware varsion available,G28 W ; home all without mesh bed level,G80 ; mesh bed leveling,G1 Y-3.0 F1000.0 ; go outside printing area,G1 X60.0 E9.0  F1000.0 ; intro line,G1 X100.0 E12.5  F1000.0 ; intro line
;   layerChangeGcode,
;   retractionGcode,
;   toolChangeGcode,
;   endingGcode,M104 S0 ; turn off temperature,M140 S0 ; turn off heatbed,M107 ; turn off fan,G1 X0 Y200; home X axis,M84 ; disable motors
;   exportFileFormat,gcode
;   celebration,0
;   celebrationSong,Random Song
;   postProcessing,{REPLACE "; outer perimeter\n" "; outer perimeter\nM204 S600\n"},{REPLACE "; inner perimeter\n" "; inner perimeter\nM204 S1200\n"},{REPLACE "; solid layer\n" "; solid layer\nM204 S1500\n"},{REPLACE "; infill\n" "; infill\nM204 S2000\n"}
;   defaultSpeed,2400
;   outlineUnderspeed,0.8
;   solidInfillUnderspeed,0.8
;   supportUnderspeed,0.8
;   rapidXYspeed,4800
;   rapidZspeed,1000
;   minBridgingArea,50
;   bridgingExtraInflation,1
;   bridgingExtrusionMultiplier,1
;   bridgingSpeedMultiplier,1
;   useFixedBridgingAngle,0
;   fixedBridgingAngle,0
;   applyBridgingToPerimeters,0
;   filamentDiameters,1.75|1.75|1.75|1.75|1.75|1.75
;   filamentPricesPerKg,215|215|215|215|215|215
;   filamentDensities,1.25|1.25|1.25|1.25|1.25|1.25
;   useMinPrintHeight,0
;   minPrintHeight,0
;   useMaxPrintHeight,0
;   maxPrintHeight,0
;   useDiaphragm,0
;   diaphragmLayerInterval,20
;   robustSlicing,1
;   mergeAllIntoSolid,0
;   onlyRetractWhenCrossingOutline,0
;   retractBetweenLayers,1
;   useRetractionMinTravel,1
;   retractionMinTravel,3
;   retractWhileWiping,1
;   onlyWipeOutlines,1
;   avoidCrossingOutline,0
;   maxMovementDetourFactor,3
;   toolChangeRetractionDistance,12
;   toolChangeExtraRestartDistance,-0.5
;   toolChangeRetractionSpeed,600
;   externalThinWallType,0
;   internalThinWallType,2
;   thinWallAllowedOverlapPercentage,25
;   singleExtrusionMinLength,1
;   singleExtrusionMinPrintingWidthPercentage,50
;   singleExtrusionMaxPrintingWidthPercentage,200
;   singleExtrusionEndpointExtension,0.2
;   horizontalSizeCompensation,0
G90
M83
M106 S0
M140 S60
M190 S60
M104 S220 T0
M109 S220 T0
M115 U3.0.7 ; tell the printer latest firmware varsion available
G28 W ; home all without mesh bed level
G80 ; mesh bed leveling
G1 Y-3.0 F1000.0 ; go outside printing area
G1 X60.0 E9.0  F1000.0 ; intro line
G1 X100.0 E12.5  F1000.0 ; intro line
; process Process1
; layer 1, Z = 0.200
T0
G1 E-0.8000 F1800
; feature skirt
; tool H0.200 W0.428
G1 Z0.200 F1000
G1 X100.486 Y75.416 F4800
G1 E0.8000 F1800
G1 X101.666 Y74.236 E0.0593 F1440
G1 X148.334 Y74.236 E1.6589
G1 X149.514 Y75.416 E0.0593
G1 X149.514 Y134.584 E2.1032
G1 X148.334 Y135.764 E0.0593
G1 X101.666 Y135.764 E1.6589
G1 X100.486 Y134.584 E0.0593
G1 X100.486 Y75.416 E2.1032
G1 E-0.8000 F1800
; feature inner perimeter
G1 X103.141 Y76.891 F4800
G1 E0.8000 F1800
G1 X146.859 Y76.891 E1.5540 F1296
G1 X146.859 Y133.109 E1.9984
G1 X103.141 Y133.109 E1.5540
G1 X103.141 Y77.091 E1.9912
G1 X103.141 Y76.891 F1296
; feature outer perimeter
G1 X102.714 Y76.464 F4800
G1 X147.286 Y76.464 E1.5844 F1152
G1 X147.286 Y133.536 E2.0287
G1 X102.714 Y133.536 E1.5844
G1 X102.714 Y76.664 E2.0216
G1 X102.714 Y76.464 F1152
G1 X103.226 Y76.464 E-0.8000 F1152
G1 X104.714 Y76.464 F1152
; feature solid layer
G1 X146.200 Y77.229 F4800
G1 E0.8000 F1800
G1 X146.521 Y77.550 E0.0162 F1152
G1 X146.521 Y78.155 E0.0215
G1 X145.595 Y77.229 E0.0465
G1 X144.991 Y77.229 E0.0215
G1 X146.521 Y78.759 E0.0769
G1 X146.521 Y79.364 E0.0215
G1 X144.386 Y77.229 E0.1073
G1 X143.781 Y77.229 E0.0215
G1 X146.521 Y79.969 E0.1377
G1 X146.521 Y80.573 E0.0215
G1 X143.177 Y77.229 E0.1681
G1 X142.572 Y77.229 E0.0215
G1 X146.521 Y81.178 E0.1985
G1 X146.521 Y81.782 E0.0215
G1 X141.968 Y77.229 E0.2289
G1 X141.363 Y77.229 E0.0215
G1 X146.521 Y82.387 E0.2593
G1 X146.521 Y82.992 E0.0215
G1 X140.758 Y77.229 E0.2897
G1 X140.154 Y77.229 E0.0215
G1 X146.521 Y83.596 E0.3201
G1 X146.521 Y84.201 E0.0215
G1 X139.549 Y77.229 E0.3505
G1 X138.945 Y77.229 E0.0215
G1 X146.521 Y84.805 E0.3809
G1 X146.521 Y85.410 E0.0215
G1 X138.340 Y77.229 E0.4113
G1 X137.736 Y77.229 E0.0215
G1 X146.521 Y86.014 E0.4416
G1 X146.521 Y86.619 E0.0215
G1 X137.131 Y77.229 E0.4720
G1 X136.526 Y77.229 E0.0215
G1 X146.521 Y87.224 E0.5024
G1 X146.521 Y87.828 E0.0215
G1 X135.922 Y77.229 E0.5328
G1 X135.317 Y77.229 E0.0215
G1 X146.521 Y88.433 E0.5632
G1 X146.521 Y89.037 E0.0215
G1 X134.713 Y77.229 E0.5936
G1 X134.108 Y77.229 E0.0215
G1 X146.521 Y89.642 E0.6240
G1 X146.521 Y90.246 E0.0215
G1 X133.504 Y77.229 E0.6544
G1 X132.899 Y77.229 E0.0215
G1 X146.521 Y90.851 E0.6848
G1 X146.521 Y91.456 E0.0215
G1 X132.294 Y77.229 E0.7152
G1 X131.690 Y77.229 E0.0215
G1 X146.521 Y92.060 E0.7456
G1 X146.521 Y92.665 E0.0215
G1 X131.085 Y77.229 E0.7760
G1 X130.481 Y77.229 E0.0215
G1 X146.521 Y93.269 E0.8064
G1 X146.521 Y93.874 E0.0215
G1 X129.876 Y77.229 E0.8368
G1 X129.272 Y77.229 E0.0215
G1 X146.521 Y94.478 E0.8671
G1 X146.521 Y95.083 E0.0215
G1 X128.667 Y77.229 E0.8975
G1 X128.062 Y77.229 E0.0215
G1 X146.521 Y95.688 E0.9279
G1 X146.521 Y96.292 E0.0215
G1 X127.458 Y77.229 E0.9583
G1 X126.853 Y77.229 E0.0215
G1 X146.521 Y96.897 E0.9887
G1 X146.521 Y97.501 E0.0215
G1 X126.249 Y77.229 E1.0191
G1 X125.644 Y77.229 E0.0215
G1 X146.521 Y98.106 E1.0495
G1 X146.521 Y98.711 E0.0215
G1 X125.040 Y77.229 E1.0799
G1 X124.435 Y77.229 E0.0215
G1 X146.521 Y99.315 E1.1103
G1 X146.521 Y99.920 E0.0215
G1 X123.830 Y77.229 E1.1407
G1 X123.226 Y77.229 E0.0215
G1 X146.521 Y100.524 E1.1711
G1 X146.521 Y101.129 E0.0215
G1 X122.621 Y77.229 E1.2015
G1 X122.017 Y77.229 E0.0215
G1 X146.521 Y101.733 E1.2319
G1 X146.521 Y102.338 E0.0215
G1 X121.412 Y77.229 E1.2622
G1 X120.807 Y77.229 E0.0215
G1 X146.521 Y102.943 E1.2926
G1 X146.521 Y103.547 E0.0215
G1 X120.203 Y77.229 E1.3230
G1 X119.598 Y77.229 E0.0215
G1 X146.521 Y104.152 E1.3534
G1 X146.521 Y104.756 E0.0215
G1 X118.994 Y77.229 E1.3838
G1 X118.389 Y77.229 E0.0215
G1 X146.521 Y105.361 E1.4142
G1 X146.521 Y105.965 E0.0215
G1 X117.785 Y77.229 E1.4446
G1 X117.180 Y77.229 E0.0215
G1 X146.521 Y106.570 E1.4750
G1 X146.521 Y107.175 E0.0215
G1 X116.575 Y77.229 E1.5054
G1 X115.971 Y77.229 E0.0215
G1 X146.521 Y107.779 E1.5358
G1 X146.521 Y108.384 E0.0215
G1 X115.366 Y77.229 E1.5662
G1 X114.762 Y77.229 E0.0215
G1 X146.521 Y108.988 E1.5966
G1 X146.521 Y109.593 E0.0215
G1 X114.157 Y77.229 E1.6270
G1 X113.553 Y77.229 E0.0215
G1 X146.521 Y110.197 E1.6573
G1 X146.521 Y110.802 E0.0215
G1 X112.948 Y77.229 E1.6877
G1 X112.343 Y77.229 E0.0215
G1 X146.521 Y111.407 E1.7181
G1 X146.521 Y112.011 E0.0215
G1 X111.739 Y77.229 E1.7485
G1 X111.134 Y77.229 E0.0215
G1 X146.521 Y112.616 E1.7789
G1 X146.521 Y113.220 E0.0215
G1 X110.530 Y77.229 E1.8093
G1 X109.925 Y77.229 E0.0215
G1 X146.521 Y113.825 E1.8397
G1 X146.521 Y114.429 E0.0215
G1 X109.321 Y77.229 E1.8701
G1 X108.716 Y77.229 E0.0215
G1 X146.521 Y115.034 E1.9005
G1 X146.521 Y115.639 E0.0215
G1 X108.111 Y77.229 E1.9309
G1 X107.507 Y77.229 E0.0215
G1 X146.521 Y116.243 E1.9613
G1 X146.521 Y116.848 E0.0215
G1 X106.902 Y77.229 E1.9917
G1 X106.298 Y77.229 E0.0215
G1 X146.521 Y117.452 E2.0221
G1 X146.521 Y118.057 E0.0215
G1 X105.693 Y77.229 E2.0525
G1 X105.088 Y77.229 E0.0215
G1 X146.521 Y118.662 E2.0828
G1 X146.521 Y119.266 E0.0215
G1 X104.484 Y77.229 E2.1132
G1 X103.879 Y77.229 E0.0215
G1 X146.521 Y119.871 E2.1436
G1 X146.521 Y120.475 E0.0215
G1 X103.479 Y77.433 E2.1638
G1 X103.479 Y78.038 E0.0215
G1 X146.521 Y121.080 E2.1638
G1 X146.521 Y121.684 E0.0215
G1 X103.479 Y78.642 E2.1638
G1 X103.479 Y79.247 E0.0215
G1 X146.521 Y122.289 E2.1638
G1 X146.521 Y122.894 E0.0215
G1 X103.479 Y79.852 E2.1638
G1 X103.479 Y80.456 E0.0215
G1 X146.521 Y123.498 E2.1638
G1 X146.521 Y124.103 E0.0215
G1 X103.479 Y81.061 E2.1638
G1 X103.479 Y81.665 E0.0215
G1 X146.521 Y124.707 E2.1638
G1 X146.521 Y125.312 E0.0215
G1 X103.479 Y82.270 E2.1638
G1 X103.479 Y82.874 E0.0215
G1 X146.521 Y125.916 E2.1638
G1 X146.521 Y126.521 E0.0215
G1 X103.479 Y83.479 E2.1638
G1 X103.479 Y84.084 E0.0215
G1 X146.521 Y127.126 E2.1638
G1 X146.521 Y127.730 E0.0215
G1 X103.479 Y84.688 E2.1638
G1 X103.479 Y85.293 E0.0215
G1 X146.521 Y128.335 E2.1638
G1 X146.521 Y128.939 E0.0215
G1 X103.479 Y85.897 E2.1638
G1 X103.479 Y86.502 E0.0215
G1 X146.521 Y129.544 E2.1638
G1 X146.521 Y130.148 E0.0215
G1 X103.479 Y87.106 E2.1638
G1 X103.479 Y87.711 E0.0215
G1 X146.521 Y130.753 E2.1638
G1 X146.521 Y131.358 E0.0215
G1 X103.479 Y88.316 E2.1638
G1 X103.479 Y88.920 E0.0215
G1 X146.521 Y131.962 E2.1638
G1 X146.521 Y132.567 E0.0215
G1 X103.479 Y89.525 E2.1638
G1 X103.479 Y90.129 E0.0215
G1 X146.121 Y132.771 E2.1436
G1 X145.516 Y132.771 E0.0215
G1 X103.479 Y90.734 E2.1132
G1 X103.479 Y91.338 E0.0215
G1 X144.912 Y132.771 E2.0828
G1 X144.307 Y132.771 E0.0215
G1 X103.479 Y91.943 E2.0525
G1 X103.479 Y92.548 E0.0215
G1 X143.702 Y132.771 E2.0221
G1 X143.098 Y132.771 E0.0215
G1 X103.479 Y93.152 E1.9917
G1 X103.479 Y93.757 E0.0215
G1 X142.493 Y132.771 E1.9613
G1 X141.889 Y132.771 E0.0215
G1 X103.479 Y94.361 E1.9309
G1 X103.479 Y94.966 E0.0215
G1 X141.284 Y132.771 E1.9005
G1 X140.680 Y132.771 E0.0215
G1 X103.479 Y95.570 E1.8701
G1 X103.479 Y96.175 E0.0215
G1 X140.075 Y132.771 E1.8397
G1 X139.470 Y132.771 E0.0215
G1 X103.479 Y96.780 E1.8093
G1 X103.479 Y97.384 E0.0215
G1 X138.866 Y132.771 E1.7789
G1 X138.261 Y132.771 E0.0215
G1 X103.479 Y97.989 E1.7485
G1 X103.479 Y98.593 E0.0215
G1 X137.657 Y132.771 E1.7181
G1 X137.052 Y132.771 E0.0215
G1 X103.479 Y99.198 E1.6877
G1 X103.479 Y99.803 E0.0215
G1 X136.447 Y132.771 E1.6574
G1 X135.843 Y132.771 E0.0215
G1 X103.479 Y100.407 E1.6270
G1 X103.479 Y101.012 E0.0215
G1 X135.238 Y132.771 E1.5966
G1 X134.634 Y132.771 E0.0215
G1 X103.479 Y101.616 E1.5662
G1 X103.479 Y102.221 E0.0215
G1 X134.029 Y132.771 E1.5358
G1 X133.425 Y132.771 E0.0215
G1 X103.479 Y102.825 E1.5054
G1 X103.479 Y103.430 E0.0215
G1 X132.820 Y132.771 E1.4750
G1 X132.215 Y132.771 E0.0215
G1 X103.479 Y104.035 E1.4446
G1 X103.479 Y104.639 E0.0215
G1 X131.611 Y132.771 E1.4142
G1 X131.006 Y132.771 E0.0215
G1 X103.479 Y105.244 E1.3838
G1 X103.479 Y105.848 E0.0215
G1 X130.402 Y132.771 E1.3534
G1 X129.797 Y132.771 E0.0215
G1 X103.479 Y106.453 E1.3230
G1 X103.479 Y107.057 E0.0215
G1 X129.193 Y132.771 E1.2926
G1 X128.588 Y132.771 E0.0215
G1 X103.479 Y107.662 E1.2622
G1 X103.479 Y108.267 E0.0215
G1 X127.983 Y132.771 E1.2319
G1 X127.379 Y132.771 E0.0215
G1 X103.479 Y108.871 E1.2015
G1 X103.479 Y109.476 E0.0215
G1 X126.774 Y132.771 E1.1711
G1 X126.170 Y132.771 E0.0215
G1 X103.479 Y110.080 E1.1407
G1 X103.479 Y110.685 E0.0215
G1 X125.565 Y132.771 E1.1103
G1 X124.961 Y132.771 E0.0215
G1 X103.479 Y111.289 E1.0799
G1 X103.479 Y111.894 E0.0215
G1 X124.356 Y132.771 E1.0495
G1 X123.751 Y132.771 E0.0215
G1 X103.479 Y112.499 E1.0191
G1 X103.479 Y113.103 E0.0215
G1 X123.147 Y132.771 E0.9887
G1 X122.542 Y132.771 E0.0215
G1 X103.479 Y113.708 E0.9583
G1 X103.479 Y114.312 E0.0215
G1 X121.938 Y132.771 E0.9279
G1 X121.333 Y132.771 E0.0215
G1 X103.479 Y114.917 E0.8975
G1 X103.479 Y115.522 E0.0215
G1 X120.728 Y132.771 E0.8671
G1 X120.124 Y132.771 E0.0215
G1 X103.479 Y116.126 E0.8368
G1 X103.479 Y116.731 E0.0215
G1 X119.519 Y132.771 E0.8064
G1 X118.915 Y132.771 E0.0215
G1 X103.479 Y117.335 E0.7760
G1 X103.479 Y117.940 E0.0215
G1 X118.310 Y132.771 E0.7456
G1 X117.706 Y132.771 E0.0215
G1 X103.479 Y118.544 E0.7152
G1 X103.479 Y119.149 E0.0215
G1 X117.101 Y132.771 E0.6848
G1 X116.496 Y132.771 E0.0215
G1 X103.479 Y119.754 E0.6544
G1 X103.479 Y120.358 E0.0215
G1 X115.892 Y132.771 E0.6240
G1 X115.287 Y132.771 E0.0215
G1 X103.479 Y120.963 E0.5936
G1 X103.479 Y121.567 E0.0215
G1 X114.683 Y132.771 E0.5632
G1 X114.078 Y132.771 E0.0215
G1 X103.479 Y122.172 E0.5328
G1 X103.479 Y122.776 E0.0215
G1 X113.474 Y132.771 E0.5024
G1 X112.869 Y132.771 E0.0215
G1 X103.479 Y123.381 E0.4720
G1 X103.479 Y123.986 E0.0215
G1 X112.264 Y132.771 E0.4417
G1 X111.660 Y132.771 E0.0215
G1 X103.479 Y124.590 E0.4113
G1 X103.479 Y125.195 E0.0215
G1 X111.055 Y132.771 E0.3809
G1 X110.451 Y132.771 E0.0215
G1 X103.479 Y125.799 E0.3505
G1 X103.479 Y126.404 E0.0215
G1 X109.846 Y132.771 E0.3201
G1 X109.242 Y132.771 E0.0215
G1 X103.479 Y127.008 E0.2897
