; generated by Slic3r Prusa Edition 1.41.0+ on 2018-11-21 at 16:41:51

; 

; external perimeters extrusion width = 0.45mm
; perimeters extrusion width = 0.45mm
; infill extrusion width = 0.45mm
; solid infill extrusion width = 0.45mm
; top infill extrusion width = 0.40mm
; first layer extrusion width = 0.42mm

M201 X1000 Y1000 Z1000 E5000 ; sets maximum accelerations, mm/sec^2
M203 X200 Y200 Z12 E120 ; sets maximum feedrates, mm/sec
M204 P1250 R1250 T1250 ; sets acceleration (P, T) and retract acceleration (R), mm/sec^2
M205 X8.00 Y8.00 Z0.40 E1.50 ; sets the jerk limits, mm/sec
M205 S0 T0 ; sets the minimum extruding and travel feed rate, mm/sec
M107
M115 U3.4.1 ; tell printer latest fw version
M83  ; extruder relative mode
M104 S220 ; set extruder temp
M140 S60 ; set bed temp
M190 S60 ; wait for bed temp
M109 S220 ; wait for extruder temp
G28 W ; home all without mesh bed level
G80 ; mesh bed leveling
G1 Y-3.0 F1000.0 ; go outside print area
G92 E0.0
G1 X60.0 E9.0  F1000.0 ; intro line
M73 Q0 S184
M73 P0 R183
G1 X100.0 E12.5  F1000.0 ; intro line
G92 E0.0
M221 S95
M900 K30; Filament gcode
G21 ; set units to millimeters
G90 ; use absolute coordinates
M83 ; use relative distances for extrusion
;BEFORE_LAYER_CHANGE
G92 E0.0
;0.2


G1 E-0.80000 F2100.00000
G1 Z0.600 F10800.000
;AFTER_LAYER_CHANGE
;0.2
G1 X102.925 Y17.903
G1 Z0.200
G1 E0.80000 F2100.00000
M204 S1000
G1 F1200
G1 X103.617 Y17.763 E0.02213
G1 X146.304 Y17.761 E1.33840
G1 X147.134 Y17.926 E0.02653
G1 X147.839 Y18.394 E0.02653
G1 X148.314 Y19.094 E0.02653
G1 X148.488 Y19.922 E0.02653
G1 X148.489 Y190.050 E5.33424
G1 X148.425 Y190.575 E0.01658
G1 X148.149 Y191.221 E0.02202
G1 X147.680 Y191.748 E0.02213
G1 X147.068 Y192.099 E0.02213
G1 X146.379 Y192.237 E0.02202
G1 X103.696 Y192.239 E1.33828
G1 X103.175 Y192.175 E0.01646
G1 X102.514 Y191.889 E0.02259
G1 X101.983 Y191.407 E0.02247
G1 X101.637 Y190.780 E0.02247
G1 X101.512 Y190.070 E0.02259
G1 X101.511 Y19.950 E5.33401
G1 X101.575 Y19.425 E0.01658
G1 X101.851 Y18.779 E0.02202
G1 X102.317 Y18.254 E0.02202
G1 X102.874 Y17.933 E0.02014
; PURGING FINISHED
G1 F8640
G1 X103.617 Y17.763 E-0.17620
G1 X106.146 Y17.763 E-0.58380
G1 E-0.04000 F2100.00000
G1 Z0.800 F10800.000
G1 X104.287 Y20.537
G1 Z0.200
G1 E0.80000 F2100.00000
G1 F1200
G1 X145.713 Y20.537 E1.29888
G1 X145.713 Y189.463 E5.29655
G1 X104.287 Y189.463 E1.29888
G1 X104.287 Y20.597 E5.29467
G1 X103.910 Y20.160 F10800.000
G1 F1200
G1 X146.090 Y20.160 E1.32252
G1 X146.090 Y189.840 E5.32020
G1 X103.910 Y189.840 E1.32252
G1 X103.910 Y20.220 E5.31832
M73 Q0 S182
M73 P0 R182
G1 X104.271 Y20.331 F10800.000
G1 F8640
G1 X107.201 Y20.215 E-0.76000
G1 E-0.04000 F2100.00000
G1 Z0.800 F10800.000
G1 X145.600 Y21.414
G1 Z0.200
G1 E0.80000 F2100.00000
G1 F1200
G1 X145.006 Y20.820 E0.02639
G1 X144.471 Y20.820 E0.01678
G1 X145.430 Y21.779 E0.04259
G1 X145.430 Y22.313 E0.01678
G1 X143.937 Y20.820 E0.06633
G1 X143.403 Y20.820 E0.01678
G1 X145.430 Y22.847 E0.09006
G1 X145.430 Y23.381 E0.01678
G1 X142.869 Y20.820 E0.11380
G1 X142.334 Y20.820 E0.01678
G1 X145.430 Y23.916 E0.13754
G1 X145.430 Y24.450 E0.01678
G1 X141.800 Y20.820 E0.16127
G1 X141.266 Y20.820 E0.01678
G1 X145.430 Y24.984 E0.18501
G1 X145.430 Y25.519 E0.01678
G1 X140.731 Y20.820 E0.20874
G1 X140.197 Y20.820 E0.01678
G1 X145.430 Y26.053 E0.23248
G1 X145.430 Y26.587 E0.01678
G1 X139.663 Y20.820 E0.25622
G1 X139.129 Y20.820 E0.01678
G1 X145.430 Y27.121 E0.27995
G1 X145.430 Y27.656 E0.01678
G1 X138.594 Y20.820 E0.30369
G1 X138.060 Y20.820 E0.01678
G1 X145.430 Y28.190 E0.32743
G1 X145.430 Y28.724 E0.01678
G1 X137.526 Y20.820 E0.35116
G1 X136.991 Y20.820 E0.01678
G1 X145.430 Y29.259 E0.37490
G1 X145.430 Y29.793 E0.01678
G1 X136.457 Y20.820 E0.39863
G1 X135.923 Y20.820 E0.01678
G1 X145.430 Y30.327 E0.42237
G1 X145.430 Y30.861 E0.01678
G1 X135.389 Y20.820 E0.44611
G1 X134.854 Y20.820 E0.01678
G1 X145.430 Y31.396 E0.46984
G1 X145.430 Y31.930 E0.01678
G1 X134.320 Y20.820 E0.49358
G1 X133.786 Y20.820 E0.01678
G1 X145.430 Y32.464 E0.51732
G1 X145.430 Y32.999 E0.01678
G1 X133.251 Y20.820 E0.54105
G1 X132.717 Y20.820 E0.01678
G1 X145.430 Y33.533 E0.56479
G1 X145.430 Y34.067 E0.01678
G1 X132.183 Y20.820 E0.58852
G1 X131.649 Y20.820 E0.01678
G1 X145.430 Y34.601 E0.61226
G1 X145.430 Y35.136 E0.01678
G1 X131.114 Y20.820 E0.63600
G1 X130.580 Y20.820 E0.01678
G1 X145.430 Y35.670 E0.65973
G1 X145.430 Y36.204 E0.01678
G1 X130.046 Y20.820 E0.68347
G1 X129.511 Y20.820 E0.01678
G1 X145.430 Y36.739 E0.70720
G1 X145.430 Y37.273 E0.01678
G1 X128.977 Y20.820 E0.73094
G1 X128.443 Y20.820 E0.01678
G1 X145.430 Y37.807 E0.75468
G1 X145.430 Y38.341 E0.01678
G1 X127.909 Y20.820 E0.77841
G1 X127.374 Y20.820 E0.01678
G1 X145.430 Y38.876 E0.80215
G1 X145.430 Y39.410 E0.01678
G1 X126.840 Y20.820 E0.82589
G1 X126.306 Y20.820 E0.01678
G1 X145.430 Y39.944 E0.84962
G1 X145.430 Y40.479 E0.01678
G1 X125.771 Y20.820 E0.87336
G1 X125.237 Y20.820 E0.01678
G1 X145.430 Y41.013 E0.89709
G1 X145.430 Y41.547 E0.01678
G1 X124.703 Y20.820 E0.92083
G1 X124.169 Y20.820 E0.01678
G1 X145.430 Y42.081 E0.94457
G1 X145.430 Y42.616 E0.01678
G1 X123.634 Y20.820 E0.96830
G1 X123.100 Y20.820 E0.01678
G1 X145.430 Y43.150 E0.99204
G1 X145.430 Y43.684 E0.01678
G1 X122.566 Y20.820 E1.01578
G1 X122.031 Y20.820 E0.01678
G1 X145.430 Y44.219 E1.03951
G1 X145.430 Y44.753 E0.01678
G1 X121.497 Y20.820 E1.06325
G1 X120.963 Y20.820 E0.01678
G1 X145.430 Y45.287 E1.08698
G1 X145.430 Y45.821 E0.01678
G1 X120.429 Y20.820 E1.11072
G1 X119.894 Y20.820 E0.01678
G1 X145.430 Y46.356 E1.13446
G1 X145.430 Y46.890 E0.01678
G1 X119.360 Y20.820 E1.15819
G1 X118.826 Y20.820 E0.01678
G1 X145.430 Y47.424 E1.18193
G1 X145.430 Y47.959 E0.01678
G1 X118.291 Y20.820 E1.20566
G1 X117.757 Y20.820 E0.01678
G1 X145.430 Y48.493 E1.22940
G1 X145.430 Y49.027 E0.01678
G1 X117.223 Y20.820 E1.25314
G1 X116.689 Y20.820 E0.01678
G1 X145.430 Y49.561 E1.27687
G1 X145.430 Y50.096 E0.01678
G1 X116.154 Y20.820 E1.30061
M73 Q1 S181
M73 P1 R181
G1 X115.620 Y20.820 E0.01678
G1 X145.430 Y50.630 E1.32435
G1 X145.430 Y51.164 E0.01678
G1 X115.086 Y20.820 E1.34808
G1 X114.551 Y20.820 E0.01678
G1 X145.430 Y51.699 E1.37182
G1 X145.430 Y52.233 E0.01678
G1 X114.017 Y20.820 E1.39555
G1 X113.483 Y20.820 E0.01678
G1 X145.430 Y52.767 E1.41929
G1 X145.430 Y53.301 E0.01678
G1 X112.949 Y20.820 E1.44303
G1 X112.414 Y20.820 E0.01678
G1 X145.430 Y53.836 E1.46676
G1 X145.430 Y54.370 E0.01678
G1 X111.880 Y20.820 E1.49050
G1 X111.346 Y20.820 E0.01678
G1 X145.430 Y54.904 E1.51424
G1 X145.430 Y55.439 E0.01678
G1 X110.811 Y20.820 E1.53797
G1 X110.277 Y20.820 E0.01678
G1 X145.430 Y55.973 E1.56171
G1 X145.430 Y56.507 E0.01678
G1 X109.743 Y20.820 E1.58544
G1 X109.209 Y20.820 E0.01678
G1 X145.430 Y57.041 E1.60918
G1 X145.430 Y57.576 E0.01678
G1 X108.674 Y20.820 E1.63292
G1 X108.140 Y20.820 E0.01678
G1 X145.430 Y58.110 E1.65665
G1 X145.430 Y58.644 E0.01678
G1 X107.606 Y20.820 E1.68039
G1 X107.071 Y20.820 E0.01678
G1 X145.430 Y59.179 E1.70413
G1 X145.430 Y59.713 E0.01678
G1 X106.537 Y20.820 E1.72786
G1 X106.003 Y20.820 E0.01678
G1 X145.430 Y60.247 E1.75160
G1 X145.430 Y60.781 E0.01678
G1 X105.469 Y20.820 E1.77533
G1 X104.934 Y20.820 E0.01678
G1 X145.430 Y61.316 E1.79907
G1 X145.430 Y61.850 E0.01678
G1 X104.570 Y20.990 E1.81526
G1 X104.570 Y21.524 E0.01678
G1 X145.430 Y62.384 E1.81526
G1 X145.430 Y62.919 E0.01678
G1 X104.570 Y22.058 E1.81526
M73 Q1 S180
M73 P1 R180
G1 X104.570 Y22.593 E0.01678
G1 X145.430 Y63.453 E1.81526
G1 X145.430 Y63.987 E0.01678
G1 X104.570 Y23.127 E1.81526
G1 X104.570 Y23.661 E0.01678
G1 X145.430 Y64.521 E1.81526
G1 X145.430 Y65.056 E0.01678
G1 X104.570 Y24.195 E1.81526
G1 X104.570 Y24.730 E0.01678
G1 X145.430 Y65.590 E1.81526
G1 X145.430 Y66.124 E0.01678
G1 X104.570 Y25.264 E1.81526
G1 X104.570 Y25.798 E0.01678
G1 X145.430 Y66.659 E1.81526
G1 X145.430 Y67.193 E0.01678
G1 X104.570 Y26.333 E1.81526
G1 X104.570 Y26.867 E0.01678
G1 X145.430 Y67.727 E1.81526
G1 X145.430 Y68.261 E0.01678
G1 X104.570 Y27.401 E1.81526
G1 X104.570 Y27.935 E0.01678
G1 X145.430 Y68.796 E1.81526
G1 X145.430 Y69.330 E0.01678
G1 X104.570 Y28.470 E1.81526
G1 X104.570 Y29.004 E0.01678
G1 X145.430 Y69.864 E1.81526
G1 X145.430 Y70.399 E0.01678
G1 X104.570 Y29.538 E1.81526
G1 X104.570 Y30.073 E0.01678
G1 X145.430 Y70.933 E1.81526
G1 X145.430 Y71.467 E0.01678
G1 X104.570 Y30.607 E1.81526
G1 X104.570 Y31.141 E0.01678
G1 X145.430 Y72.001 E1.81526
G1 X145.430 Y72.536 E0.01678
G1 X104.570 Y31.675 E1.81526
G1 X104.570 Y32.210 E0.01678
G1 X145.430 Y73.070 E1.81526
G1 X145.430 Y73.604 E0.01678
G1 X104.570 Y32.744 E1.81526
G1 X104.570 Y33.278 E0.01678
G1 X145.430 Y74.139 E1.81526
M73 Q2 S179
M73 P2 R179
G1 X145.430 Y74.673 E0.01678
G1 X104.570 Y33.813 E1.81526
G1 X104.570 Y34.347 E0.01678
G1 X145.430 Y75.207 E1.81526
G1 X145.430 Y75.741 E0.01678
G1 X104.570 Y34.881 E1.81526
G1 X104.570 Y35.415 E0.01678
G1 X145.430 Y76.276 E1.81526
G1 X145.430 Y76.810 E0.01678
G1 X104.570 Y35.950 E1.81526
G1 X104.570 Y36.484 E0.01678
G1 X145.430 Y77.344 E1.81526
G1 X145.430 Y77.879 E0.01678
G1 X104.570 Y37.018 E1.81526
G1 X104.570 Y37.553 E0.01678
G1 X145.430 Y78.413 E1.81526
G1 X145.430 Y78.947 E0.01678
G1 X104.570 Y38.087 E1.81526
G1 X104.570 Y38.621 E0.01678
G1 X145.430 Y79.481 E1.81526
G1 X145.430 Y80.016 E0.01678
G1 X104.570 Y39.155 E1.81526
G1 X104.570 Y39.690 E0.01678
G1 X145.430 Y80.550 E1.81526
G1 X145.430 Y81.084 E0.01678
G1 X104.570 Y40.224 E1.81526
G1 X104.570 Y40.758 E0.01678
G1 X145.430 Y81.619 E1.81526
G1 X145.430 Y82.153 E0.01678
G1 X104.570 Y41.293 E1.81526
G1 X104.570 Y41.827 E0.01678
G1 X145.430 Y82.687 E1.81526
G1 X145.430 Y83.221 E0.01678
G1 X104.570 Y42.361 E1.81526
G1 X104.570 Y42.895 E0.01678
G1 X145.430 Y83.756 E1.81526
G1 X145.430 Y84.290 E0.01678
G1 X104.570 Y43.430 E1.81526
G1 X104.570 Y43.964 E0.01678
G1 X145.430 Y84.824 E1.81526
G1 X145.430 Y85.359 E0.01678
G1 X104.570 Y44.498 E1.81526
M73 Q2 S178
M73 P2 R178
G1 X104.570 Y45.033 E0.01678
G1 X145.430 Y85.893 E1.81526
G1 X145.430 Y86.427 E0.01678
G1 X104.570 Y45.567 E1.81526
G1 X104.570 Y46.101 E0.01678
G1 X145.430 Y86.961 E1.81526
G1 X145.430 Y87.496 E0.01678
G1 X104.570 Y46.635 E1.81526
G1 X104.570 Y47.170 E0.01678
G1 X145.430 Y88.030 E1.81526
G1 X145.430 Y88.564 E0.01678
G1 X104.570 Y47.704 E1.81526
G1 X104.570 Y48.238 E0.01678
G1 X145.430 Y89.099 E1.81526
G1 X145.430 Y89.633 E0.01678
G1 X104.570 Y48.773 E1.81526
G1 X104.570 Y49.307 E0.01678
G1 X145.430 Y90.167 E1.81526
G1 X145.430 Y90.701 E0.01678
G1 X104.570 Y49.841 E1.81526
G1 X104.570 Y50.375 E0.01678
G1 X145.430 Y91.236 E1.81526
G1 X145.430 Y91.770 E0.01678
G1 X104.570 Y50.910 E1.81526
G1 X104.570 Y51.444 E0.01678
G1 X145.430 Y92.304 E1.81526
G1 X145.430 Y92.839 E0.01678
G1 X104.570 Y51.978 E1.81526
G1 X104.570 Y52.513 E0.01678
G1 X145.430 Y93.373 E1.81526
G1 X145.430 Y93.907 E0.01678
G1 X104.570 Y53.047 E1.81526
G1 X104.570 Y53.581 E0.01678
G1 X145.430 Y94.441 E1.81526
G1 X145.430 Y94.976 E0.01678
G1 X104.570 Y54.115 E1.81526
G1 X104.570 Y54.650 E0.01678
G1 X145.430 Y95.510 E1.81526
G1 X145.430 Y96.044 E0.01678
G1 X104.570 Y55.184 E1.81526
G1 X104.570 Y55.718 E0.01678
G1 X145.430 Y96.579 E1.81526
M73 Q3 S177
M73 P3 R177
G1 X145.430 Y97.113 E0.01678
G1 X104.570 Y56.253 E1.81526
G1 X104.570 Y56.787 E0.01678
G1 X145.430 Y97.647 E1.81526
G1 X145.430 Y98.181 E0.01678
G1 X104.570 Y57.321 E1.81526
G1 X104.570 Y57.855 E0.01678
G1 X145.430 Y98.716 E1.81526
G1 X145.430 Y99.250 E0.01678
G1 X104.570 Y58.390 E1.81526
G1 X104.570 Y58.924 E0.01678
G1 X145.430 Y99.784 E1.81526
G1 X145.430 Y100.319 E0.01678
G1 X104.570 Y59.458 E1.81526
G1 X104.570 Y59.993 E0.01678
G1 X145.430 Y100.853 E1.81526
G1 X145.430 Y101.387 E0.01678
G1 X104.570 Y60.527 E1.81526
G1 X104.570 Y61.061 E0.01678
G1 X145.430 Y101.921 E1.81526
G1 X145.430 Y102.456 E0.01678
G1 X104.570 Y61.595 E1.81526
G1 X104.570 Y62.130 E0.01678
G1 X145.430 Y102.990 E1.81526
G1 X145.430 Y103.524 E0.01678
G1 X104.570 Y62.664 E1.81526
G1 X104.570 Y63.198 E0.01678
G1 X145.430 Y104.059 E1.81526
G1 X145.430 Y104.593 E0.01678
G1 X104.570 Y63.733 E1.81526
G1 X104.570 Y64.267 E0.01678
G1 X145.430 Y105.127 E1.81526
G1 X145.430 Y105.661 E0.01678
G1 X104.570 Y64.801 E1.81526
G1 X104.570 Y65.335 E0.01678
G1 X145.430 Y106.196 E1.81526
G1 X145.430 Y106.730 E0.01678
G1 X104.570 Y65.870 E1.81526
G1 X104.570 Y66.404 E0.01678
G1 X145.430 Y107.264 E1.81526
G1 X145.430 Y107.799 E0.01678
G1 X104.570 Y66.938 E1.81526
M73 Q3 S176
M73 P3 R176
G1 X104.570 Y67.473 E0.01678
G1 X145.430 Y108.333 E1.81526
G1 X145.430 Y108.867 E0.01678
G1 X104.570 Y68.007 E1.81526
G1 X104.570 Y68.541 E0.01678
G1 X145.430 Y109.401 E1.81526
G1 X145.430 Y109.936 E0.01678
G1 X104.570 Y69.075 E1.81526
G1 X104.570 Y69.610 E0.01678
G1 X145.430 Y110.470 E1.81526
G1 X145.430 Y111.004 E0.01678
G1 X104.570 Y70.144 E1.81526
G1 X104.570 Y70.678 E0.01678
G1 X145.430 Y111.539 E1.81526
G1 X145.430 Y112.073 E0.01678
G1 X104.570 Y71.213 E1.81526
G1 X104.570 Y71.747 E0.01678
G1 X145.430 Y112.607 E1.81526
G1 X145.430 Y113.141 E0.01678
G1 X104.570 Y72.281 E1.81526
G1 X104.570 Y72.815 E0.01678
G1 X145.430 Y113.676 E1.81526
G1 X145.430 Y114.210 E0.01678
G1 X104.570 Y73.350 E1.81526
G1 X104.570 Y73.884 E0.01678
G1 X145.430 Y114.744 E1.81526
G1 X145.430 Y115.279 E0.01678
G1 X104.570 Y74.418 E1.81526
G1 X104.570 Y74.953 E0.01678
G1 X145.430 Y115.813 E1.81526
G1 X145.430 Y116.347 E0.01678
G1 X104.570 Y75.487 E1.81526
G1 X104.570 Y76.021 E0.01678
G1 X145.430 Y116.881 E1.81526
G1 X145.430 Y117.416 E0.01678
G1 X104.570 Y76.555 E1.81526
G1 X104.570 Y77.090 E0.01678
G1 X145.430 Y117.950 E1.81526
G1 X145.430 Y118.484 E0.01678
G1 X104.570 Y77.624 E1.81526
G1 X104.570 Y78.158 E0.01678
G1 X145.430 Y119.019 E1.81526
M73 Q4 S175
M73 P4 R175
G1 X145.430 Y119.553 E0.01678
G1 X104.570 Y78.693 E1.81526
G1 X104.570 Y79.227 E0.01678
G1 X145.430 Y120.087 E1.81526
G1 X145.430 Y120.621 E0.01678
G1 X104.570 Y79.761 E1.81526
G1 X104.570 Y80.295 E0.01678
G1 X145.430 Y121.156 E1.81526
G1 X145.430 Y121.690 E0.01678
G1 X104.570 Y80.830 E1.81526
G1 X104.570 Y81.364 E0.01678
G1 X145.430 Y122.224 E1.81526
G1 X145.430 Y122.759 E0.01678
G1 X104.570 Y81.898 E1.81526
G1 X104.570 Y82.433 E0.01678
G1 X145.430 Y123.293 E1.81526
G1 X145.430 Y123.827 E0.01678
G1 X104.570 Y82.967 E1.81526
G1 X104.570 Y83.501 E0.01678
G1 X145.430 Y124.361 E1.81526
G1 X145.430 Y124.896 E0.01678
G1 X104.570 Y84.035 E1.81526
G1 X104.570 Y84.570 E0.01678
G1 X145.430 Y125.430 E1.81526
G1 X145.430 Y125.964 E0.01678
G1 X104.570 Y85.104 E1.81526
G1 X104.570 Y85.638 E0.01678
G1 X145.430 Y126.499 E1.81526
G1 X145.430 Y127.033 E0.01678
G1 X104.570 Y86.173 E1.81526
G1 X104.570 Y86.707 E0.01678
G1 X145.430 Y127.567 E1.81526
G1 X145.430 Y128.101 E0.01678
G1 X104.570 Y87.241 E1.81526
G1 X104.570 Y87.775 E0.01678
G1 X145.430 Y128.636 E1.81526
G1 X145.430 Y129.170 E0.01678
G1 X104.570 Y88.310 E1.81526
G1 X104.570 Y88.844 E0.01678
G1 X145.430 Y129.704 E1.81526
G1 X145.430 Y130.239 E0.01678
G1 X104.570 Y89.378 E1.81526
M73 Q5 S174
M73 P5 R174
G1 X104.570 Y89.913 E0.01678
G1 X145.430 Y130.773 E1.81526
G1 X145.430 Y131.307 E0.01678
G1 X104.570 Y90.447 E1.81526
G1 X104.570 Y90.981 E0.01678
G1 X145.430 Y131.841 E1.81526
G1 X145.430 Y132.376 E0.01678
G1 X104.570 Y91.515 E1.81526
G1 X104.570 Y92.050 E0.01678
G1 X145.430 Y132.910 E1.81526
G1 X145.430 Y133.444 E0.01678
G1 X104.570 Y92.584 E1.81526
G1 X104.570 Y93.118 E0.01678
G1 X145.430 Y133.979 E1.81526
G1 X145.430 Y134.513 E0.01678
G1 X104.570 Y93.653 E1.81526
G1 X104.570 Y94.187 E0.01678
G1 X145.430 Y135.047 E1.81526
G1 X145.430 Y135.581 E0.01678
G1 X104.570 Y94.721 E1.81526
G1 X104.570 Y95.255 E0.01678
G1 X145.430 Y136.116 E1.81526
G1 X145.430 Y136.650 E0.01678
G1 X104.570 Y95.790 E1.81526
G1 X104.570 Y96.324 E0.01678
G1 X145.430 Y137.184 E1.81526
G1 X145.430 Y137.719 E0.01678
G1 X104.570 Y96.858 E1.81526
G1 X104.570 Y97.393 E0.01678
G1 X145.430 Y138.253 E1.81526
G1 X145.430 Y138.787 E0.01678
G1 X104.570 Y97.927 E1.81526
G1 X104.570 Y98.461 E0.01678
G1 X145.430 Y139.321 E1.81526
G1 X145.430 Y139.856 E0.01678
G1 X104.570 Y98.995 E1.81526
G1 X104.570 Y99.530 E0.01678
G1 X145.430 Y140.390 E1.81526
